public/luts/dji/lk-dji-fuji.cube
TITLE "LK DJI Fuji"
LUT_3D_SIZE 9
DOMAIN_MIN 0.0 0.0 0.0
DOMAIN_MAX 1.0 1.0 1.0
0.015243 0.019591 0.021638
0.015387 0.019593 0.021640
0.063209 0.020013 0.022059
0.224540 0.021429 0.023476
0.481233 0.023683 0.025730
0.649534 0.025161 0.027208
0.771282 0.026230 0.028277
0.866520 0.027066 0.029113
0.926172 0.027590 0.029637
0.015248 0.019751 0.021643
0.015392 0.019753 0.021644
0.063214 0.020172 0.022064
0.224544 0.021589 0.023481
0.481237 0.023843 0.025735
0.649538 0.025321 0.027212
0.771287 0.026390 0.028281
0.866525 0.027226 0.029118
0.926177 0.027750 0.029641
0.016766 0.072204 0.023161
0.016910 0.072205 0.023162
0.064732 0.072625 0.023582
0.226062 0.074042 0.024999
0.482755 0.076295 0.027252
0.651056 0.077773 0.028730
0.772805 0.078842 0.029799
0.868043 0.079678 0.030635
0.927694 0.080202 0.031159
0.021816 0.246741 0.028211
0.021961 0.246742 0.028213
0.069783 0.247162 0.028633
0.231113 0.248579 0.030049
0.487806 0.250832 0.032303
0.656107 0.252310 0.033781
0.777855 0.253379 0.034850
0.873094 0.254215 0.035686
0.932745 0.254739 0.036210
0.029778 0.521868 0.036173
0.029922 0.521869 0.036174
0.077744 0.522289 0.036594
0.239074 0.523706 0.038011
0.495767 0.525960 0.040265
0.664068 0.527437 0.041742
0.785817 0.528506 0.042811
0.881055 0.529343 0.043648
0.940707 0.529866 0.044171
0.034972 0.701378 0.041368
0.035117 0.701379 0.041369
0.082939 0.701799 0.041789
0.244269 0.703215 0.043205
0.500962 0.705469 0.045459
0.669263 0.706947 0.046937
0.791011 0.708016 0.048006
0.886250 0.708852 0.048842
0.945901 0.709376 0.049366
0.038722 0.830937 0.045117
0.038866 0.830938 0.045118
0.086688 0.831358 0.045538
0.248018 0.832775 0.046954
0.504711 0.835029 0.049208
0.673012 0.836507 0.050686
0.794760 0.837576 0.051755
0.889999 0.838412 0.052591
0.949650 0.838936 0.053115
0.041650 0.932142 0.048045
0.041794 0.932144 0.048047
0.089616 0.932564 0.048467
0.250947 0.933980 0.049883
0.507640 0.936234 0.052137
0.675941 0.937712 0.053615
0.797689 0.938781 0.054684
0.892927 0.939617 0.055520
0.952579 0.940141 0.056044
0.042729 0.969411 0.049124
0.042873 0.969412 0.049125
0.090695 0.969832 0.049545
0.252025 0.971249 0.050962
0.508718 0.973503 0.053215
0.677019 0.974980 0.054693
0.798768 0.976049 0.055762
0.894006 0.976886 0.056599
0.953657 0.977409 0.057122
0.015244 0.019592 0.021796
0.015388 0.019593 0.021798
0.063210 0.020013 0.022218
0.224540 0.021430 0.023634
0.481233 0.023683 0.025888
0.649534 0.025161 0.027366
0.771282 0.026230 0.028435
0.866521 0.027067 0.029271
0.926172 0.027590 0.029795
0.015248 0.019752 0.021801
0.015392 0.019753 0.021802
0.063214 0.020173 0.022222
0.224545 0.021590 0.023639
0.481238 0.023843 0.025893
0.649539 0.025321 0.027371
0.771287 0.026390 0.028440
0.866525 0.027226 0.029276
0.926177 0.027750 0.029800
0.016766 0.072204 0.023319
0.016910 0.072206 0.023320
0.064732 0.072625 0.023740
0.226062 0.074042 0.025157
0.482756 0.076296 0.027411
0.651057 0.077774 0.028888
0.772805 0.078843 0.029957
0.868043 0.079679 0.030794
0.927695 0.080203 0.031317
0.021817 0.246741 0.028370
0.021961 0.246743 0.028371
0.069783 0.247162 0.028791
0.231113 0.248579 0.030207
0.487806 0.250833 0.032461
0.656107 0.252311 0.033939
0.777856 0.253380 0.035008
0.873094 0.254216 0.035844
0.932746 0.254740 0.036368
0.029778 0.521868 0.036331
0.029923 0.521870 0.036332
0.077745 0.522290 0.036752
0.239075 0.523706 0.038169
0.495768 0.525960 0.040423
0.664069 0.527438 0.041901
0.785817 0.528507 0.042970
0.881056 0.529343 0.043806
0.940707 0.529867 0.044330
0.034973 0.701378 0.041526
0.035117 0.701379 0.041527
0.082939 0.701799 0.041947
0.244269 0.703216 0.043363
0.500962 0.705470 0.045617
0.669263 0.706948 0.047095
0.791012 0.708017 0.048164
0.886250 0.708853 0.049000
0.945902 0.709377 0.049524
0.038722 0.830938 0.045275
0.038866 0.830939 0.045276
0.086688 0.831359 0.045696
0.248018 0.832775 0.047113
0.504712 0.835029 0.049367
0.673013 0.836507 0.050844
0.794761 0.837576 0.051913
0.889999 0.838412 0.052750
0.949651 0.838936 0.053273
0.041651 0.932143 0.048204
0.041795 0.932144 0.048205
0.089617 0.932564 0.048625
0.250947 0.933981 0.050041
0.507640 0.936235 0.052295
0.675941 0.937712 0.053773
0.797690 0.938781 0.054842
0.892928 0.939618 0.055678
0.952579 0.940141 0.056202
0.042729 0.969411 0.049282
0.042873 0.969413 0.049283
0.090695 0.969833 0.049703
0.252026 0.971249 0.051120
0.508719 0.973503 0.053374
0.677020 0.974981 0.054851
0.798768 0.976050 0.055920
0.894006 0.976886 0.056757
0.953658 0.977410 0.057280
0.015400 0.019748 0.073780
0.015544 0.019749 0.073781
0.063366 0.020169 0.074201
0.224696 0.021585 0.075617
0.481389 0.023839 0.077871
0.649690 0.025317 0.079349
0.771438 0.026386 0.080418
0.866677 0.027222 0.081254
0.926328 0.027746 0.081778
0.015404 0.019908 0.073784
0.015548 0.019909 0.073786
0.063370 0.020329 0.074205
0.224701 0.021745 0.075622
0.481394 0.023999 0.077876
0.649695 0.025477 0.079354
0.771443 0.026546 0.080423
0.866681 0.027382 0.081259
0.926333 0.027906 0.081783
0.016922 0.072360 0.075302
0.017066 0.072361 0.075303
0.064888 0.072781 0.075723
0.226218 0.074198 0.077140
0.482911 0.076452 0.079394
0.651213 0.077930 0.080872
0.772961 0.078999 0.081941
0.868199 0.079835 0.082777
0.927851 0.080359 0.083301
0.021973 0.246897 0.080353
0.022117 0.246898 0.080354
0.069939 0.247318 0.080774
0.231269 0.248735 0.082191
0.487962 0.250989 0.084444
0.656263 0.252467 0.085922
0.778012 0.253536 0.086991
0.873250 0.254372 0.087827
0.932901 0.254896 0.088351
0.029934 0.522024 0.088314
0.030078 0.522026 0.088316
0.077900 0.522446 0.088735
0.239231 0.523862 0.090152
0.495924 0.526116 0.092406
0.664225 0.527594 0.093884
0.785973 0.528663 0.094953
0.881211 0.529499 0.095789
0.940863 0.530023 0.096313
0.035129 0.701534 0.093509
0.035273 0.701535 0.093510
0.083095 0.701955 0.093930
0.244425 0.703372 0.095347
0.501118 0.705626 0.097601
0.669419 0.707103 0.099078
0.791168 0.708172 0.100147
0.886406 0.709009 0.100984
0.946058 0.709532 0.101507
0.038878 0.831094 0.097258
0.039022 0.831095 0.097259
0.086844 0.831515 0.097679
0.248174 0.832931 0.099096
0.504867 0.835185 0.101350
0.673168 0.836663 0.102827
0.794917 0.837732 0.103896
0.890155 0.838568 0.104733
0.949807 0.839092 0.105257
0.041807 0.932299 0.100187
0.041951 0.932300 0.100188
0.089773 0.932720 0.100608
0.251103 0.934137 0.102024
0.507796 0.936390 0.104278
0.676097 0.937868 0.105756
0.797845 0.938937 0.106825
0.893084 0.939773 0.107661
0.952735 0.940297 0.108185
0.042885 0.969567 0.101265
0.043029 0.969569 0.101266
0.090851 0.969988 0.101686
0.252181 0.971405 0.103103
0.508875 0.973659 0.105357
0.677176 0.975137 0.106835
0.798924 0.976206 0.107904
0.894162 0.977042 0.108740
0.953814 0.977566 0.109264
0.015919 0.020267 0.246948
0.016063 0.020268 0.246949
0.063885 0.020688 0.247369
0.225215 0.022105 0.248785
0.481908 0.024359 0.251039
0.650209 0.025837 0.252517
0.771958 0.026906 0.253586
0.867196 0.027742 0.254422
0.926848 0.028266 0.254946
0.015924 0.020427 0.246952
0.016068 0.020428 0.246953
0.063890 0.020848 0.247373
0.225220 0.022265 0.248790
0.481913 0.024519 0.251044
0.650214 0.025996 0.252522
0.771962 0.027066 0.253591
0.867201 0.027902 0.254427
0.926852 0.028426 0.254951
0.017441 0.072880 0.248470
0.017586 0.072881 0.248471
0.065408 0.073301 0.248891
0.226738 0.074717 0.250308
0.483431 0.076971 0.252562
0.651732 0.078449 0.254039
0.773480 0.079518 0.255108
0.868719 0.080354 0.255945
0.928370 0.080878 0.256468
0.022492 0.247417 0.253521
0.022636 0.247418 0.253522
0.070458 0.247838 0.253942
0.231788 0.249254 0.255358
0.488482 0.251508 0.257612
0.656783 0.252986 0.259090
0.778531 0.254055 0.260159
0.873769 0.254891 0.260995
0.933421 0.255415 0.261519
0.030454 0.522544 0.261482
0.030598 0.522545 0.261484
0.078420 0.522965 0.261903
0.239750 0.524382 0.263320
0.496443 0.526635 0.265574
0.664744 0.528113 0.267052
0.786493 0.529182 0.268121
0.881731 0.530018 0.268957
0.941382 0.530542 0.269481
0.035648 0.702053 0.266677
0.035792 0.702055 0.266678
0.083614 0.702475 0.267098
0.244945 0.703891 0.268515
0.501638 0.706145 0.270768
0.669939 0.707623 0.272246
0.791687 0.708692 0.273315
0.886925 0.709528 0.274152
0.946577 0.710052 0.274675
0.039397 0.831613 0.270426
0.039542 0.831614 0.270427
0.087364 0.832034 0.270847
0.248694 0.833451 0.272264
0.505387 0.835705 0.274518
0.673688 0.837182 0.275995
0.795436 0.838251 0.277064
0.890675 0.839088 0.277901
0.950326 0.839611 0.278424
0.042326 0.932818 0.273355
0.042470 0.932819 0.273356
0.090292 0.933239 0.273776
0.251622 0.934656 0.275192
0.508315 0.936910 0.277446
0.676616 0.938388 0.278924
0.798365 0.939457 0.279993
0.893603 0.940293 0.280829
0.953255 0.940817 0.281353
0.043404 0.970087 0.274433
0.043549 0.970088 0.274434
0.091371 0.970508 0.274854
0.252701 0.971924 0.276271
0.509394 0.974178 0.278525
0.677695 0.975656 0.280003
0.799443 0.976725 0.281072
0.894682 0.977561 0.281908
0.954333 0.978085 0.282432
0.016738 0.021086 0.519979
0.016882 0.021087 0.519981
0.064704 0.021507 0.520400
0.226034 0.022924 0.521817
0.482727 0.025178 0.524071
0.651028 0.026655 0.525549
0.772777 0.027724 0.526618
0.868015 0.028561 0.527454
0.927667 0.029084 0.527978
0.016742 0.021246 0.519984
0.016887 0.021247 0.519985
0.064709 0.021667 0.520405
0.226039 0.023084 0.521822
0.482732 0.025338 0.524076
0.651033 0.026815 0.525553
0.772781 0.027884 0.526622
0.868020 0.028721 0.527459
0.927671 0.029244 0.527982
0.018260 0.073698 0.521502
0.018405 0.073700 0.521503
0.066227 0.074120 0.521923
0.227557 0.075536 0.523339
0.484250 0.077790 0.525593
0.652551 0.079268 0.527071
0.774299 0.080337 0.528140
0.869538 0.081173 0.528976
0.929189 0.081697 0.529500
0.023311 0.248235 0.526552
0.023455 0.248237 0.526554
0.071277 0.248657 0.526974
0.232607 0.250073 0.528390
0.489300 0.252327 0.530644
0.657601 0.253805 0.532122
0.779350 0.254874 0.533191
0.874588 0.255710 0.534027
0.934240 0.256234 0.534551
0.031273 0.523363 0.534514
0.031417 0.523364 0.534515
0.079239 0.523784 0.534935
0.240569 0.525200 0.536352
0.497262 0.527454 0.538606
0.665563 0.528932 0.540083
0.787311 0.530001 0.541152
0.882550 0.530837 0.541989
0.942201 0.531361 0.542512
0.036467 0.702872 0.539709
0.036611 0.702874 0.539710
0.084433 0.703293 0.540130
0.245764 0.704710 0.541546
0.502457 0.706964 0.543800
0.670758 0.708442 0.545278
0.792506 0.709511 0.546347
0.887744 0.710347 0.547183
0.947396 0.710871 0.547707
0.040216 0.832432 0.543458
0.040360 0.832433 0.543459
0.088182 0.832853 0.543879
0.249513 0.834270 0.545295
0.506206 0.836523 0.547549
0.674507 0.838001 0.549027
0.796255 0.839070 0.550096
0.891493 0.839907 0.550932
0.951145 0.840430 0.551456
0.043145 0.933637 0.546386
0.043289 0.933638 0.546388
0.091111 0.934058 0.546808
0.252441 0.935475 0.548224
0.509134 0.937729 0.550478
0.677435 0.939206 0.551956
0.799184 0.940276 0.553025
0.894422 0.941112 0.553861
0.954074 0.941636 0.554385
0.044223 0.970906 0.547465
0.044368 0.970907 0.547466
0.092190 0.971327 0.547886
0.253520 0.972743 0.549303
0.510213 0.974997 0.551556
0.678514 0.976475 0.553034
0.800262 0.977544 0.554103
0.895501 0.978380 0.554940
0.955152 0.978904 0.555463
0.017272 0.021620 0.698131
0.017416 0.021622 0.698133
0.065238 0.022042 0.698553
0.226569 0.023458 0.699969
0.483262 0.025712 0.702223
0.651563 0.027190 0.703701
0.773311 0.028259 0.704770
0.868549 0.029095 0.705606
0.928201 0.029619 0.706130
0.017277 0.021780 0.698136
0.017421 0.021782 0.698137
0.065243 0.022201 0.698557
0.226573 0.023618 0.699974
0.483266 0.025872 0.702228
0.651567 0.027350 0.703705
0.773316 0.028419 0.704774
0.868554 0.029255 0.705611
0.928206 0.029779 0.706134
0.018795 0.074233 0.699654
0.018939 0.074234 0.699655
0.066761 0.074654 0.700075
0.228091 0.076071 0.701492
0.484784 0.078324 0.703746
0.653085 0.079802 0.705223
0.774834 0.080871 0.706292
0.870072 0.081708 0.707129
0.929723 0.082231 0.707652
0.023845 0.248770 0.704705
0.023990 0.248771 0.704706
0.071812 0.249191 0.705126
0.233142 0.250608 0.706542
0.489835 0.252861 0.708796
0.658136 0.254339 0.710274
0.779884 0.255408 0.711343
0.875123 0.256244 0.712179
0.934774 0.256768 0.712703
0.031807 0.523897 0.712666
0.031951 0.523898 0.712667
0.079773 0.524318 0.713087
0.241103 0.525735 0.714504
0.497796 0.527989 0.716758
0.666097 0.529466 0.718236
0.787846 0.530535 0.719305
0.883084 0.531372 0.720141
0.942736 0.531895 0.720665
0.037001 0.703407 0.717861
0.037146 0.703408 0.717862
0.084968 0.703828 0.718282
0.246298 0.705244 0.719698
0.502991 0.707498 0.721952
0.671292 0.708976 0.723430
0.793040 0.710045 0.724499
0.888279 0.710881 0.725335
0.947930 0.711405 0.725859
0.040751 0.832966 0.721610
0.040895 0.832967 0.721611
0.088717 0.833387 0.722031
0.250047 0.834804 0.723448
0.506740 0.837058 0.725701
0.675041 0.838536 0.727179
0.796789 0.839605 0.728248
0.892028 0.840441 0.729085
0.951679 0.840965 0.729608
0.043679 0.934171 0.724538
0.043823 0.934173 0.724540
0.091645 0.934593 0.724960
0.252976 0.936009 0.726376
0.509669 0.938263 0.728630
0.677970 0.939741 0.730108
0.799718 0.940810 0.731177
0.894956 0.941646 0.732013
0.954608 0.942170 0.732537
0.044758 0.971440 0.725617
0.044902 0.971441 0.725618
0.092724 0.971861 0.726038
0.254054 0.973278 0.727455
0.510747 0.975532 0.729709
0.679048 0.977009 0.731186
0.800797 0.978078 0.732255
0.896035 0.978915 0.733092
0.955686 0.979438 0.733615
0.017658 0.022006 0.826713
0.017802 0.022007 0.826715
0.065624 0.022427 0.827134
0.226954 0.023844 0.828551
0.483647 0.026098 0.830805
0.651948 0.027575 0.832283
0.773697 0.028644 0.833352
0.868935 0.029481 0.834188
0.928587 0.030004 0.834712
0.017662 0.022166 0.826718
0.017807 0.022167 0.826719
0.065629 0.022587 0.827139
0.226959 0.024004 0.828556
0.483652 0.026258 0.830810
0.651953 0.027735 0.832287
0.773701 0.028804 0.833356
0.868940 0.029641 0.834193
0.928591 0.030164 0.834716
0.019180 0.074618 0.828236
0.019325 0.074620 0.828237
0.067147 0.075040 0.828657
0.228477 0.076456 0.830074
0.485170 0.078710 0.832327
0.653471 0.080188 0.833805
0.775219 0.081257 0.834874
0.870458 0.082093 0.835710
0.930109 0.082617 0.836234
0.024231 0.249155 0.833286
0.024375 0.249157 0.833288
0.072197 0.249577 0.833708
0.233527 0.250993 0.835124
0.490220 0.253247 0.837378
0.658521 0.254725 0.838856
0.780270 0.255794 0.839925
0.875508 0.256630 0.840761
0.935160 0.257154 0.841285
0.032193 0.524283 0.841248
0.032337 0.524284 0.841249
0.080159 0.524704 0.841669
0.241489 0.526120 0.843086
0.498182 0.528374 0.845340
0.666483 0.529852 0.846817
0.788231 0.530921 0.847886
0.883470 0.531757 0.848723
0.943121 0.532281 0.849246
0.037387 0.703792 0.846443
0.037531 0.703794 0.846444
0.085353 0.704213 0.846864
0.246683 0.705630 0.848280
0.503377 0.707884 0.850534
0.671678 0.709362 0.852012
0.793426 0.710431 0.853081
0.888664 0.711267 0.853917
0.948316 0.711791 0.854441
0.041136 0.833352 0.850192
0.041280 0.833353 0.850193
0.089102 0.833773 0.850613
0.250433 0.835190 0.852029
0.507126 0.837443 0.854283
0.675427 0.838921 0.855761
0.797175 0.839990 0.856830
0.892413 0.840827 0.857666
0.952065 0.841350 0.858190
0.044065 0.934557 0.853120
0.044209 0.934558 0.853122
0.092031 0.934978 0.853542
0.253361 0.936395 0.854958
0.510054 0.938649 0.857212
0.678355 0.940126 0.858690
0.800104 0.941195 0.859759
0.895342 0.942032 0.860595
0.954994 0.942556 0.861119
0.045143 0.971826 0.854199
0.045288 0.971827 0.854200
0.093110 0.972247 0.854620
0.254440 0.973663 0.856037
0.511133 0.975917 0.858290
0.679434 0.977395 0.859768
0.801182 0.978464 0.860837
0.896421 0.979300 0.861674
0.956072 0.979824 0.862197
0.017959 0.022307 0.927156
0.018103 0.022309 0.927157
0.065925 0.022728 0.927577
0.227255 0.024145 0.928993
0.483949 0.026399 0.931247
0.652250 0.027877 0.932725
0.773998 0.028946 0.933794
0.869236 0.029782 0.934630
0.928888 0.030306 0.935154
0.017964 0.022467 0.927160
0.018108 0.022468 0.927162
0.065930 0.022888 0.927582
0.227260 0.024305 0.928998
0.483953 0.026559 0.931252
0.652254 0.028037 0.932730
0.774003 0.029106 0.933799
0.869241 0.029942 0.934635
0.928892 0.030466 0.935159
0.019482 0.074920 0.928678
0.019626 0.074921 0.928679
0.067448 0.075341 0.929099
0.228778 0.076757 0.930516
0.485471 0.079011 0.932770
0.653772 0.080489 0.934248
0.775520 0.081558 0.935317
0.870759 0.082394 0.936153
0.930410 0.082918 0.936677
0.024532 0.249457 0.933729
0.024676 0.249458 0.933730
0.072498 0.249878 0.934150
0.233829 0.251294 0.935567
0.490522 0.253548 0.937821
0.658823 0.255026 0.939298
0.780571 0.256095 0.940367
0.875809 0.256931 0.941204
0.935461 0.257455 0.941727
0.032494 0.524584 0.941690
0.032638 0.524585 0.941692
0.080460 0.525005 0.942112
0.241790 0.526422 0.943528
0.498483 0.528676 0.945782
0.666784 0.530153 0.947260
0.788533 0.531222 0.948329
0.883771 0.532059 0.949165
0.943423 0.532582 0.949689
0.037688 0.704094 0.946885
0.037833 0.704095 0.946886
0.085655 0.704515 0.947306
0.246985 0.705931 0.948723
0.503678 0.708185 0.950977
0.671979 0.709663 0.952454
0.793727 0.710732 0.953523
0.888966 0.711568 0.954360
0.948617 0.712092 0.954883
0.041437 0.833653 0.950634
0.041582 0.833654 0.950635
0.089404 0.834074 0.951055
0.250734 0.835491 0.952472
0.507427 0.837745 0.954726
0.675728 0.839223 0.956204
0.797476 0.840292 0.957273
0.892715 0.841128 0.958109
0.952366 0.841652 0.958633
0.044366 0.934858 0.953563
0.044510 0.934860 0.953564
0.092332 0.935279 0.953984
0.253663 0.936696 0.955401
0.510356 0.938950 0.957654
0.678657 0.940428 0.959132
0.800405 0.941497 0.960201
0.895643 0.942333 0.961037
0.955295 0.942857 0.961561
0.045445 0.972127 0.954641
0.045589 0.972128 0.954643
0.093411 0.972548 0.955062
0.254741 0.973965 0.956479
0.511434 0.976218 0.958733
0.679735 0.977696 0.960211
0.801484 0.978765 0.961280
0.896722 0.979602 0.962116
0.956373 0.980125 0.962640
0.018012 0.022360 0.944694
0.018156 0.022361 0.944695
0.065978 0.022781 0.945115
0.227308 0.024198 0.946532
0.484001 0.026452 0.948786
0.652302 0.027929 0.950263
0.774051 0.028998 0.951332
0.869289 0.029835 0.952169
0.928940 0.030358 0.952692
0.018016 0.022520 0.944699
0.018161 0.022521 0.944700
0.065983 0.022941 0.945120
0.227313 0.024358 0.946536
0.484006 0.026611 0.948790
0.652307 0.028089 0.950268
0.774055 0.029158 0.951337
0.869294 0.029995 0.952173
0.928945 0.030518 0.952697
0.019534 0.074972 0.946216
0.019678 0.074974 0.946218
0.067500 0.075394 0.946638
0.228831 0.076810 0.948054
0.485524 0.079064 0.950308
0.653825 0.080542 0.951786
0.775573 0.081611 0.952855
0.870811 0.082447 0.953691
0.930463 0.082971 0.954215
0.024585 0.249509 0.951267
0.024729 0.249511 0.951268
0.072551 0.249930 0.951688
0.233881 0.251347 0.953105
0.490574 0.253601 0.955359
0.658875 0.255079 0.956836
0.780624 0.256148 0.957905
0.875862 0.256984 0.958742
0.935514 0.257508 0.959266
0.032546 0.524637 0.959229
0.032691 0.524638 0.959230
0.080513 0.525058 0.959650
0.241843 0.526474 0.961066
0.498536 0.528728 0.963320
0.666837 0.530206 0.964798
0.788585 0.531275 0.965867
0.883824 0.532111 0.966703
0.943475 0.532635 0.967227
0.037741 0.704146 0.964423
0.037885 0.704147 0.964424
0.085707 0.704567 0.964844
0.247037 0.705984 0.966261
0.503730 0.708238 0.968515
0.672031 0.709716 0.969993
0.793780 0.710785 0.971062
0.889018 0.711621 0.971898
0.948670 0.712145 0.972422
0.041490 0.833706 0.968172
0.041634 0.833707 0.968174
0.089456 0.834127 0.968593
0.250787 0.835543 0.970010
0.507480 0.837797 0.972264
0.675781 0.839275 0.973742
0.797529 0.840344 0.974811
0.892767 0.841180 0.975647
0.952419 0.841704 0.976171
0.044419 0.934911 0.971101
0.044563 0.934912 0.971102
0.092385 0.935332 0.971522
0.253715 0.936749 0.972939
0.510408 0.939003 0.975193
0.678709 0.940480 0.976670
0.800458 0.941549 0.977739
0.895696 0.942386 0.978576
0.955348 0.942909 0.979099
0.045497 0.972179 0.972179
0.045641 0.972181 0.972181
0.093463 0.972601 0.972601
0.254794 0.974017 0.974017
0.511487 0.976271 0.976271
0.679788 0.977749 0.977749
0.801536 0.978818 0.978818
0.896774 0.979654 0.979654
0.956426 0.980178 0.980178
