public/luts/dji/lk-dji-kodak.cube
TITLE "LK DJI Kodak"
LUT_3D_SIZE 5
DOMAIN_MIN 0.0 0.0 0.0
DOMAIN_MAX 1.0 1.0 1.0
0.018218 0.011466 0.009456
0.073366 0.012335 0.010325
0.526188 0.019467 0.017457
0.831644 0.024277 0.022268
0.925309 0.025753 0.023743
0.020814 0.062300 0.012053
0.075963 0.063169 0.012922
0.528785 0.070301 0.020054
0.834241 0.075112 0.024865
0.927906 0.076587 0.026340
0.042953 0.495684 0.034191
0.098101 0.496552 0.035060
0.550923 0.503684 0.042192
0.856379 0.508495 0.047003
0.950044 0.509971 0.048478
0.058166 0.793507 0.049405
0.113315 0.794375 0.050273
0.566137 0.801507 0.057405
0.871593 0.806318 0.062216
0.965258 0.807794 0.063692
0.066265 0.952058 0.057504
0.121414 0.952927 0.058373
0.574236 0.960059 0.065505
0.879692 0.964870 0.070316
0.973357 0.966345 0.071791
0.018387 0.011635 0.040750
0.073535 0.012504 0.041619
0.526358 0.019636 0.048751
0.831813 0.024447 0.053562
0.925478 0.025922 0.055037
0.020983 0.062469 0.043347
0.076132 0.063338 0.044215
0.528954 0.070470 0.051347
0.834410 0.075281 0.056158
0.928075 0.076756 0.057634
0.043122 0.495853 0.065485
0.098270 0.496721 0.066354
0.551093 0.503853 0.073486
0.856548 0.508664 0.078297
0.950213 0.510140 0.079772
0.058335 0.793676 0.080699
0.113484 0.794544 0.081567
0.566306 0.801676 0.088699
0.871762 0.806487 0.093510
0.965427 0.807963 0.094985
0.066434 0.952227 0.088798
0.121583 0.953096 0.089666
0.574405 0.960228 0.096798
0.879861 0.965039 0.101609
0.973526 0.966514 0.103085
0.020392 0.013640 0.411777
0.075541 0.014509 0.412645
0.528363 0.021641 0.419777
0.833819 0.026452 0.424588
0.927484 0.027927 0.426063
0.022989 0.064475 0.414373
0.078137 0.065343 0.415242
0.530960 0.072475 0.422374
0.836416 0.077286 0.427185
0.930081 0.078762 0.428660
0.045127 0.497858 0.436512
0.100276 0.498727 0.437380
0.553098 0.505859 0.444512
0.858554 0.510670 0.449323
0.952219 0.512145 0.450798
0.060341 0.795681 0.451725
0.115489 0.796550 0.452594
0.568312 0.803682 0.459726
0.873767 0.808493 0.464537
0.967432 0.809968 0.466012
0.068440 0.954233 0.459824
0.123588 0.955101 0.460693
0.576411 0.962233 0.467825
0.881867 0.967044 0.472636
0.975531 0.968520 0.474111
0.021813 0.015061 0.674675
0.076962 0.015930 0.675544
0.529784 0.023062 0.682676
0.835240 0.027873 0.687487
0.928905 0.029348 0.688962
0.024410 0.065896 0.677272
0.079558 0.066764 0.678141
0.532381 0.073896 0.685273
0.837837 0.078707 0.690084
0.931502 0.080183 0.691559
0.046548 0.499279 0.699410
0.101697 0.500148 0.700279
0.554519 0.507280 0.707411
0.859975 0.512091 0.712222
0.953640 0.513566 0.713697
0.061762 0.797102 0.714624
0.116910 0.797971 0.715492
0.569733 0.805103 0.722624
0.875188 0.809914 0.727435
0.968853 0.811389 0.728911
0.069861 0.955654 0.722723
0.125009 0.956522 0.723592
0.577832 0.963654 0.730724
0.883288 0.968465 0.735534
0.976952 0.969941 0.737010
0.022577 0.015825 0.816004
0.077726 0.016694 0.816872
0.530548 0.023826 0.824004
0.836004 0.028637 0.828815
0.929669 0.030112 0.830290
0.025174 0.066660 0.818600
0.080322 0.067528 0.819469
0.533145 0.074660 0.826601
0.838600 0.079471 0.831412
0.932265 0.080947 0.832887
0.047312 0.500043 0.840739
0.102461 0.500912 0.841607
0.555283 0.508044 0.848739
0.860739 0.512855 0.853550
0.954404 0.514330 0.855025
0.062526 0.797866 0.855952
0.117674 0.798735 0.856821
0.570496 0.805867 0.863953
0.875952 0.810678 0.868764
0.969617 0.812153 0.870239
0.070625 0.956418 0.864051
0.125773 0.957286 0.864920
0.578596 0.964418 0.872052
0.884051 0.969229 0.876863
0.977716 0.970704 0.878338
