public/luts/dji/lk-dji-golden-hour.cube
TITLE "LK DJI Golden Hour"
LUT_3D_SIZE 5
DOMAIN_MIN 0.0 0.0 0.0
DOMAIN_MAX 1.0 1.0 1.0
0.000000 0.000000 0.000000
0.061162 0.000000 0.000000
0.576964 0.000000 0.000000
0.924311 0.000000 0.000000
0.994333 0.000000 0.000000
0.000000 0.044317 0.000000
0.059292 0.043572 0.000000
0.575095 0.037289 0.000000
0.922441 0.033059 0.000000
0.992463 0.032206 0.000000
0.000000 0.497043 0.000000
0.040191 0.496298 0.000000
0.555994 0.490016 0.000000
0.903340 0.485785 0.000000
0.973362 0.484932 0.000000
0.000000 0.804468 0.000000
0.027221 0.803723 0.000000
0.543023 0.797441 0.000000
0.890369 0.793210 0.000000
0.960391 0.792357 0.000000
0.000000 0.965700 0.000000
0.020418 0.964955 0.000000
0.536220 0.958673 0.000000
0.883567 0.954442 0.000000
0.953589 0.953589 0.000000
0.000000 0.000000 0.014566
0.061102 0.000000 0.013821
0.576905 0.000000 0.007539
0.924251 0.000000 0.003308
0.994273 0.000000 0.002455
0.000000 0.044257 0.012696
0.059233 0.043512 0.011952
0.575035 0.037230 0.005669
0.922381 0.032999 0.001438
0.992403 0.032146 0.000585
0.000000 0.496983 0.000000
0.040132 0.496239 0.000000
0.555934 0.489956 0.000000
0.903280 0.485725 0.000000
0.973302 0.484872 0.000000
0.000000 0.804409 0.000000
0.027161 0.803664 0.000000
0.542963 0.797381 0.000000
0.890310 0.793150 0.000000
0.960332 0.792297 0.000000
0.000000 0.965640 0.000000
0.020358 0.964896 0.000000
0.536161 0.958613 0.000000
0.883507 0.954382 0.000000
0.953529 0.953529 0.000000
0.000000 0.000000 0.397784
0.059530 0.000000 0.397039
0.575332 0.000000 0.390756
0.922678 0.000000 0.386525
0.992700 0.000000 0.385672
0.000000 0.042685 0.395914
0.057660 0.041940 0.395169
0.573462 0.035657 0.388886
0.920809 0.031426 0.384655
0.990831 0.030573 0.383802
0.000000 0.495411 0.376813
0.038559 0.494666 0.376068
0.554361 0.488383 0.369785
0.901708 0.484152 0.365554
0.971730 0.483299 0.364701
0.000000 0.802836 0.363842
0.025588 0.802091 0.363097
0.541391 0.795808 0.356815
0.888737 0.791577 0.352584
0.958759 0.790725 0.351731
0.000000 0.964068 0.357040
0.018786 0.963323 0.356295
0.534588 0.957040 0.350012
0.881934 0.952809 0.345781
0.951956 0.951956 0.344928
0.000000 0.000000 0.674512
0.058394 0.000000 0.673767
0.574196 0.000000 0.667484
0.921543 0.000000 0.663253
0.991565 0.000000 0.662400
0.000000 0.041549 0.672642
0.056524 0.040804 0.671897
0.572327 0.034522 0.665614
0.919673 0.030291 0.661383
0.989695 0.029438 0.660530
0.000000 0.494275 0.653541
0.037423 0.493530 0.652796
0.553226 0.487248 0.646513
0.900572 0.483017 0.642282
0.970594 0.482164 0.641429
0.000000 0.801700 0.640570
0.024453 0.800955 0.639825
0.540255 0.794673 0.633543
0.887601 0.790442 0.629312
0.957623 0.789589 0.628459
0.000000 0.962932 0.633768
0.017650 0.962187 0.633023
0.533452 0.955905 0.626740
0.880799 0.951674 0.622509
0.950821 0.950821 0.621656
0.000000 0.000000 0.824263
0.057780 0.000000 0.823518
0.573582 0.000000 0.817235
0.920928 0.000000 0.813004
0.990950 0.000000 0.812151
0.000000 0.040935 0.822393
0.055910 0.040190 0.821648
0.571712 0.033907 0.815365
0.919058 0.029676 0.811134
0.989080 0.028823 0.810282
0.000000 0.493661 0.803292
0.036809 0.492916 0.802547
0.552611 0.486633 0.796264
0.899957 0.482402 0.792034
0.969979 0.481549 0.791181
0.000000 0.801086 0.790322
0.023838 0.800341 0.789577
0.539641 0.794058 0.783294
0.886987 0.789827 0.779063
0.957009 0.788974 0.778210
0.000000 0.962318 0.783519
0.017036 0.961573 0.782774
0.532838 0.955290 0.776491
0.880184 0.951059 0.772260
0.950206 0.950206 0.771407
