public/luts/dji/lk-dji-warm-film.cube
TITLE "LK DJI Warm Film"
LUT_3D_SIZE 5
DOMAIN_MIN 0.0 0.0 0.0
DOMAIN_MAX 1.0 1.0 1.0
0.025528 0.022832 0.018704
0.080678 0.023833 0.019705
0.519716 0.031803 0.027674
0.810854 0.037087 0.032958
0.925028 0.039160 0.035031
0.028592 0.075170 0.021768
0.083743 0.076172 0.022769
0.522780 0.084141 0.030738
0.813918 0.089425 0.036023
0.928093 0.091498 0.038095
0.054024 0.509525 0.047200
0.109174 0.510526 0.048201
0.548211 0.518495 0.056170
0.839350 0.523780 0.061454
0.953524 0.525852 0.063527
0.071208 0.803020 0.064384
0.126358 0.804021 0.065385
0.565396 0.811990 0.073354
0.856534 0.817275 0.078638
0.970708 0.819347 0.080711
0.080304 0.958373 0.073480
0.135454 0.959374 0.074481
0.574492 0.967343 0.082450
0.865630 0.972628 0.087734
0.979804 0.974700 0.089807
0.025740 0.023045 0.052713
0.080891 0.024046 0.053715
0.519928 0.032015 0.061684
0.811066 0.037299 0.066968
0.925240 0.039372 0.069041
0.028804 0.075383 0.055778
0.083955 0.076384 0.056779
0.522992 0.084353 0.064748
0.814130 0.089637 0.070033
0.928305 0.091710 0.072105
0.054236 0.509737 0.081209
0.109386 0.510738 0.082210
0.548424 0.518708 0.090180
0.839562 0.523992 0.095464
0.953736 0.526065 0.097537
0.071420 0.803232 0.098393
0.126571 0.804233 0.099395
0.565608 0.812202 0.107364
0.856746 0.817487 0.112648
0.970920 0.819559 0.114721
0.080516 0.958585 0.107489
0.135666 0.959586 0.108490
0.574704 0.967555 0.116460
0.865842 0.972840 0.121744
0.980016 0.974912 0.123817
0.028052 0.025356 0.423230
0.083202 0.026357 0.424231
0.522239 0.034327 0.432200
0.813378 0.039611 0.437484
0.927552 0.041683 0.439557
0.031116 0.077694 0.426294
0.086267 0.078695 0.427295
0.525304 0.086665 0.435264
0.816442 0.091949 0.440549
0.930616 0.094022 0.442621
0.056547 0.512049 0.451726
0.111698 0.513050 0.452727
0.550735 0.521019 0.460696
0.841874 0.526304 0.465980
0.956048 0.528376 0.468053
0.073732 0.805544 0.468910
0.128882 0.806545 0.469911
0.567919 0.814514 0.477880
0.859058 0.819799 0.483164
0.973232 0.821871 0.485237
0.082827 0.960897 0.478006
0.137978 0.961898 0.479007
0.577015 0.969867 0.486976
0.868154 0.975152 0.492260
0.982328 0.977224 0.494333
0.029660 0.026965 0.681106
0.084811 0.027966 0.682107
0.523848 0.035935 0.690077
0.814987 0.041220 0.695361
0.929161 0.043292 0.697434
0.032725 0.079303 0.684171
0.087876 0.080304 0.685172
0.526913 0.088273 0.693141
0.818051 0.093558 0.698425
0.932225 0.095630 0.700498
0.058156 0.513658 0.709602
0.113307 0.514659 0.710603
0.552344 0.522628 0.718572
0.843483 0.527913 0.723857
0.957657 0.529985 0.725929
0.075340 0.807153 0.726786
0.130491 0.808154 0.727787
0.569528 0.816123 0.735757
0.860667 0.821408 0.741041
0.974841 0.823480 0.743113
0.084436 0.962506 0.735882
0.139587 0.963507 0.736883
0.578624 0.971476 0.744852
0.869763 0.976761 0.750137
0.983937 0.978833 0.752209
0.030520 0.027825 0.818904
0.085671 0.028826 0.819906
0.524708 0.036795 0.827875
0.815846 0.042080 0.833159
0.930021 0.044152 0.835232
0.033585 0.080163 0.821969
0.088735 0.081164 0.822970
0.527773 0.089133 0.830939
0.818911 0.094418 0.836224
0.933085 0.096490 0.838296
0.059016 0.514518 0.847400
0.114167 0.515519 0.848401
0.553204 0.523488 0.856371
0.844342 0.528772 0.861655
0.958517 0.530845 0.863728
0.076200 0.808012 0.864584
0.131351 0.809014 0.865586
0.570388 0.816983 0.873555
0.861526 0.822267 0.878839
0.975701 0.824340 0.880912
0.085296 0.963366 0.873680
0.140447 0.964367 0.874681
0.579484 0.972336 0.882651
0.870622 0.977620 0.887935
0.984797 0.979693 0.890008
