public/luts/dji/lk-dji-street.cube
TITLE "LK DJI Street"
LUT_3D_SIZE 17
DOMAIN_MIN 0.0 0.0 0.0
DOMAIN_MAX 1.0 1.0 1.0
0.000000 0.000000 0.000000
0.000000 0.000000 0.000000
0.000000 0.000000 0.000000
0.000000 0.000000 0.000000
0.003718 0.000145 0.000145
0.054352 0.002115 0.002115
0.140861 0.005482 0.005482
0.270204 0.010516 0.010516
0.390669 0.015205 0.015205
0.484086 0.018840 0.018840
0.564343 0.021964 0.021964
0.633365 0.024650 0.024650
0.693366 0.026985 0.026985
0.746730 0.029062 0.029062
0.795950 0.030978 0.030978
0.843595 0.032832 0.032832
0.860866 0.033504 0.033504
0.000000 0.000000 0.000000
0.000000 0.000000 0.000000
0.000000 0.000000 0.000000
0.000000 0.000000 0.000000
0.003718 0.000145 0.000145
0.054352 0.002115 0.002115
0.140861 0.005482 0.005482
0.270204 0.010516 0.010516
0.390669 0.015205 0.015205
0.484086 0.018840 0.018840
0.564343 0.021964 0.021964
0.633365 0.024650 0.024650
0.693366 0.026985 0.026985
0.746730 0.029062 0.029062
0.795950 0.030978 0.030978
0.843595 0.032832 0.032832
0.860866 0.033504 0.033504
0.000000 0.000000 0.000000
0.000000 0.000000 0.000000
0.000000 0.000000 0.000000
0.000000 0.000000 0.000000
0.003718 0.000145 0.000145
0.054352 0.002115 0.002115
0.140861 0.005482 0.005482
0.270204 0.010516 0.010516
0.390669 0.015205 0.015205
0.484086 0.018840 0.018840
0.564343 0.021964 0.021964
0.633365 0.024650 0.024650
0.693366 0.026985 0.026985
0.746730 0.029062 0.029062
0.795950 0.030978 0.030978
0.843595 0.032832 0.032832
0.860866 0.033504 0.033504
0.000000 0.000000 0.000000
0.000000 0.000000 0.000000
0.000000 0.000000 0.000000
0.000000 0.000000 0.000000
0.003718 0.000145 0.000145
0.054352 0.002115 0.002115
0.140861 0.005482 0.005482
0.270204 0.010516 0.010516
0.390669 0.015205 0.015205
0.484086 0.018840 0.018840
0.564343 0.021964 0.021964
0.633365 0.024650 0.024650
0.693366 0.026985 0.026985
0.746730 0.029062 0.029062
0.795950 0.030978 0.030978
0.843595 0.032832 0.032832
0.860866 0.033504 0.033504
0.000444 0.003706 0.000444
0.000444 0.003706 0.000444
0.000444 0.003706 0.000444
0.000444 0.003706 0.000444
0.004162 0.003850 0.000589
0.054796 0.005821 0.002560
0.141305 0.009188 0.005926
0.270649 0.014222 0.010960
0.391113 0.018910 0.015649
0.484530 0.022546 0.019285
0.564787 0.025669 0.022408
0.633810 0.028356 0.025094
0.693811 0.030691 0.027430
0.747175 0.032768 0.029506
0.796395 0.034683 0.031422
0.844039 0.036538 0.033276
0.861310 0.037210 0.033948
0.006994 0.058333 0.006994
0.006994 0.058333 0.006994
0.006994 0.058333 0.006994
0.006994 0.058333 0.006994
0.010712 0.058478 0.007139
0.061345 0.060448 0.009109
0.147855 0.063815 0.012476
0.277198 0.068849 0.017510
0.397663 0.073537 0.022198
0.491080 0.077173 0.025834
0.571337 0.080297 0.028958
0.640359 0.082983 0.031644
0.700360 0.085318 0.033979
0.753724 0.087395 0.036056
0.802944 0.089311 0.037972
0.850589 0.091165 0.039826
0.867860 0.091837 0.040498
0.018194 0.151750 0.018194
0.018194 0.151750 0.018194
0.018194 0.151750 0.018194
0.018194 0.151750 0.018194
0.021912 0.151895 0.018339
0.072546 0.153865 0.020309
0.159055 0.157232 0.023676
0.288399 0.162266 0.028710
0.408863 0.166955 0.033399
0.502280 0.170590 0.037034
0.582537 0.173714 0.040158
0.651559 0.176400 0.042844
0.711561 0.178735 0.045179
0.764924 0.180812 0.047256
0.814144 0.182728 0.049172
0.861789 0.184582 0.051026
0.879060 0.185254 0.051698
0.034943 0.291442 0.034943
0.034943 0.291442 0.034943
0.034943 0.291442 0.034943
0.034943 0.291442 0.034943
0.038660 0.291587 0.035087
0.089294 0.293557 0.037058
0.175803 0.296924 0.040425
0.305147 0.301958 0.045459
0.425611 0.306647 0.050147
0.519029 0.310282 0.053783
0.599285 0.313406 0.056906
0.668308 0.316092 0.059593
0.728309 0.318427 0.061928
0.781673 0.320504 0.064005
0.830893 0.322420 0.065920
0.878538 0.324274 0.067775
0.895808 0.324946 0.068447
0.050542 0.421551 0.050542
0.050542 0.421551 0.050542
0.050542 0.421551 0.050542
0.050542 0.421551 0.050542
0.054260 0.421696 0.050687
0.104894 0.423666 0.052657
0.191403 0.427033 0.056024
0.320746 0.432067 0.061058
0.441211 0.436755 0.065747
0.534628 0.440391 0.069382
0.614885 0.443515 0.072506
0.683907 0.446201 0.075192
0.743908 0.448536 0.077527
0.797272 0.450613 0.079604
0.846492 0.452529 0.081520
0.894137 0.454383 0.083374
0.911408 0.455055 0.084046
0.062639 0.522449 0.062639
0.062639 0.522449 0.062639
0.062639 0.522449 0.062639
0.062639 0.522449 0.062639
0.066357 0.522594 0.062784
0.116991 0.524565 0.064755
0.203500 0.527932 0.068121
0.332844 0.532966 0.073155
0.453308 0.537654 0.077844
0.546725 0.541290 0.081480
0.626982 0.544413 0.084603
0.696005 0.547099 0.087289
0.756006 0.549435 0.089625
0.809370 0.551512 0.091701
0.858590 0.553427 0.093617
0.906234 0.555281 0.095471
0.923505 0.555954 0.096143
0.073032 0.609134 0.073032
0.073032 0.609134 0.073032
0.073032 0.609134 0.073032
0.073032 0.609134 0.073032
0.076750 0.609279 0.073177
0.127384 0.611249 0.075148
0.213893 0.614616 0.078515
0.343237 0.619650 0.083549
0.463701 0.624339 0.088237
0.557119 0.627974 0.091873
0.637375 0.631098 0.094996
0.706398 0.633784 0.097682
0.766399 0.636119 0.100018
0.819763 0.638196 0.102095
0.868983 0.640112 0.104010
0.916628 0.641966 0.105864
0.933898 0.642638 0.106537
0.081971 0.683685 0.081971
0.081971 0.683685 0.081971
0.081971 0.683685 0.081971
0.081971 0.683685 0.081971
0.085688 0.683830 0.082115
0.136322 0.685801 0.084086
0.222832 0.689167 0.087453
0.352175 0.694201 0.092487
0.472639 0.698890 0.097175
0.566057 0.702525 0.100811
0.646314 0.705649 0.103934
0.715336 0.708335 0.106621
0.775337 0.710670 0.108956
0.828701 0.712747 0.111033
0.877921 0.714663 0.112948
0.925566 0.716517 0.114803
0.942836 0.717189 0.115475
0.089741 0.748493 0.089741
0.089741 0.748493 0.089741
0.089741 0.748493 0.089741
0.089741 0.748493 0.089741
0.093459 0.748637 0.089886
0.144092 0.750608 0.091856
0.230602 0.753975 0.095223
0.359945 0.759009 0.100257
0.480410 0.763697 0.104945
0.573827 0.767333 0.108581
0.654084 0.770456 0.111705
0.723106 0.773143 0.114391
0.783107 0.775478 0.116726
0.836471 0.777555 0.118803
0.885691 0.779470 0.120719
0.933336 0.781325 0.122573
0.950607 0.781997 0.123245
0.096651 0.806131 0.096651
0.096651 0.806131 0.096651
0.096651 0.806131 0.096651
0.096651 0.806131 0.096651
0.100369 0.806276 0.096796
0.151003 0.808247 0.098767
0.237512 0.811614 0.102134
0.366856 0.816648 0.107168
0.487320 0.821336 0.111856
0.580738 0.824972 0.115492
0.660994 0.828095 0.118615
0.730017 0.830781 0.121302
0.790018 0.833117 0.123637
0.843382 0.835194 0.125714
0.892602 0.837109 0.127629
0.940247 0.838963 0.129483
0.957517 0.839636 0.130156
0.103025 0.859295 0.103025
0.103025 0.859295 0.103025
0.103025 0.859295 0.103025
0.103025 0.859295 0.103025
0.106743 0.859439 0.103170
0.157377 0.861410 0.105141
0.243886 0.864777 0.108508
0.373230 0.869811 0.113542
0.493694 0.874499 0.118230
0.587112 0.878135 0.121866
0.667368 0.881258 0.124989
0.736391 0.883945 0.127676
0.796392 0.886280 0.130011
0.849756 0.888357 0.132088
0.898976 0.890272 0.134003
0.946621 0.892127 0.135858
0.963891 0.892799 0.136530
0.109195 0.910756 0.109195
0.109195 0.910756 0.109195
0.109195 0.910756 0.109195
0.109195 0.910756 0.109195
0.112913 0.910901 0.109340
0.163547 0.912872 0.111311
0.250056 0.916239 0.114678
0.379400 0.921273 0.119712
0.499864 0.925961 0.124400
0.593282 0.929597 0.128036
0.673538 0.932720 0.131159
0.742561 0.935406 0.133846
0.802562 0.937742 0.136181
0.855926 0.939819 0.138258
0.905146 0.941734 0.140173
0.952791 0.943588 0.142028
0.970061 0.944261 0.142700
0.111432 0.929411 0.111432
0.111432 0.929411 0.111432
0.111432 0.929411 0.111432
0.111432 0.929411 0.111432
0.115150 0.929555 0.111577
0.165784 0.931526 0.113547
0.252293 0.934893 0.116914
0.381636 0.939927 0.121948
0.502101 0.944615 0.126637
0.595518 0.948251 0.130272
0.675775 0.951374 0.133396
0.744797 0.954061 0.136082
0.804798 0.956396 0.138417
0.858162 0.958473 0.140494
0.907382 0.960388 0.142410
0.955027 0.962243 0.144264
0.972298 0.962915 0.144936
0.000000 0.000000 0.000000
0.000000 0.000000 0.000000
0.000000 0.000000 0.000000
0.000000 0.000000 0.000000
0.003718 0.000145 0.000145
0.054352 0.002115 0.002115
0.140861 0.005482 0.005482
0.270204 0.010516 0.010516
0.390669 0.015205 0.015205
0.484086 0.018840 0.018840
0.564343 0.021964 0.021964
0.633365 0.024650 0.024650
0.693366 0.026985 0.026985
0.746730 0.029062 0.029062
0.795950 0.030978 0.030978
0.843595 0.032832 0.032832
0.860866 0.033504 0.033504
0.000000 0.000000 0.000000
0.000000 0.000000 0.000000
0.000000 0.000000 0.000000
0.000000 0.000000 0.000000
0.003718 0.000145 0.000145
0.054352 0.002115 0.002115
0.140861 0.005482 0.005482
0.270204 0.010516 0.010516
0.390669 0.015205 0.015205
0.484086 0.018840 0.018840
0.564343 0.021964 0.021964
0.633365 0.024650 0.024650
0.693366 0.026985 0.026985
0.746730 0.029062 0.029062
0.795950 0.030978 0.030978
0.843595 0.032832 0.032832
0.860866 0.033504 0.033504
0.000000 0.000000 0.000000
0.000000 0.000000 0.000000
0.000000 0.000000 0.000000
0.000000 0.000000 0.000000
0.003718 0.000145 0.000145
0.054352 0.002115 0.002115
0.140861 0.005482 0.005482
0.270204 0.010516 0.010516
0.390669 0.015205 0.015205
0.484086 0.018840 0.018840
0.564343 0.021964 0.021964
0.633365 0.024650 0.024650
0.693366 0.026985 0.026985
0.746730 0.029062 0.029062
0.795950 0.030978 0.030978
0.843595 0.032832 0.032832
0.860866 0.033504 0.033504
0.000000 0.000000 0.000000
0.000000 0.000000 0.000000
0.000000 0.000000 0.000000
0.000000 0.000000 0.000000
0.003718 0.000145 0.000145
0.054352 0.002115 0.002115
0.140861 0.005482 0.005482
0.270204 0.010516 0.010516
0.390669 0.015205 0.015205
0.484086 0.018840 0.018840
0.564343 0.021964 0.021964
0.633365 0.024650 0.024650
0.693366 0.026985 0.026985
0.746730 0.029062 0.029062
0.795950 0.030978 0.030978
0.843595 0.032832 0.032832
0.860866 0.033504 0.033504
0.000444 0.003706 0.000444
0.000444 0.003706 0.000444
0.000444 0.003706 0.000444
0.000444 0.003706 0.000444
0.004162 0.003850 0.000589
0.054796 0.005821 0.002560
0.141305 0.009188 0.005926
0.270649 0.014222 0.010960
0.391113 0.018910 0.015649
0.484530 0.022546 0.019285
0.564787 0.025669 0.022408
0.633810 0.028356 0.025094
0.693811 0.030691 0.027430
0.747175 0.032768 0.029506
0.796395 0.034683 0.031422
0.844039 0.036538 0.033276
0.861310 0.037210 0.033948
0.006994 0.058333 0.006994
0.006994 0.058333 0.006994
0.006994 0.058333 0.006994
0.006994 0.058333 0.006994
0.010712 0.058478 0.007139
0.061345 0.060448 0.009109
0.147855 0.063815 0.012476
0.277198 0.068849 0.017510
0.397663 0.073537 0.022198
0.491080 0.077173 0.025834
0.571337 0.080297 0.028958
0.640359 0.082983 0.031644
0.700360 0.085318 0.033979
0.753724 0.087395 0.036056
0.802944 0.089311 0.037972
0.850589 0.091165 0.039826
0.867860 0.091837 0.040498
0.018194 0.151750 0.018194
0.018194 0.151750 0.018194
0.018194 0.151750 0.018194
0.018194 0.151750 0.018194
0.021912 0.151895 0.018339
0.072546 0.153865 0.020309
0.159055 0.157232 0.023676
0.288399 0.162266 0.028710
0.408863 0.166955 0.033399
0.502280 0.170590 0.037034
0.582537 0.173714 0.040158
0.651559 0.176400 0.042844
0.711561 0.178735 0.045179
0.764924 0.180812 0.047256
0.814144 0.182728 0.049172
0.861789 0.184582 0.051026
0.879060 0.185254 0.051698
0.034943 0.291442 0.034943
0.034943 0.291442 0.034943
0.034943 0.291442 0.034943
0.034943 0.291442 0.034943
0.038660 0.291587 0.035087
0.089294 0.293557 0.037058
0.175803 0.296924 0.040425
0.305147 0.301958 0.045459
0.425611 0.306647 0.050147
0.519029 0.310282 0.053783
0.599285 0.313406 0.056906
0.668308 0.316092 0.059593
0.728309 0.318427 0.061928
0.781673 0.320504 0.064005
0.830893 0.322420 0.065920
0.878538 0.324274 0.067775
0.895808 0.324946 0.068447
0.050542 0.421551 0.050542
0.050542 0.421551 0.050542
0.050542 0.421551 0.050542
0.050542 0.421551 0.050542
0.054260 0.421696 0.050687
0.104894 0.423666 0.052657
0.191403 0.427033 0.056024
0.320746 0.432067 0.061058
0.441211 0.436755 0.065747
0.534628 0.440391 0.069382
0.614885 0.443515 0.072506
0.683907 0.446201 0.075192
0.743908 0.448536 0.077527
0.797272 0.450613 0.079604
0.846492 0.452529 0.081520
0.894137 0.454383 0.083374
0.911408 0.455055 0.084046
0.062639 0.522449 0.062639
0.062639 0.522449 0.062639
0.062639 0.522449 0.062639
0.062639 0.522449 0.062639
0.066357 0.522594 0.062784
0.116991 0.524565 0.064755
0.203500 0.527932 0.068121
0.332844 0.532966 0.073155
0.453308 0.537654 0.077844
0.546725 0.541290 0.081480
0.626982 0.544413 0.084603
0.696005 0.547099 0.087289
0.756006 0.549435 0.089625
0.809370 0.551512 0.091701
0.858590 0.553427 0.093617
0.906234 0.555281 0.095471
0.923505 0.555954 0.096143
0.073032 0.609134 0.073032
0.073032 0.609134 0.073032
0.073032 0.609134 0.073032
0.073032 0.609134 0.073032
0.076750 0.609279 0.073177
0.127384 0.611249 0.075148
0.213893 0.614616 0.078515
0.343237 0.619650 0.083549
0.463701 0.624339 0.088237
0.557119 0.627974 0.091873
0.637375 0.631098 0.094996
0.706398 0.633784 0.097682
0.766399 0.636119 0.100018
0.819763 0.638196 0.102095
0.868983 0.640112 0.104010
0.916628 0.641966 0.105864
0.933898 0.642638 0.106537
0.081971 0.683685 0.081971
0.081971 0.683685 0.081971
0.081971 0.683685 0.081971
0.081971 0.683685 0.081971
0.085688 0.683830 0.082115
0.136322 0.685801 0.084086
0.222832 0.689167 0.087453
0.352175 0.694201 0.092487
0.472639 0.698890 0.097175
0.566057 0.702525 0.100811
0.646314 0.705649 0.103934
0.715336 0.708335 0.106621
0.775337 0.710670 0.108956
0.828701 0.712747 0.111033
0.877921 0.714663 0.112948
0.925566 0.716517 0.114803
0.942836 0.717189 0.115475
0.089741 0.748493 0.089741
0.089741 0.748493 0.089741
0.089741 0.748493 0.089741
0.089741 0.748493 0.089741
0.093459 0.748637 0.089886
0.144092 0.750608 0.091856
0.230602 0.753975 0.095223
0.359945 0.759009 0.100257
0.480410 0.763697 0.104945
0.573827 0.767333 0.108581
0.654084 0.770456 0.111705
0.723106 0.773143 0.114391
0.783107 0.775478 0.116726
0.836471 0.777555 0.118803
0.885691 0.779470 0.120719
0.933336 0.781325 0.122573
0.950607 0.781997 0.123245
0.096651 0.806131 0.096651
0.096651 0.806131 0.096651
0.096651 0.806131 0.096651
0.096651 0.806131 0.096651
0.100369 0.806276 0.096796
0.151003 0.808247 0.098767
0.237512 0.811614 0.102134
0.366856 0.816648 0.107168
0.487320 0.821336 0.111856
0.580738 0.824972 0.115492
0.660994 0.828095 0.118615
0.730017 0.830781 0.121302
0.790018 0.833117 0.123637
0.843382 0.835194 0.125714
0.892602 0.837109 0.127629
0.940247 0.838963 0.129483
0.957517 0.839636 0.130156
0.103025 0.859295 0.103025
0.103025 0.859295 0.103025
0.103025 0.859295 0.103025
0.103025 0.859295 0.103025
0.106743 0.859439 0.103170
0.157377 0.861410 0.105141
0.243886 0.864777 0.108508
0.373230 0.869811 0.113542
0.493694 0.874499 0.118230
0.587112 0.878135 0.121866
0.667368 0.881258 0.124989
0.736391 0.883945 0.127676
0.796392 0.886280 0.130011
0.849756 0.888357 0.132088
0.898976 0.890272 0.134003
0.946621 0.892127 0.135858
0.963891 0.892799 0.136530
0.109195 0.910756 0.109195
0.109195 0.910756 0.109195
0.109195 0.910756 0.109195
0.109195 0.910756 0.109195
0.112913 0.910901 0.109340
0.163547 0.912872 0.111311
0.250056 0.916239 0.114678
0.379400 0.921273 0.119712
0.499864 0.925961 0.124400
0.593282 0.929597 0.128036
0.673538 0.932720 0.131159
0.742561 0.935406 0.133846
0.802562 0.937742 0.136181
0.855926 0.939819 0.138258
0.905146 0.941734 0.140173
0.952791 0.943588 0.142028
0.970061 0.944261 0.142700
0.111432 0.929411 0.111432
0.111432 0.929411 0.111432
0.111432 0.929411 0.111432
0.111432 0.929411 0.111432
0.115150 0.929555 0.111577
0.165784 0.931526 0.113547
0.252293 0.934893 0.116914
0.381636 0.939927 0.121948
0.502101 0.944615 0.126637
0.595518 0.948251 0.130272
0.675775 0.951374 0.133396
0.744797 0.954061 0.136082
0.804798 0.956396 0.138417
0.858162 0.958473 0.140494
0.907382 0.960388 0.142410
0.955027 0.962243 0.144264
0.972298 0.962915 0.144936
0.000000 0.000000 0.000000
0.000000 0.000000 0.000000
0.000000 0.000000 0.000000
0.000000 0.000000 0.000000
0.003718 0.000145 0.000145
0.054352 0.002115 0.002115
0.140861 0.005482 0.005482
0.270204 0.010516 0.010516
0.390669 0.015205 0.015205
0.484086 0.018840 0.018840
0.564343 0.021964 0.021964
0.633365 0.024650 0.024650
0.693366 0.026985 0.026985
0.746730 0.029062 0.029062
0.795950 0.030978 0.030978
0.843595 0.032832 0.032832
0.860866 0.033504 0.033504
0.000000 0.000000 0.000000
0.000000 0.000000 0.000000
0.000000 0.000000 0.000000
0.000000 0.000000 0.000000
0.003718 0.000145 0.000145
0.054352 0.002115 0.002115
0.140861 0.005482 0.005482
0.270204 0.010516 0.010516
0.390669 0.015205 0.015205
0.484086 0.018840 0.018840
0.564343 0.021964 0.021964
0.633365 0.024650 0.024650
0.693366 0.026985 0.026985
0.746730 0.029062 0.029062
0.795950 0.030978 0.030978
0.843595 0.032832 0.032832
0.860866 0.033504 0.033504
0.000000 0.000000 0.000000
0.000000 0.000000 0.000000
0.000000 0.000000 0.000000
0.000000 0.000000 0.000000
0.003718 0.000145 0.000145
0.054352 0.002115 0.002115
0.140861 0.005482 0.005482
0.270204 0.010516 0.010516
0.390669 0.015205 0.015205
0.484086 0.018840 0.018840
0.564343 0.021964 0.021964
0.633365 0.024650 0.024650
0.693366 0.026985 0.026985
0.746730 0.029062 0.029062
0.795950 0.030978 0.030978
0.843595 0.032832 0.032832
0.860866 0.033504 0.033504
0.000000 0.000000 0.000000
0.000000 0.000000 0.000000
0.000000 0.000000 0.000000
0.000000 0.000000 0.000000
0.003718 0.000145 0.000145
0.054352 0.002115 0.002115
0.140861 0.005482 0.005482
0.270204 0.010516 0.010516
0.390669 0.015205 0.015205
0.484086 0.018840 0.018840
0.564343 0.021964 0.021964
0.633365 0.024650 0.024650
0.693366 0.026985 0.026985
0.746730 0.029062 0.029062
0.795950 0.030978 0.030978
0.843595 0.032832 0.032832
0.860866 0.033504 0.033504
0.000444 0.003706 0.000444
0.000444 0.003706 0.000444
0.000444 0.003706 0.000444
0.000444 0.003706 0.000444
0.004162 0.003850 0.000589
0.054796 0.005821 0.002560
0.141305 0.009188 0.005926
0.270649 0.014222 0.010960
0.391113 0.018910 0.015649
0.484530 0.022546 0.019285
0.564787 0.025669 0.022408
0.633810 0.028356 0.025094
0.693811 0.030691 0.027430
0.747175 0.032768 0.029506
0.796395 0.034683 0.031422
0.844039 0.036538 0.033276
0.861310 0.037210 0.033948
0.006994 0.058333 0.006994
0.006994 0.058333 0.006994
0.006994 0.058333 0.006994
0.006994 0.058333 0.006994
0.010712 0.058478 0.007139
0.061345 0.060448 0.009109
0.147855 0.063815 0.012476
0.277198 0.068849 0.017510
0.397663 0.073537 0.022198
0.491080 0.077173 0.025834
0.571337 0.080297 0.028958
0.640359 0.082983 0.031644
0.700360 0.085318 0.033979
0.753724 0.087395 0.036056
0.802944 0.089311 0.037972
0.850589 0.091165 0.039826
0.867860 0.091837 0.040498
0.018194 0.151750 0.018194
0.018194 0.151750 0.018194
0.018194 0.151750 0.018194
0.018194 0.151750 0.018194
0.021912 0.151895 0.018339
0.072546 0.153865 0.020309
0.159055 0.157232 0.023676
0.288399 0.162266 0.028710
0.408863 0.166955 0.033399
0.502280 0.170590 0.037034
0.582537 0.173714 0.040158
0.651559 0.176400 0.042844
0.711561 0.178735 0.045179
0.764924 0.180812 0.047256
0.814144 0.182728 0.049172
0.861789 0.184582 0.051026
0.879060 0.185254 0.051698
0.034943 0.291442 0.034943
0.034943 0.291442 0.034943
0.034943 0.291442 0.034943
0.034943 0.291442 0.034943
0.038660 0.291587 0.035087
0.089294 0.293557 0.037058
0.175803 0.296924 0.040425
0.305147 0.301958 0.045459
0.425611 0.306647 0.050147
0.519029 0.310282 0.053783
0.599285 0.313406 0.056906
0.668308 0.316092 0.059593
0.728309 0.318427 0.061928
0.781673 0.320504 0.064005
0.830893 0.322420 0.065920
0.878538 0.324274 0.067775
0.895808 0.324946 0.068447
0.050542 0.421551 0.050542
0.050542 0.421551 0.050542
0.050542 0.421551 0.050542
0.050542 0.421551 0.050542
0.054260 0.421696 0.050687
0.104894 0.423666 0.052657
0.191403 0.427033 0.056024
0.320746 0.432067 0.061058
0.441211 0.436755 0.065747
0.534628 0.440391 0.069382
0.614885 0.443515 0.072506
0.683907 0.446201 0.075192
0.743908 0.448536 0.077527
0.797272 0.450613 0.079604
0.846492 0.452529 0.081520
0.894137 0.454383 0.083374
0.911408 0.455055 0.084046
0.062639 0.522449 0.062639
0.062639 0.522449 0.062639
0.062639 0.522449 0.062639
0.062639 0.522449 0.062639
0.066357 0.522594 0.062784
0.116991 0.524565 0.064755
0.203500 0.527932 0.068121
0.332844 0.532966 0.073155
0.453308 0.537654 0.077844
0.546725 0.541290 0.081480
0.626982 0.544413 0.084603
0.696005 0.547099 0.087289
0.756006 0.549435 0.089625
0.809370 0.551512 0.091701
0.858590 0.553427 0.093617
0.906234 0.555281 0.095471
0.923505 0.555954 0.096143
0.073032 0.609134 0.073032
0.073032 0.609134 0.073032
0.073032 0.609134 0.073032
0.073032 0.609134 0.073032
0.076750 0.609279 0.073177
0.127384 0.611249 0.075148
0.213893 0.614616 0.078515
0.343237 0.619650 0.083549
0.463701 0.624339 0.088237
0.557119 0.627974 0.091873
0.637375 0.631098 0.094996
0.706398 0.633784 0.097682
0.766399 0.636119 0.100018
0.819763 0.638196 0.102095
0.868983 0.640112 0.104010
0.916628 0.641966 0.105864
0.933898 0.642638 0.106537
0.081971 0.683685 0.081971
0.081971 0.683685 0.081971
0.081971 0.683685 0.081971
0.081971 0.683685 0.081971
0.085688 0.683830 0.082115
0.136322 0.685801 0.084086
0.222832 0.689167 0.087453
0.352175 0.694201 0.092487
0.472639 0.698890 0.097175
0.566057 0.702525 0.100811
0.646314 0.705649 0.103934
0.715336 0.708335 0.106621
0.775337 0.710670 0.108956
0.828701 0.712747 0.111033
0.877921 0.714663 0.112948
0.925566 0.716517 0.114803
0.942836 0.717189 0.115475
0.089741 0.748493 0.089741
0.089741 0.748493 0.089741
0.089741 0.748493 0.089741
0.089741 0.748493 0.089741
0.093459 0.748637 0.089886
0.144092 0.750608 0.091856
0.230602 0.753975 0.095223
0.359945 0.759009 0.100257
0.480410 0.763697 0.104945
0.573827 0.767333 0.108581
0.654084 0.770456 0.111705
0.723106 0.773143 0.114391
0.783107 0.775478 0.116726
0.836471 0.777555 0.118803
0.885691 0.779470 0.120719
0.933336 0.781325 0.122573
0.950607 0.781997 0.123245
0.096651 0.806131 0.096651
0.096651 0.806131 0.096651
0.096651 0.806131 0.096651
0.096651 0.806131 0.096651
0.100369 0.806276 0.096796
0.151003 0.808247 0.098767
0.237512 0.811614 0.102134
0.366856 0.816648 0.107168
0.487320 0.821336 0.111856
0.580738 0.824972 0.115492
0.660994 0.828095 0.118615
0.730017 0.830781 0.121302
0.790018 0.833117 0.123637
0.843382 0.835194 0.125714
0.892602 0.837109 0.127629
0.940247 0.838963 0.129483
0.957517 0.839636 0.130156
0.103025 0.859295 0.103025
0.103025 0.859295 0.103025
0.103025 0.859295 0.103025
0.103025 0.859295 0.103025
0.106743 0.859439 0.103170
0.157377 0.861410 0.105141
0.243886 0.864777 0.108508
0.373230 0.869811 0.113542
0.493694 0.874499 0.118230
0.587112 0.878135 0.121866
0.667368 0.881258 0.124989
0.736391 0.883945 0.127676
0.796392 0.886280 0.130011
0.849756 0.888357 0.132088
0.898976 0.890272 0.134003
0.946621 0.892127 0.135858
0.963891 0.892799 0.136530
0.109195 0.910756 0.109195
0.109195 0.910756 0.109195
0.109195 0.910756 0.109195
0.109195 0.910756 0.109195
0.112913 0.910901 0.109340
0.163547 0.912872 0.111311
0.250056 0.916239 0.114678
0.379400 0.921273 0.119712
0.499864 0.925961 0.124400
0.593282 0.929597 0.128036
0.673538 0.932720 0.131159
0.742561 0.935406 0.133846
0.802562 0.937742 0.136181
0.855926 0.939819 0.138258
0.905146 0.941734 0.140173
0.952791 0.943588 0.142028
0.970061 0.944261 0.142700
0.111432 0.929411 0.111432
0.111432 0.929411 0.111432
0.111432 0.929411 0.111432
0.111432 0.929411 0.111432
0.115150 0.929555 0.111577
0.165784 0.931526 0.113547
0.252293 0.934893 0.116914
0.381636 0.939927 0.121948
0.502101 0.944615 0.126637
0.595518 0.948251 0.130272
0.675775 0.951374 0.133396
0.744797 0.954061 0.136082
0.804798 0.956396 0.138417
0.858162 0.958473 0.140494
0.907382 0.960388 0.142410
0.955027 0.962243 0.144264
0.972298 0.962915 0.144936
0.000000 0.000000 0.000000
0.000000 0.000000 0.000000
0.000000 0.000000 0.000000
0.000000 0.000000 0.000000
0.003718 0.000145 0.000145
0.054352 0.002115 0.002115
0.140861 0.005482 0.005482
0.270204 0.010516 0.010516
0.390669 0.015205 0.015205
0.484086 0.018840 0.018840
0.564343 0.021964 0.021964
0.633365 0.024650 0.024650
0.693366 0.026985 0.026985
0.746730 0.029062 0.029062
0.795950 0.030978 0.030978
0.843595 0.032832 0.032832
0.860866 0.033504 0.033504
0.000000 0.000000 0.000000
