public/luts/dji/lk-dji-neutral.cube
TITLE "LK DJI Neutral"
LUT_3D_SIZE 9
DOMAIN_MIN 0.0 0.0 0.0
DOMAIN_MAX 1.0 1.0 1.0
0.000000 0.000000 0.000000
0.000148 0.000000 0.000000
0.050266 0.000000 0.000000
0.223875 0.000000 0.000000
0.505316 0.000000 0.000000
0.691665 0.000000 0.000000
0.827093 0.000000 0.000000
0.933335 0.000000 0.000000
1.000000 0.000000 0.000000
0.000000 0.000148 0.000000
0.000148 0.000148 0.000000
0.050266 0.000148 0.000000
0.223875 0.000148 0.000000
0.505316 0.000148 0.000000
0.691665 0.000148 0.000000
0.827093 0.000148 0.000000
0.933335 0.000148 0.000000
1.000000 0.000148 0.000000
0.000000 0.050266 0.000000
0.000148 0.050266 0.000000
0.050266 0.050266 0.000000
0.223875 0.050266 0.000000
0.505316 0.050266 0.000000
0.691665 0.050266 0.000000
0.827093 0.050266 0.000000
0.933335 0.050266 0.000000
1.000000 0.050266 0.000000
0.000000 0.223875 0.000000
0.000148 0.223875 0.000000
0.050266 0.223875 0.000000
0.223875 0.223875 0.000000
0.505316 0.223875 0.000000
0.691665 0.223875 0.000000
0.827093 0.223875 0.000000
0.933335 0.223875 0.000000
1.000000 0.223875 0.000000
0.000000 0.505316 0.000000
0.000148 0.505316 0.000000
0.050266 0.505316 0.000000
0.223875 0.505316 0.000000
0.505316 0.505316 0.000000
0.691665 0.505316 0.000000
0.827093 0.505316 0.000000
0.933335 0.505316 0.000000
1.000000 0.505316 0.000000
0.000000 0.691665 0.000000
0.000148 0.691665 0.000000
0.050266 0.691665 0.000000
0.223875 0.691665 0.000000
0.505316 0.691665 0.000000
0.691665 0.691665 0.000000
0.827093 0.691665 0.000000
0.933335 0.691665 0.000000
1.000000 0.691665 0.000000
0.000000 0.827093 0.000000
0.000148 0.827093 0.000000
0.050266 0.827093 0.000000
0.223875 0.827093 0.000000
0.505316 0.827093 0.000000
0.691665 0.827093 0.000000
0.827093 0.827093 0.000000
0.933335 0.827093 0.000000
1.000000 0.827093 0.000000
0.000000 0.933335 0.000000
0.000148 0.933335 0.000000
0.050266 0.933335 0.000000
0.223875 0.933335 0.000000
0.505316 0.933335 0.000000
0.691665 0.933335 0.000000
0.827093 0.933335 0.000000
0.933335 0.933335 0.000000
1.000000 0.933335 0.000000
0.000000 1.000000 0.000000
0.000148 1.000000 0.000000
0.050266 1.000000 0.000000
0.223875 1.000000 0.000000
0.505316 1.000000 0.000000
0.691665 1.000000 0.000000
0.827093 1.000000 0.000000
0.933335 1.000000 0.000000
1.000000 1.000000 0.000000
0.000000 0.000000 0.000148
0.000148 0.000000 0.000148
0.050266 0.000000 0.000148
0.223875 0.000000 0.000148
0.505316 0.000000 0.000148
0.691665 0.000000 0.000148
0.827093 0.000000 0.000148
0.933335 0.000000 0.000148
1.000000 0.000000 0.000148
0.000000 0.000148 0.000148
0.000148 0.000148 0.000148
0.050266 0.000148 0.000148
0.223875 0.000148 0.000148
0.505316 0.000148 0.000148
0.691665 0.000148 0.000148
0.827093 0.000148 0.000148
0.933335 0.000148 0.000148
1.000000 0.000148 0.000148
0.000000 0.050266 0.000148
0.000148 0.050266 0.000148
0.050266 0.050266 0.000148
0.223875 0.050266 0.000148
0.505316 0.050266 0.000148
0.691665 0.050266 0.000148
0.827093 0.050266 0.000148
0.933335 0.050266 0.000148
1.000000 0.050266 0.000148
0.000000 0.223875 0.000148
0.000148 0.223875 0.000148
0.050266 0.223875 0.000148
0.223875 0.223875 0.000148
0.505316 0.223875 0.000148
0.691665 0.223875 0.000148
0.827093 0.223875 0.000148
0.933335 0.223875 0.000148
1.000000 0.223875 0.000148
0.000000 0.505316 0.000148
0.000148 0.505316 0.000148
0.050266 0.505316 0.000148
0.223875 0.505316 0.000148
0.505316 0.505316 0.000148
0.691665 0.505316 0.000148
0.827093 0.505316 0.000148
0.933335 0.505316 0.000148
1.000000 0.505316 0.000148
0.000000 0.691665 0.000148
0.000148 0.691665 0.000148
0.050266 0.691665 0.000148
0.223875 0.691665 0.000148
0.505316 0.691665 0.000148
0.691665 0.691665 0.000148
0.827093 0.691665 0.000148
0.933335 0.691665 0.000148
1.000000 0.691665 0.000148
0.000000 0.827093 0.000148
0.000148 0.827093 0.000148
0.050266 0.827093 0.000148
0.223875 0.827093 0.000148
0.505316 0.827093 0.000148
0.691665 0.827093 0.000148
0.827093 0.827093 0.000148
0.933335 0.827093 0.000148
1.000000 0.827093 0.000148
0.000000 0.933335 0.000148
0.000148 0.933335 0.000148
0.050266 0.933335 0.000148
0.223875 0.933335 0.000148
0.505316 0.933335 0.000148
0.691665 0.933335 0.000148
0.827093 0.933335 0.000148
0.933335 0.933335 0.000148
1.000000 0.933335 0.000148
0.000000 1.000000 0.000148
0.000148 1.000000 0.000148
0.050266 1.000000 0.000148
0.223875 1.000000 0.000148
0.505316 1.000000 0.000148
0.691665 1.000000 0.000148
0.827093 1.000000 0.000148
0.933335 1.000000 0.000148
1.000000 1.000000 0.000148
0.000000 0.000000 0.050266
0.000148 0.000000 0.050266
0.050266 0.000000 0.050266
0.223875 0.000000 0.050266
0.505316 0.000000 0.050266
0.691665 0.000000 0.050266
0.827093 0.000000 0.050266
0.933335 0.000000 0.050266
1.000000 0.000000 0.050266
0.000000 0.000148 0.050266
0.000148 0.000148 0.050266
0.050266 0.000148 0.050266
0.223875 0.000148 0.050266
0.505316 0.000148 0.050266
0.691665 0.000148 0.050266
0.827093 0.000148 0.050266
0.933335 0.000148 0.050266
1.000000 0.000148 0.050266
0.000000 0.050266 0.050266
0.000148 0.050266 0.050266
0.050266 0.050266 0.050266
0.223875 0.050266 0.050266
0.505316 0.050266 0.050266
0.691665 0.050266 0.050266
0.827093 0.050266 0.050266
0.933335 0.050266 0.050266
1.000000 0.050266 0.050266
0.000000 0.223875 0.050266
0.000148 0.223875 0.050266
0.050266 0.223875 0.050266
0.223875 0.223875 0.050266
0.505316 0.223875 0.050266
0.691665 0.223875 0.050266
0.827093 0.223875 0.050266
0.933335 0.223875 0.050266
1.000000 0.223875 0.050266
0.000000 0.505316 0.050266
0.000148 0.505316 0.050266
0.050266 0.505316 0.050266
0.223875 0.505316 0.050266
0.505316 0.505316 0.050266
0.691665 0.505316 0.050266
0.827093 0.505316 0.050266
0.933335 0.505316 0.050266
1.000000 0.505316 0.050266
0.000000 0.691665 0.050266
0.000148 0.691665 0.050266
0.050266 0.691665 0.050266
0.223875 0.691665 0.050266
0.505316 0.691665 0.050266
0.691665 0.691665 0.050266
0.827093 0.691665 0.050266
0.933335 0.691665 0.050266
1.000000 0.691665 0.050266
0.000000 0.827093 0.050266
0.000148 0.827093 0.050266
0.050266 0.827093 0.050266
0.223875 0.827093 0.050266
0.505316 0.827093 0.050266
0.691665 0.827093 0.050266
0.827093 0.827093 0.050266
0.933335 0.827093 0.050266
1.000000 0.827093 0.050266
0.000000 0.933335 0.050266
0.000148 0.933335 0.050266
0.050266 0.933335 0.050266
0.223875 0.933335 0.050266
0.505316 0.933335 0.050266
0.691665 0.933335 0.050266
0.827093 0.933335 0.050266
0.933335 0.933335 0.050266
1.000000 0.933335 0.050266
0.000000 1.000000 0.050266
0.000148 1.000000 0.050266
0.050266 1.000000 0.050266
0.223875 1.000000 0.050266
0.505316 1.000000 0.050266
0.691665 1.000000 0.050266
0.827093 1.000000 0.050266
0.933335 1.000000 0.050266
1.000000 1.000000 0.050266
0.000000 0.000000 0.223875
0.000148 0.000000 0.223875
0.050266 0.000000 0.223875
0.223875 0.000000 0.223875
0.505316 0.000000 0.223875
0.691665 0.000000 0.223875
0.827093 0.000000 0.223875
0.933335 0.000000 0.223875
1.000000 0.000000 0.223875
0.000000 0.000148 0.223875
0.000148 0.000148 0.223875
0.050266 0.000148 0.223875
0.223875 0.000148 0.223875
0.505316 0.000148 0.223875
0.691665 0.000148 0.223875
0.827093 0.000148 0.223875
0.933335 0.000148 0.223875
1.000000 0.000148 0.223875
0.000000 0.050266 0.223875
0.000148 0.050266 0.223875
0.050266 0.050266 0.223875
0.223875 0.050266 0.223875
0.505316 0.050266 0.223875
0.691665 0.050266 0.223875
0.827093 0.050266 0.223875
0.933335 0.050266 0.223875
1.000000 0.050266 0.223875
0.000000 0.223875 0.223875
0.000148 0.223875 0.223875
0.050266 0.223875 0.223875
0.223875 0.223875 0.223875
0.505316 0.223875 0.223875
0.691665 0.223875 0.223875
0.827093 0.223875 0.223875
0.933335 0.223875 0.223875
1.000000 0.223875 0.223875
0.000000 0.505316 0.223875
0.000148 0.505316 0.223875
0.050266 0.505316 0.223875
0.223875 0.505316 0.223875
0.505316 0.505316 0.223875
0.691665 0.505316 0.223875
0.827093 0.505316 0.223875
0.933335 0.505316 0.223875
1.000000 0.505316 0.223875
0.000000 0.691665 0.223875
0.000148 0.691665 0.223875
0.050266 0.691665 0.223875
0.223875 0.691665 0.223875
0.505316 0.691665 0.223875
0.691665 0.691665 0.223875
0.827093 0.691665 0.223875
0.933335 0.691665 0.223875
1.000000 0.691665 0.223875
0.000000 0.827093 0.223875
0.000148 0.827093 0.223875
0.050266 0.827093 0.223875
0.223875 0.827093 0.223875
0.505316 0.827093 0.223875
0.691665 0.827093 0.223875
0.827093 0.827093 0.223875
0.933335 0.827093 0.223875
1.000000 0.827093 0.223875
0.000000 0.933335 0.223875
0.000148 0.933335 0.223875
0.050266 0.933335 0.223875
0.223875 0.933335 0.223875
0.505316 0.933335 0.223875
0.691665 0.933335 0.223875
0.827093 0.933335 0.223875
0.933335 0.933335 0.223875
1.000000 0.933335 0.223875
0.000000 1.000000 0.223875
0.000148 1.000000 0.223875
0.050266 1.000000 0.223875
0.223875 1.000000 0.223875
0.505316 1.000000 0.223875
0.691665 1.000000 0.223875
0.827093 1.000000 0.223875
0.933335 1.000000 0.223875
1.000000 1.000000 0.223875
0.000000 0.000000 0.505316
0.000148 0.000000 0.505316
0.050266 0.000000 0.505316
0.223875 0.000000 0.505316
0.505316 0.000000 0.505316
0.691665 0.000000 0.505316
0.827093 0.000000 0.505316
0.933335 0.000000 0.505316
1.000000 0.000000 0.505316
0.000000 0.000148 0.505316
0.000148 0.000148 0.505316
0.050266 0.000148 0.505316
0.223875 0.000148 0.505316
0.505316 0.000148 0.505316
0.691665 0.000148 0.505316
0.827093 0.000148 0.505316
0.933335 0.000148 0.505316
1.000000 0.000148 0.505316
0.000000 0.050266 0.505316
0.000148 0.050266 0.505316
0.050266 0.050266 0.505316
0.223875 0.050266 0.505316
0.505316 0.050266 0.505316
0.691665 0.050266 0.505316
0.827093 0.050266 0.505316
0.933335 0.050266 0.505316
1.000000 0.050266 0.505316
0.000000 0.223875 0.505316
0.000148 0.223875 0.505316
0.050266 0.223875 0.505316
0.223875 0.223875 0.505316
0.505316 0.223875 0.505316
0.691665 0.223875 0.505316
0.827093 0.223875 0.505316
0.933335 0.223875 0.505316
1.000000 0.223875 0.505316
0.000000 0.505316 0.505316
0.000148 0.505316 0.505316
0.050266 0.505316 0.505316
0.223875 0.505316 0.505316
0.505316 0.505316 0.505316
0.691665 0.505316 0.505316
0.827093 0.505316 0.505316
0.933335 0.505316 0.505316
1.000000 0.505316 0.505316
0.000000 0.691665 0.505316
0.000148 0.691665 0.505316
0.050266 0.691665 0.505316
0.223875 0.691665 0.505316
0.505316 0.691665 0.505316
0.691665 0.691665 0.505316
0.827093 0.691665 0.505316
0.933335 0.691665 0.505316
1.000000 0.691665 0.505316
0.000000 0.827093 0.505316
0.000148 0.827093 0.505316
0.050266 0.827093 0.505316
0.223875 0.827093 0.505316
0.505316 0.827093 0.505316
0.691665 0.827093 0.505316
0.827093 0.827093 0.505316
0.933335 0.827093 0.505316
1.000000 0.827093 0.505316
0.000000 0.933335 0.505316
0.000148 0.933335 0.505316
0.050266 0.933335 0.505316
0.223875 0.933335 0.505316
0.505316 0.933335 0.505316
0.691665 0.933335 0.505316
0.827093 0.933335 0.505316
0.933335 0.933335 0.505316
1.000000 0.933335 0.505316
0.000000 1.000000 0.505316
0.000148 1.000000 0.505316
0.050266 1.000000 0.505316
0.223875 1.000000 0.505316
0.505316 1.000000 0.505316
0.691665 1.000000 0.505316
0.827093 1.000000 0.505316
0.933335 1.000000 0.505316
1.000000 1.000000 0.505316
0.000000 0.000000 0.691665
0.000148 0.000000 0.691665
0.050266 0.000000 0.691665
0.223875 0.000000 0.691665
0.505316 0.000000 0.691665
0.691665 0.000000 0.691665
0.827093 0.000000 0.691665
0.933335 0.000000 0.691665
1.000000 0.000000 0.691665
0.000000 0.000148 0.691665
0.000148 0.000148 0.691665
0.050266 0.000148 0.691665
0.223875 0.000148 0.691665
0.505316 0.000148 0.691665
0.691665 0.000148 0.691665
0.827093 0.000148 0.691665
0.933335 0.000148 0.691665
1.000000 0.000148 0.691665
0.000000 0.050266 0.691665
0.000148 0.050266 0.691665
0.050266 0.050266 0.691665
0.223875 0.050266 0.691665
0.505316 0.050266 0.691665
0.691665 0.050266 0.691665
0.827093 0.050266 0.691665
0.933335 0.050266 0.691665
1.000000 0.050266 0.691665
0.000000 0.223875 0.691665
0.000148 0.223875 0.691665
0.050266 0.223875 0.691665
0.223875 0.223875 0.691665
0.505316 0.223875 0.691665
0.691665 0.223875 0.691665
0.827093 0.223875 0.691665
0.933335 0.223875 0.691665
1.000000 0.223875 0.691665
0.000000 0.505316 0.691665
0.000148 0.505316 0.691665
0.050266 0.505316 0.691665
0.223875 0.505316 0.691665
0.505316 0.505316 0.691665
0.691665 0.505316 0.691665
0.827093 0.505316 0.691665
0.933335 0.505316 0.691665
1.000000 0.505316 0.691665
0.000000 0.691665 0.691665
0.000148 0.691665 0.691665
0.050266 0.691665 0.691665
0.223875 0.691665 0.691665
0.505316 0.691665 0.691665
0.691665 0.691665 0.691665
0.827093 0.691665 0.691665
0.933335 0.691665 0.691665
1.000000 0.691665 0.691665
0.000000 0.827093 0.691665
0.000148 0.827093 0.691665
0.050266 0.827093 0.691665
0.223875 0.827093 0.691665
0.505316 0.827093 0.691665
0.691665 0.827093 0.691665
0.827093 0.827093 0.691665
0.933335 0.827093 0.691665
1.000000 0.827093 0.691665
0.000000 0.933335 0.691665
0.000148 0.933335 0.691665
0.050266 0.933335 0.691665
0.223875 0.933335 0.691665
0.505316 0.933335 0.691665
0.691665 0.933335 0.691665
0.827093 0.933335 0.691665
0.933335 0.933335 0.691665
1.000000 0.933335 0.691665
0.000000 1.000000 0.691665
0.000148 1.000000 0.691665
0.050266 1.000000 0.691665
0.223875 1.000000 0.691665
0.505316 1.000000 0.691665
0.691665 1.000000 0.691665
0.827093 1.000000 0.691665
0.933335 1.000000 0.691665
1.000000 1.000000 0.691665
0.000000 0.000000 0.827093
0.000148 0.000000 0.827093
0.050266 0.000000 0.827093
0.223875 0.000000 0.827093
0.505316 0.000000 0.827093
0.691665 0.000000 0.827093
0.827093 0.000000 0.827093
0.933335 0.000000 0.827093
1.000000 0.000000 0.827093
0.000000 0.000148 0.827093
0.000148 0.000148 0.827093
0.050266 0.000148 0.827093
0.223875 0.000148 0.827093
0.505316 0.000148 0.827093
0.691665 0.000148 0.827093
0.827093 0.000148 0.827093
0.933335 0.000148 0.827093
1.000000 0.000148 0.827093
0.000000 0.050266 0.827093
0.000148 0.050266 0.827093
0.050266 0.050266 0.827093
0.223875 0.050266 0.827093
0.505316 0.050266 0.827093
0.691665 0.050266 0.827093
0.827093 0.050266 0.827093
0.933335 0.050266 0.827093
1.000000 0.050266 0.827093
0.000000 0.223875 0.827093
0.000148 0.223875 0.827093
0.050266 0.223875 0.827093
0.223875 0.223875 0.827093
0.505316 0.223875 0.827093
0.691665 0.223875 0.827093
0.827093 0.223875 0.827093
0.933335 0.223875 0.827093
1.000000 0.223875 0.827093
0.000000 0.505316 0.827093
0.000148 0.505316 0.827093
0.050266 0.505316 0.827093
0.223875 0.505316 0.827093
0.505316 0.505316 0.827093
0.691665 0.505316 0.827093
0.827093 0.505316 0.827093
0.933335 0.505316 0.827093
1.000000 0.505316 0.827093
0.000000 0.691665 0.827093
0.000148 0.691665 0.827093
0.050266 0.691665 0.827093
0.223875 0.691665 0.827093
0.505316 0.691665 0.827093
0.691665 0.691665 0.827093
0.827093 0.691665 0.827093
0.933335 0.691665 0.827093
1.000000 0.691665 0.827093
0.000000 0.827093 0.827093
0.000148 0.827093 0.827093
0.050266 0.827093 0.827093
0.223875 0.827093 0.827093
0.505316 0.827093 0.827093
0.691665 0.827093 0.827093
0.827093 0.827093 0.827093
0.933335 0.827093 0.827093
1.000000 0.827093 0.827093
0.000000 0.933335 0.827093
0.000148 0.933335 0.827093
0.050266 0.933335 0.827093
0.223875 0.933335 0.827093
0.505316 0.933335 0.827093
0.691665 0.933335 0.827093
0.827093 0.933335 0.827093
0.933335 0.933335 0.827093
1.000000 0.933335 0.827093
0.000000 1.000000 0.827093
0.000148 1.000000 0.827093
0.050266 1.000000 0.827093
0.223875 1.000000 0.827093
0.505316 1.000000 0.827093
0.691665 1.000000 0.827093
0.827093 1.000000 0.827093
0.933335 1.000000 0.827093
1.000000 1.000000 0.827093
0.000000 0.000000 0.933335
0.000148 0.000000 0.933335
0.050266 0.000000 0.933335
0.223875 0.000000 0.933335
0.505316 0.000000 0.933335
0.691665 0.000000 0.933335
0.827093 0.000000 0.933335
0.933335 0.000000 0.933335
1.000000 0.000000 0.933335
0.000000 0.000148 0.933335
0.000148 0.000148 0.933335
0.050266 0.000148 0.933335
0.223875 0.000148 0.933335
0.505316 0.000148 0.933335
0.691665 0.000148 0.933335
0.827093 0.000148 0.933335
0.933335 0.000148 0.933335
1.000000 0.000148 0.933335
0.000000 0.050266 0.933335
0.000148 0.050266 0.933335
0.050266 0.050266 0.933335
0.223875 0.050266 0.933335
0.505316 0.050266 0.933335
0.691665 0.050266 0.933335
0.827093 0.050266 0.933335
0.933335 0.050266 0.933335
1.000000 0.050266 0.933335
0.000000 0.223875 0.933335
0.000148 0.223875 0.933335
0.050266 0.223875 0.933335
0.223875 0.223875 0.933335
0.505316 0.223875 0.933335
0.691665 0.223875 0.933335
0.827093 0.223875 0.933335
0.933335 0.223875 0.933335
1.000000 0.223875 0.933335
0.000000 0.505316 0.933335
0.000148 0.505316 0.933335
0.050266 0.505316 0.933335
0.223875 0.505316 0.933335
0.505316 0.505316 0.933335
0.691665 0.505316 0.933335
0.827093 0.505316 0.933335
0.933335 0.505316 0.933335
1.000000 0.505316 0.933335
0.000000 0.691665 0.933335
0.000148 0.691665 0.933335
0.050266 0.691665 0.933335
0.223875 0.691665 0.933335
0.505316 0.691665 0.933335
0.691665 0.691665 0.933335
0.827093 0.691665 0.933335
0.933335 0.691665 0.933335
1.000000 0.691665 0.933335
0.000000 0.827093 0.933335
0.000148 0.827093 0.933335
0.050266 0.827093 0.933335
0.223875 0.827093 0.933335
0.505316 0.827093 0.933335
0.691665 0.827093 0.933335
0.827093 0.827093 0.933335
0.933335 0.827093 0.933335
1.000000 0.827093 0.933335
0.000000 0.933335 0.933335
0.000148 0.933335 0.933335
0.050266 0.933335 0.933335
0.223875 0.933335 0.933335
0.505316 0.933335 0.933335
0.691665 0.933335 0.933335
0.827093 0.933335 0.933335
0.933335 0.933335 0.933335
1.000000 0.933335 0.933335
0.000000 1.000000 0.933335
0.000148 1.000000 0.933335
0.050266 1.000000 0.933335
0.223875 1.000000 0.933335
0.505316 1.000000 0.933335
0.691665 1.000000 0.933335
0.827093 1.000000 0.933335
0.933335 1.000000 0.933335
1.000000 1.000000 0.933335
0.000000 0.000000 1.000000
0.000148 0.000000 1.000000
0.050266 0.000000 1.000000
0.223875 0.000000 1.000000
0.505316 0.000000 1.000000
0.691665 0.000000 1.000000
0.827093 0.000000 1.000000
0.933335 0.000000 1.000000
1.000000 0.000000 1.000000
0.000000 0.000148 1.000000
0.000148 0.000148 1.000000
0.050266 0.000148 1.000000
0.223875 0.000148 1.000000
0.505316 0.000148 1.000000
0.691665 0.000148 1.000000
0.827093 0.000148 1.000000
0.933335 0.000148 1.000000
1.000000 0.000148 1.000000
0.000000 0.050266 1.000000
0.000148 0.050266 1.000000
0.050266 0.050266 1.000000
0.223875 0.050266 1.000000
0.505316 0.050266 1.000000
0.691665 0.050266 1.000000
0.827093 0.050266 1.000000
0.933335 0.050266 1.000000
1.000000 0.050266 1.000000
0.000000 0.223875 1.000000
0.000148 0.223875 1.000000
0.050266 0.223875 1.000000
0.223875 0.223875 1.000000
0.505316 0.223875 1.000000
0.691665 0.223875 1.000000
0.827093 0.223875 1.000000
0.933335 0.223875 1.000000
1.000000 0.223875 1.000000
0.000000 0.505316 1.000000
0.000148 0.505316 1.000000
0.050266 0.505316 1.000000
0.223875 0.505316 1.000000
0.505316 0.505316 1.000000
0.691665 0.505316 1.000000
0.827093 0.505316 1.000000
0.933335 0.505316 1.000000
1.000000 0.505316 1.000000
0.000000 0.691665 1.000000
0.000148 0.691665 1.000000
0.050266 0.691665 1.000000
0.223875 0.691665 1.000000
0.505316 0.691665 1.000000
0.691665 0.691665 1.000000
0.827093 0.691665 1.000000
0.933335 0.691665 1.000000
1.000000 0.691665 1.000000
0.000000 0.827093 1.000000
0.000148 0.827093 1.000000
0.050266 0.827093 1.000000
0.223875 0.827093 1.000000
0.505316 0.827093 1.000000
0.691665 0.827093 1.000000
0.827093 0.827093 1.000000
0.933335 0.827093 1.000000
1.000000 0.827093 1.000000
0.000000 0.933335 1.000000
0.000148 0.933335 1.000000
0.050266 0.933335 1.000000
0.223875 0.933335 1.000000
0.505316 0.933335 1.000000
0.691665 0.933335 1.000000
0.827093 0.933335 1.000000
0.933335 0.933335 1.000000
1.000000 0.933335 1.000000
0.000000 1.000000 1.000000
0.000148 1.000000 1.000000
0.050266 1.000000 1.000000
0.223875 1.000000 1.000000
0.505316 1.000000 1.000000
0.691665 1.000000 1.000000
0.827093 1.000000 1.000000
0.933335 1.000000 1.000000
1.000000 1.000000 1.000000
