public/luts/dji/lk-dji-moody-dark.cube
TITLE "LK DJI Moody Dark"
LUT_3D_SIZE 17
DOMAIN_MIN 0.0 0.0 0.0
DOMAIN_MAX 1.0 1.0 1.0
0.000000 0.000000 0.000000
0.000000 0.000000 0.000000
0.000000 0.000000 0.000000
0.000000 0.000000 0.000000
0.008127 0.000250 0.000250
0.058680 0.001807 0.001807
0.140993 0.004341 0.004341
0.261040 0.008037 0.008037
0.371119 0.011427 0.011427
0.455716 0.014031 0.014031
0.527977 0.016256 0.016256
0.589861 0.018162 0.018162
0.643484 0.019813 0.019813
0.691051 0.021277 0.021277
0.734829 0.022625 0.022625
0.777125 0.023927 0.023927
0.792438 0.024399 0.024399
0.000000 0.000000 0.000000
0.000000 0.000000 0.000000
0.000000 0.000000 0.000000
0.000000 0.000000 0.000000
0.008127 0.000250 0.000250
0.058680 0.001807 0.001807
0.140993 0.004341 0.004341
0.261040 0.008037 0.008037
0.371119 0.011427 0.011427
0.455716 0.014031 0.014031
0.527977 0.016256 0.016256
0.589861 0.018162 0.018162
0.643484 0.019813 0.019813
0.691051 0.021277 0.021277
0.734829 0.022625 0.022625
0.777125 0.023927 0.023927
0.792438 0.024399 0.024399
0.000000 0.000000 0.000000
0.000000 0.000000 0.000000
0.000000 0.000000 0.000000
0.000000 0.000000 0.000000
0.008127 0.000250 0.000250
0.058680 0.001807 0.001807
0.140993 0.004341 0.004341
0.261040 0.008037 0.008037
0.371119 0.011427 0.011427
0.455716 0.014031 0.014031
0.527977 0.016256 0.016256
0.589861 0.018162 0.018162
0.643484 0.019813 0.019813
0.691051 0.021277 0.021277
0.734829 0.022625 0.022625
0.777125 0.023927 0.023927
0.792438 0.024399 0.024399
0.000000 0.000000 0.000000
0.000000 0.000000 0.000000
0.000000 0.000000 0.000000
0.000000 0.000000 0.000000
0.008127 0.000250 0.000250
0.058680 0.001807 0.001807
0.140993 0.004341 0.004341
0.261040 0.008037 0.008037
0.371119 0.011427 0.011427
0.455716 0.014031 0.014031
0.527977 0.016256 0.016256
0.589861 0.018162 0.018162
0.643484 0.019813 0.019813
0.691051 0.021277 0.021277
0.734829 0.022625 0.022625
0.777125 0.023927 0.023927
0.792438 0.024399 0.024399
0.000842 0.008718 0.000842
0.000842 0.008718 0.000842
0.000842 0.008718 0.000842
0.000842 0.008718 0.000842
0.008969 0.008969 0.001092
0.059522 0.010525 0.002649
0.141835 0.013060 0.005183
0.261882 0.016756 0.008879
0.371961 0.020145 0.012268
0.456558 0.022750 0.014873
0.528819 0.024975 0.017098
0.590703 0.026880 0.019003
0.644325 0.028531 0.020654
0.691893 0.029996 0.022119
0.735671 0.031344 0.023467
0.777967 0.032646 0.024769
0.793280 0.033117 0.025241
0.006078 0.062952 0.006078
0.006078 0.062952 0.006078
0.006078 0.062952 0.006078
0.006078 0.062952 0.006078
0.014205 0.063202 0.006328
0.064758 0.064758 0.007885
0.147071 0.067293 0.010419
0.267118 0.070989 0.014115
0.377197 0.074378 0.017505
0.461794 0.076983 0.020109
0.534055 0.079208 0.022334
0.595939 0.081113 0.024240
0.649562 0.082764 0.025891
0.697129 0.084229 0.027355
0.740907 0.085577 0.028703
0.783203 0.086879 0.030005
0.798516 0.087351 0.030477
0.014604 0.151256 0.014604
0.014604 0.151256 0.014604
0.014604 0.151256 0.014604
0.014604 0.151256 0.014604
0.022731 0.151506 0.014854
0.073284 0.153063 0.016411
0.155597 0.155597 0.018945
0.275644 0.159293 0.022641
0.385723 0.162683 0.026030
0.470320 0.165287 0.028635
0.542581 0.167512 0.030860
0.604465 0.169418 0.032766
0.658087 0.171069 0.034417
0.705655 0.172533 0.035881
0.749433 0.173881 0.037229
0.791729 0.175183 0.038531
0.807042 0.175655 0.039003
0.027038 0.280041 0.027038
0.027038 0.280041 0.027038
0.027038 0.280041 0.027038
0.027038 0.280041 0.027038
0.035165 0.280291 0.027288
0.085719 0.281848 0.028845
0.168031 0.284382 0.031379
0.288078 0.288078 0.035075
0.398157 0.291467 0.038465
0.482754 0.294072 0.041069
0.555015 0.296297 0.043294
0.616900 0.298202 0.045200
0.670522 0.299853 0.046851
0.718089 0.301318 0.048315
0.761867 0.302666 0.049663
0.804163 0.303968 0.050966
0.819476 0.304440 0.051437
0.038440 0.398132 0.038440
0.038440 0.398132 0.038440
0.038440 0.398132 0.038440
0.038440 0.398132 0.038440
0.046567 0.398383 0.038690
0.097120 0.399939 0.040247
0.179433 0.402473 0.042781
0.299480 0.406170 0.046477
0.409559 0.409559 0.049867
0.494156 0.412164 0.052471
0.566417 0.414389 0.054696
0.628301 0.416294 0.056602
0.681923 0.417945 0.058253
0.729491 0.419410 0.059717
0.773269 0.420757 0.061065
0.815565 0.422060 0.062367
0.830878 0.422531 0.062839
0.047202 0.488887 0.047202
0.047202 0.488887 0.047202
0.047202 0.488887 0.047202
0.047202 0.488887 0.047202
0.055329 0.489137 0.047453
0.105883 0.490694 0.049009
0.188196 0.493228 0.051544
0.308242 0.496924 0.055240
0.418321 0.500314 0.058629
0.502918 0.502918 0.061234
0.575179 0.505143 0.063459
0.637064 0.507049 0.065364
0.690686 0.508700 0.067015
0.738253 0.510164 0.068480
0.782032 0.511512 0.069828
0.824328 0.512814 0.071130
0.839641 0.513286 0.071601
0.054687 0.566408 0.054687
0.054687 0.566408 0.054687
0.054687 0.566408 0.054687
0.054687 0.566408 0.054687
0.062814 0.566658 0.054937
0.113367 0.568215 0.056494
0.195680 0.570749 0.059028
0.315727 0.574445 0.062724
0.425806 0.577835 0.066114
0.510403 0.580439 0.068718
0.582664 0.582664 0.070943
0.644548 0.584570 0.072849
0.698171 0.586221 0.074500
0.745738 0.587685 0.075964
0.789516 0.589033 0.077312
0.831812 0.590335 0.078615
0.847125 0.590807 0.079086
0.061097 0.632797 0.061097
0.061097 0.632797 0.061097
0.061097 0.632797 0.061097
0.061097 0.632797 0.061097
0.069224 0.633047 0.061347
0.119777 0.634603 0.062904
0.202090 0.637138 0.065438
0.322137 0.640834 0.069134
0.432216 0.644223 0.072524
0.516813 0.646828 0.075128
0.589074 0.649053 0.077353
0.650958 0.650958 0.079259
0.704580 0.652609 0.080910
0.752148 0.654074 0.082374
0.795926 0.655422 0.083722
0.838222 0.656724 0.085024
0.853535 0.657196 0.085496
0.066651 0.690322 0.066651
0.066651 0.690322 0.066651
0.066651 0.690322 0.066651
0.066651 0.690322 0.066651
0.074778 0.690572 0.066901
0.125331 0.692129 0.068458
0.207644 0.694663 0.070992
0.327691 0.698359 0.074688
0.437770 0.701749 0.078078
0.522367 0.704353 0.080682
0.594628 0.706578 0.082907
0.656512 0.708484 0.084813
0.710135 0.710135 0.086464
0.757702 0.711599 0.087928
0.801480 0.712947 0.089276
0.843776 0.714249 0.090579
0.859089 0.714721 0.091050
0.071578 0.741352 0.071578
0.071578 0.741352 0.071578
0.071578 0.741352 0.071578
0.071578 0.741352 0.071578
0.079705 0.741602 0.071828
0.130258 0.743158 0.073385
0.212571 0.745693 0.075919
0.332618 0.749389 0.079615
0.442697 0.752778 0.083005
0.527294 0.755383 0.085609
0.599555 0.757608 0.087834
0.661439 0.759513 0.089740
0.715062 0.761164 0.091391
0.762629 0.762629 0.092855
0.806407 0.763977 0.094203
0.848703 0.765279 0.095505
0.864016 0.765750 0.095977
0.076113 0.788317 0.076113
0.076113 0.788317 0.076113
0.076113 0.788317 0.076113
0.076113 0.788317 0.076113
0.084239 0.788567 0.076363
0.134793 0.790123 0.077919
0.217106 0.792658 0.080454
0.337153 0.796354 0.084150
0.447231 0.799743 0.087539
0.531828 0.802348 0.090144
0.604090 0.804573 0.092369
0.665974 0.806478 0.094274
0.719596 0.808129 0.095925
0.767163 0.809594 0.097390
0.810942 0.810942 0.098738
0.853238 0.812244 0.100040
0.868551 0.812715 0.100511
0.080493 0.833691 0.080493
0.080493 0.833691 0.080493
0.080493 0.833691 0.080493
0.080493 0.833691 0.080493
0.088620 0.833942 0.080744
0.139174 0.835498 0.082300
0.221487 0.838032 0.084835
0.341533 0.841729 0.088531
0.451612 0.845118 0.091920
0.536209 0.847723 0.094525
0.608471 0.849948 0.096750
0.670355 0.851853 0.098655
0.723977 0.853504 0.100306
0.771544 0.854969 0.101771
0.815323 0.856317 0.103119
0.857619 0.857619 0.104421
0.872932 0.858090 0.104892
0.082080 0.850119 0.082080
0.082080 0.850119 0.082080
0.082080 0.850119 0.082080
0.082080 0.850119 0.082080
0.090206 0.850369 0.082330
0.140760 0.851926 0.083886
0.223073 0.854460 0.086421
0.343120 0.858156 0.090117
0.453199 0.861546 0.093506
0.537795 0.864150 0.096111
0.610057 0.866375 0.098336
0.671941 0.868281 0.100241
0.725563 0.869932 0.101892
0.773130 0.871396 0.103357
0.816909 0.872744 0.104705
0.859205 0.874046 0.106007
0.874518 0.874518 0.106478
0.000000 0.000000 0.000000
0.000000 0.000000 0.000000
0.000000 0.000000 0.000000
0.000000 0.000000 0.000000
0.008127 0.000250 0.000250
0.058680 0.001807 0.001807
0.140993 0.004341 0.004341
0.261040 0.008037 0.008037
0.371119 0.011427 0.011427
0.455716 0.014031 0.014031
0.527977 0.016256 0.016256
0.589861 0.018162 0.018162
0.643484 0.019813 0.019813
0.691051 0.021277 0.021277
0.734829 0.022625 0.022625
0.777125 0.023927 0.023927
0.792438 0.024399 0.024399
0.000000 0.000000 0.000000
0.000000 0.000000 0.000000
0.000000 0.000000 0.000000
0.000000 0.000000 0.000000
0.008127 0.000250 0.000250
0.058680 0.001807 0.001807
0.140993 0.004341 0.004341
0.261040 0.008037 0.008037
0.371119 0.011427 0.011427
0.455716 0.014031 0.014031
0.527977 0.016256 0.016256
0.589861 0.018162 0.018162
0.643484 0.019813 0.019813
0.691051 0.021277 0.021277
0.734829 0.022625 0.022625
0.777125 0.023927 0.023927
0.792438 0.024399 0.024399
0.000000 0.000000 0.000000
0.000000 0.000000 0.000000
0.000000 0.000000 0.000000
0.000000 0.000000 0.000000
0.008127 0.000250 0.000250
0.058680 0.001807 0.001807
0.140993 0.004341 0.004341
0.261040 0.008037 0.008037
0.371119 0.011427 0.011427
0.455716 0.014031 0.014031
0.527977 0.016256 0.016256
0.589861 0.018162 0.018162
0.643484 0.019813 0.019813
0.691051 0.021277 0.021277
0.734829 0.022625 0.022625
0.777125 0.023927 0.023927
0.792438 0.024399 0.024399
0.000000 0.000000 0.000000
0.000000 0.000000 0.000000
0.000000 0.000000 0.000000
0.000000 0.000000 0.000000
0.008127 0.000250 0.000250
0.058680 0.001807 0.001807
0.140993 0.004341 0.004341
0.261040 0.008037 0.008037
0.371119 0.011427 0.011427
0.455716 0.014031 0.014031
0.527977 0.016256 0.016256
0.589861 0.018162 0.018162
0.643484 0.019813 0.019813
0.691051 0.021277 0.021277
0.734829 0.022625 0.022625
0.777125 0.023927 0.023927
0.792438 0.024399 0.024399
0.000842 0.008718 0.000842
0.000842 0.008718 0.000842
0.000842 0.008718 0.000842
0.000842 0.008718 0.000842
0.008969 0.008969 0.001092
0.059522 0.010525 0.002649
0.141835 0.013060 0.005183
0.261882 0.016756 0.008879
0.371961 0.020145 0.012268
0.456558 0.022750 0.014873
0.528819 0.024975 0.017098
0.590703 0.026880 0.019003
0.644325 0.028531 0.020654
0.691893 0.029996 0.022119
0.735671 0.031344 0.023467
0.777967 0.032646 0.024769
0.793280 0.033117 0.025241
0.006078 0.062952 0.006078
0.006078 0.062952 0.006078
0.006078 0.062952 0.006078
0.006078 0.062952 0.006078
0.014205 0.063202 0.006328
0.064758 0.064758 0.007885
0.147071 0.067293 0.010419
0.267118 0.070989 0.014115
0.377197 0.074378 0.017505
0.461794 0.076983 0.020109
0.534055 0.079208 0.022334
0.595939 0.081113 0.024240
0.649562 0.082764 0.025891
0.697129 0.084229 0.027355
0.740907 0.085577 0.028703
0.783203 0.086879 0.030005
0.798516 0.087351 0.030477
0.014604 0.151256 0.014604
0.014604 0.151256 0.014604
0.014604 0.151256 0.014604
0.014604 0.151256 0.014604
0.022731 0.151506 0.014854
0.073284 0.153063 0.016411
0.155597 0.155597 0.018945
0.275644 0.159293 0.022641
0.385723 0.162683 0.026030
0.470320 0.165287 0.028635
0.542581 0.167512 0.030860
0.604465 0.169418 0.032766
0.658087 0.171069 0.034417
0.705655 0.172533 0.035881
0.749433 0.173881 0.037229
0.791729 0.175183 0.038531
0.807042 0.175655 0.039003
0.027038 0.280041 0.027038
0.027038 0.280041 0.027038
0.027038 0.280041 0.027038
0.027038 0.280041 0.027038
0.035165 0.280291 0.027288
0.085719 0.281848 0.028845
0.168031 0.284382 0.031379
0.288078 0.288078 0.035075
0.398157 0.291467 0.038465
0.482754 0.294072 0.041069
0.555015 0.296297 0.043294
0.616900 0.298202 0.045200
0.670522 0.299853 0.046851
0.718089 0.301318 0.048315
0.761867 0.302666 0.049663
0.804163 0.303968 0.050966
0.819476 0.304440 0.051437
0.038440 0.398132 0.038440
0.038440 0.398132 0.038440
0.038440 0.398132 0.038440
0.038440 0.398132 0.038440
0.046567 0.398383 0.038690
0.097120 0.399939 0.040247
0.179433 0.402473 0.042781
0.299480 0.406170 0.046477
0.409559 0.409559 0.049867
0.494156 0.412164 0.052471
0.566417 0.414389 0.054696
0.628301 0.416294 0.056602
0.681923 0.417945 0.058253
0.729491 0.419410 0.059717
0.773269 0.420757 0.061065
0.815565 0.422060 0.062367
0.830878 0.422531 0.062839
0.047202 0.488887 0.047202
0.047202 0.488887 0.047202
0.047202 0.488887 0.047202
0.047202 0.488887 0.047202
0.055329 0.489137 0.047453
0.105883 0.490694 0.049009
0.188196 0.493228 0.051544
0.308242 0.496924 0.055240
0.418321 0.500314 0.058629
0.502918 0.502918 0.061234
0.575179 0.505143 0.063459
0.637064 0.507049 0.065364
0.690686 0.508700 0.067015
0.738253 0.510164 0.068480
0.782032 0.511512 0.069828
0.824328 0.512814 0.071130
0.839641 0.513286 0.071601
0.054687 0.566408 0.054687
0.054687 0.566408 0.054687
0.054687 0.566408 0.054687
0.054687 0.566408 0.054687
0.062814 0.566658 0.054937
0.113367 0.568215 0.056494
0.195680 0.570749 0.059028
0.315727 0.574445 0.062724
0.425806 0.577835 0.066114
0.510403 0.580439 0.068718
0.582664 0.582664 0.070943
0.644548 0.584570 0.072849
0.698171 0.586221 0.074500
0.745738 0.587685 0.075964
0.789516 0.589033 0.077312
0.831812 0.590335 0.078615
0.847125 0.590807 0.079086
0.061097 0.632797 0.061097
0.061097 0.632797 0.061097
0.061097 0.632797 0.061097
0.061097 0.632797 0.061097
0.069224 0.633047 0.061347
0.119777 0.634603 0.062904
0.202090 0.637138 0.065438
0.322137 0.640834 0.069134
0.432216 0.644223 0.072524
0.516813 0.646828 0.075128
0.589074 0.649053 0.077353
0.650958 0.650958 0.079259
0.704580 0.652609 0.080910
0.752148 0.654074 0.082374
0.795926 0.655422 0.083722
0.838222 0.656724 0.085024
0.853535 0.657196 0.085496
0.066651 0.690322 0.066651
0.066651 0.690322 0.066651
0.066651 0.690322 0.066651
0.066651 0.690322 0.066651
0.074778 0.690572 0.066901
0.125331 0.692129 0.068458
0.207644 0.694663 0.070992
0.327691 0.698359 0.074688
0.437770 0.701749 0.078078
0.522367 0.704353 0.080682
0.594628 0.706578 0.082907
0.656512 0.708484 0.084813
0.710135 0.710135 0.086464
0.757702 0.711599 0.087928
0.801480 0.712947 0.089276
0.843776 0.714249 0.090579
0.859089 0.714721 0.091050
0.071578 0.741352 0.071578
0.071578 0.741352 0.071578
0.071578 0.741352 0.071578
0.071578 0.741352 0.071578
0.079705 0.741602 0.071828
0.130258 0.743158 0.073385
0.212571 0.745693 0.075919
0.332618 0.749389 0.079615
0.442697 0.752778 0.083005
0.527294 0.755383 0.085609
0.599555 0.757608 0.087834
0.661439 0.759513 0.089740
0.715062 0.761164 0.091391
0.762629 0.762629 0.092855
0.806407 0.763977 0.094203
0.848703 0.765279 0.095505
0.864016 0.765750 0.095977
0.076113 0.788317 0.076113
0.076113 0.788317 0.076113
0.076113 0.788317 0.076113
0.076113 0.788317 0.076113
0.084239 0.788567 0.076363
0.134793 0.790123 0.077919
0.217106 0.792658 0.080454
0.337153 0.796354 0.084150
0.447231 0.799743 0.087539
0.531828 0.802348 0.090144
0.604090 0.804573 0.092369
0.665974 0.806478 0.094274
0.719596 0.808129 0.095925
0.767163 0.809594 0.097390
0.810942 0.810942 0.098738
0.853238 0.812244 0.100040
0.868551 0.812715 0.100511
0.080493 0.833691 0.080493
0.080493 0.833691 0.080493
0.080493 0.833691 0.080493
0.080493 0.833691 0.080493
0.088620 0.833942 0.080744
0.139174 0.835498 0.082300
0.221487 0.838032 0.084835
0.341533 0.841729 0.088531
0.451612 0.845118 0.091920
0.536209 0.847723 0.094525
0.608471 0.849948 0.096750
0.670355 0.851853 0.098655
0.723977 0.853504 0.100306
0.771544 0.854969 0.101771
0.815323 0.856317 0.103119
0.857619 0.857619 0.104421
0.872932 0.858090 0.104892
0.082080 0.850119 0.082080
0.082080 0.850119 0.082080
0.082080 0.850119 0.082080
0.082080 0.850119 0.082080
0.090206 0.850369 0.082330
0.140760 0.851926 0.083886
0.223073 0.854460 0.086421
0.343120 0.858156 0.090117
0.453199 0.861546 0.093506
0.537795 0.864150 0.096111
0.610057 0.866375 0.098336
0.671941 0.868281 0.100241
0.725563 0.869932 0.101892
0.773130 0.871396 0.103357
0.816909 0.872744 0.104705
0.859205 0.874046 0.106007
0.874518 0.874518 0.106478
0.000000 0.000000 0.000000
0.000000 0.000000 0.000000
0.000000 0.000000 0.000000
0.000000 0.000000 0.000000
0.008127 0.000250 0.000250
0.058680 0.001807 0.001807
0.140993 0.004341 0.004341
0.261040 0.008037 0.008037
0.371119 0.011427 0.011427
0.455716 0.014031 0.014031
0.527977 0.016256 0.016256
0.589861 0.018162 0.018162
0.643484 0.019813 0.019813
0.691051 0.021277 0.021277
0.734829 0.022625 0.022625
0.777125 0.023927 0.023927
0.792438 0.024399 0.024399
0.000000 0.000000 0.000000
0.000000 0.000000 0.000000
0.000000 0.000000 0.000000
0.000000 0.000000 0.000000
0.008127 0.000250 0.000250
0.058680 0.001807 0.001807
0.140993 0.004341 0.004341
0.261040 0.008037 0.008037
0.371119 0.011427 0.011427
0.455716 0.014031 0.014031
0.527977 0.016256 0.016256
0.589861 0.018162 0.018162
0.643484 0.019813 0.019813
0.691051 0.021277 0.021277
0.734829 0.022625 0.022625
0.777125 0.023927 0.023927
0.792438 0.024399 0.024399
0.000000 0.000000 0.000000
0.000000 0.000000 0.000000
0.000000 0.000000 0.000000
0.000000 0.000000 0.000000
0.008127 0.000250 0.000250
0.058680 0.001807 0.001807
0.140993 0.004341 0.004341
0.261040 0.008037 0.008037
0.371119 0.011427 0.011427
0.455716 0.014031 0.014031
0.527977 0.016256 0.016256
0.589861 0.018162 0.018162
0.643484 0.019813 0.019813
0.691051 0.021277 0.021277
0.734829 0.022625 0.022625
0.777125 0.023927 0.023927
0.792438 0.024399 0.024399
0.000000 0.000000 0.000000
0.000000 0.000000 0.000000
0.000000 0.000000 0.000000
0.000000 0.000000 0.000000
0.008127 0.000250 0.000250
0.058680 0.001807 0.001807
0.140993 0.004341 0.004341
0.261040 0.008037 0.008037
0.371119 0.011427 0.011427
0.455716 0.014031 0.014031
0.527977 0.016256 0.016256
0.589861 0.018162 0.018162
0.643484 0.019813 0.019813
0.691051 0.021277 0.021277
0.734829 0.022625 0.022625
0.777125 0.023927 0.023927
0.792438 0.024399 0.024399
0.000842 0.008718 0.000842
0.000842 0.008718 0.000842
0.000842 0.008718 0.000842
0.000842 0.008718 0.000842
0.008969 0.008969 0.001092
0.059522 0.010525 0.002649
0.141835 0.013060 0.005183
0.261882 0.016756 0.008879
0.371961 0.020145 0.012268
0.456558 0.022750 0.014873
0.528819 0.024975 0.017098
0.590703 0.026880 0.019003
0.644325 0.028531 0.020654
0.691893 0.029996 0.022119
0.735671 0.031344 0.023467
0.777967 0.032646 0.024769
0.793280 0.033117 0.025241
0.006078 0.062952 0.006078
0.006078 0.062952 0.006078
0.006078 0.062952 0.006078
0.006078 0.062952 0.006078
0.014205 0.063202 0.006328
0.064758 0.064758 0.007885
0.147071 0.067293 0.010419
0.267118 0.070989 0.014115
0.377197 0.074378 0.017505
0.461794 0.076983 0.020109
0.534055 0.079208 0.022334
0.595939 0.081113 0.024240
0.649562 0.082764 0.025891
0.697129 0.084229 0.027355
0.740907 0.085577 0.028703
0.783203 0.086879 0.030005
0.798516 0.087351 0.030477
0.014604 0.151256 0.014604
0.014604 0.151256 0.014604
0.014604 0.151256 0.014604
0.014604 0.151256 0.014604
0.022731 0.151506 0.014854
0.073284 0.153063 0.016411
0.155597 0.155597 0.018945
0.275644 0.159293 0.022641
0.385723 0.162683 0.026030
0.470320 0.165287 0.028635
0.542581 0.167512 0.030860
0.604465 0.169418 0.032766
0.658087 0.171069 0.034417
0.705655 0.172533 0.035881
0.749433 0.173881 0.037229
0.791729 0.175183 0.038531
0.807042 0.175655 0.039003
0.027038 0.280041 0.027038
0.027038 0.280041 0.027038
0.027038 0.280041 0.027038
0.027038 0.280041 0.027038
0.035165 0.280291 0.027288
0.085719 0.281848 0.028845
0.168031 0.284382 0.031379
0.288078 0.288078 0.035075
0.398157 0.291467 0.038465
0.482754 0.294072 0.041069
0.555015 0.296297 0.043294
0.616900 0.298202 0.045200
0.670522 0.299853 0.046851
0.718089 0.301318 0.048315
0.761867 0.302666 0.049663
0.804163 0.303968 0.050966
0.819476 0.304440 0.051437
0.038440 0.398132 0.038440
0.038440 0.398132 0.038440
0.038440 0.398132 0.038440
0.038440 0.398132 0.038440
0.046567 0.398383 0.038690
0.097120 0.399939 0.040247
0.179433 0.402473 0.042781
0.299480 0.406170 0.046477
0.409559 0.409559 0.049867
0.494156 0.412164 0.052471
0.566417 0.414389 0.054696
0.628301 0.416294 0.056602
0.681923 0.417945 0.058253
0.729491 0.419410 0.059717
0.773269 0.420757 0.061065
0.815565 0.422060 0.062367
0.830878 0.422531 0.062839
0.047202 0.488887 0.047202
0.047202 0.488887 0.047202
0.047202 0.488887 0.047202
0.047202 0.488887 0.047202
0.055329 0.489137 0.047453
0.105883 0.490694 0.049009
0.188196 0.493228 0.051544
0.308242 0.496924 0.055240
0.418321 0.500314 0.058629
0.502918 0.502918 0.061234
0.575179 0.505143 0.063459
0.637064 0.507049 0.065364
0.690686 0.508700 0.067015
0.738253 0.510164 0.068480
0.782032 0.511512 0.069828
0.824328 0.512814 0.071130
0.839641 0.513286 0.071601
0.054687 0.566408 0.054687
0.054687 0.566408 0.054687
0.054687 0.566408 0.054687
0.054687 0.566408 0.054687
0.062814 0.566658 0.054937
0.113367 0.568215 0.056494
0.195680 0.570749 0.059028
0.315727 0.574445 0.062724
0.425806 0.577835 0.066114
0.510403 0.580439 0.068718
0.582664 0.582664 0.070943
0.644548 0.584570 0.072849
0.698171 0.586221 0.074500
0.745738 0.587685 0.075964
0.789516 0.589033 0.077312
0.831812 0.590335 0.078615
0.847125 0.590807 0.079086
0.061097 0.632797 0.061097
0.061097 0.632797 0.061097
0.061097 0.632797 0.061097
0.061097 0.632797 0.061097
0.069224 0.633047 0.061347
0.119777 0.634603 0.062904
0.202090 0.637138 0.065438
0.322137 0.640834 0.069134
0.432216 0.644223 0.072524
0.516813 0.646828 0.075128
0.589074 0.649053 0.077353
0.650958 0.650958 0.079259
0.704580 0.652609 0.080910
0.752148 0.654074 0.082374
0.795926 0.655422 0.083722
0.838222 0.656724 0.085024
0.853535 0.657196 0.085496
0.066651 0.690322 0.066651
0.066651 0.690322 0.066651
0.066651 0.690322 0.066651
0.066651 0.690322 0.066651
0.074778 0.690572 0.066901
0.125331 0.692129 0.068458
0.207644 0.694663 0.070992
0.327691 0.698359 0.074688
0.437770 0.701749 0.078078
0.522367 0.704353 0.080682
0.594628 0.706578 0.082907
0.656512 0.708484 0.084813
0.710135 0.710135 0.086464
0.757702 0.711599 0.087928
0.801480 0.712947 0.089276
0.843776 0.714249 0.090579
0.859089 0.714721 0.091050
0.071578 0.741352 0.071578
0.071578 0.741352 0.071578
0.071578 0.741352 0.071578
0.071578 0.741352 0.071578
0.079705 0.741602 0.071828
0.130258 0.743158 0.073385
0.212571 0.745693 0.075919
0.332618 0.749389 0.079615
0.442697 0.752778 0.083005
0.527294 0.755383 0.085609
0.599555 0.757608 0.087834
0.661439 0.759513 0.089740
0.715062 0.761164 0.091391
0.762629 0.762629 0.092855
0.806407 0.763977 0.094203
0.848703 0.765279 0.095505
0.864016 0.765750 0.095977
0.076113 0.788317 0.076113
0.076113 0.788317 0.076113
0.076113 0.788317 0.076113
0.076113 0.788317 0.076113
0.084239 0.788567 0.076363
0.134793 0.790123 0.077919
0.217106 0.792658 0.080454
0.337153 0.796354 0.084150
0.447231 0.799743 0.087539
0.531828 0.802348 0.090144
0.604090 0.804573 0.092369
0.665974 0.806478 0.094274
0.719596 0.808129 0.095925
0.767163 0.809594 0.097390
0.810942 0.810942 0.098738
0.853238 0.812244 0.100040
0.868551 0.812715 0.100511
0.080493 0.833691 0.080493
0.080493 0.833691 0.080493
0.080493 0.833691 0.080493
0.080493 0.833691 0.080493
0.088620 0.833942 0.080744
0.139174 0.835498 0.082300
0.221487 0.838032 0.084835
0.341533 0.841729 0.088531
0.451612 0.845118 0.091920
0.536209 0.847723 0.094525
0.608471 0.849948 0.096750
0.670355 0.851853 0.098655
0.723977 0.853504 0.100306
0.771544 0.854969 0.101771
0.815323 0.856317 0.103119
0.857619 0.857619 0.104421
0.872932 0.858090 0.104892
0.082080 0.850119 0.082080
0.082080 0.850119 0.082080
0.082080 0.850119 0.082080
0.082080 0.850119 0.082080
0.090206 0.850369 0.082330
0.140760 0.851926 0.083886
0.223073 0.854460 0.086421
0.343120 0.858156 0.090117
0.453199 0.861546 0.093506
0.537795 0.864150 0.096111
0.610057 0.866375 0.098336
0.671941 0.868281 0.100241
0.725563 0.869932 0.101892
0.773130 0.871396 0.103357
0.816909 0.872744 0.104705
0.859205 0.874046 0.106007
0.874518 0.874518 0.106478
0.000000 0.000000 0.000000
0.000000 0.000000 0.000000
0.000000 0.000000 0.000000
0.000000 0.000000 0.000000
0.008127 0.000250 0.000250
0.058680 0.001807 0.001807
0.140993 0.004341 0.004341
0.261040 0.008037 0.008037
0.371119 0.011427 0.011427
0.455716 0.014031 0.014031
0.527977 0.016256 0.016256
0.589861 0.018162 0.018162
0.643484 0.019813 0.019813
0.691051 0.021277 0.021277
0.734829 0.022625 0.022625
0.777125 0.023927 0.023927
0.792438 0.024399 0.024399
0.000000 0.000000 0.000000
