public/luts/dji/lk-dji-sunset.cube
TITLE "LK DJI Sunset"
LUT_3D_SIZE 17
DOMAIN_MIN 0.0 0.0 0.0
DOMAIN_MAX 1.0 1.0 1.0
0.000000 0.000000 0.001525
0.000000 0.000000 0.001525
0.000000 0.000000 0.001525
0.012819 0.000000 0.001320
0.058003 0.000000 0.000597
0.138433 0.000000 0.000000
0.260031 0.000000 0.000000
0.428738 0.000000 0.000000
0.578314 0.000000 0.000000
0.690976 0.000000 0.000000
0.785964 0.000000 0.000000
0.866534 0.000000 0.000000
0.935832 0.000000 0.000000
0.996940 0.000000 0.000000
1.000000 0.000000 0.000000
1.000000 0.000000 0.000000
1.000000 0.000000 0.000000
0.000000 0.000000 0.001525
0.000000 0.000000 0.001525
0.000000 0.000000 0.001525
0.012819 0.000000 0.001320
0.058003 0.000000 0.000597
0.138433 0.000000 0.000000
0.260031 0.000000 0.000000
0.428738 0.000000 0.000000
0.578314 0.000000 0.000000
0.690976 0.000000 0.000000
0.785964 0.000000 0.000000
0.866534 0.000000 0.000000
0.935832 0.000000 0.000000
0.996940 0.000000 0.000000
1.000000 0.000000 0.000000
1.000000 0.000000 0.000000
1.000000 0.000000 0.000000
0.000000 0.000000 0.001525
0.000000 0.000000 0.001525
0.000000 0.000000 0.001525
0.012819 0.000000 0.001320
0.058003 0.000000 0.000597
0.138433 0.000000 0.000000
0.260031 0.000000 0.000000
0.428738 0.000000 0.000000
0.578314 0.000000 0.000000
0.690976 0.000000 0.000000
0.785964 0.000000 0.000000
0.866534 0.000000 0.000000
0.935832 0.000000 0.000000
0.996940 0.000000 0.000000
1.000000 0.000000 0.000000
1.000000 0.000000 0.000000
1.000000 0.000000 0.000000
0.000000 0.000000 0.001525
0.000000 0.000000 0.001525
0.000000 0.000000 0.001525
0.012819 0.000000 0.001320
0.058003 0.000000 0.000597
0.138433 0.000000 0.000000
0.260031 0.000000 0.000000
0.428738 0.000000 0.000000
0.578314 0.000000 0.000000
0.690976 0.000000 0.000000
0.785964 0.000000 0.000000
0.866534 0.000000 0.000000
0.935832 0.000000 0.000000
0.996940 0.000000 0.000000
1.000000 0.000000 0.000000
1.000000 0.000000 0.000000
1.000000 0.000000 0.000000
0.000000 0.031615 0.000000
0.000000 0.031615 0.000000
0.000000 0.031615 0.000000
0.011050 0.031410 0.000000
0.056234 0.030687 0.000000
0.136664 0.029400 0.000000
0.258262 0.027454 0.000000
0.426969 0.024755 0.000000
0.576545 0.022362 0.000000
0.689207 0.020559 0.000000
0.784195 0.019039 0.000000
0.864765 0.017750 0.000000
0.934063 0.016641 0.000000
0.995171 0.015664 0.000000
1.000000 0.015355 0.000000
1.000000 0.015355 0.000000
1.000000 0.015355 0.000000
0.000000 0.094994 0.000000
0.000000 0.094994 0.000000
0.000000 0.094994 0.000000
0.007504 0.094789 0.000000
0.052688 0.094066 0.000000
0.133119 0.092779 0.000000
0.254717 0.090833 0.000000
0.423424 0.088134 0.000000
0.573000 0.085741 0.000000
0.685661 0.083938 0.000000
0.780650 0.082418 0.000000
0.861219 0.081129 0.000000
0.930517 0.080020 0.000000
0.991626 0.079042 0.000000
1.000000 0.078734 0.000000
1.000000 0.078734 0.000000
1.000000 0.078734 0.000000
0.000000 0.193400 0.000000
0.000000 0.193400 0.000000
0.000000 0.193400 0.000000
0.001999 0.193195 0.000000
0.047183 0.192472 0.000000
0.127614 0.191185 0.000000
0.249212 0.189239 0.000000
0.417919 0.186540 0.000000
0.567495 0.184147 0.000000
0.680156 0.182344 0.000000
0.775145 0.180824 0.000000
0.855714 0.179535 0.000000
0.925012 0.178427 0.000000
0.986121 0.177449 0.000000
1.000000 0.177140 0.000000
1.000000 0.177140 0.000000
1.000000 0.177140 0.000000
0.000000 0.332871 0.000000
0.000000 0.332871 0.000000
0.000000 0.332871 0.000000
0.000000 0.332666 0.000000
0.039381 0.331943 0.000000
0.119812 0.330656 0.000000
0.241410 0.328711 0.000000
0.410116 0.326011 0.000000
0.559693 0.323618 0.000000
0.672354 0.321815 0.000000
0.767342 0.320296 0.000000
0.847912 0.319006 0.000000
0.917210 0.317898 0.000000
0.978318 0.316920 0.000000
0.997590 0.316612 0.000000
0.997590 0.316612 0.000000
0.997590 0.316612 0.000000
0.000000 0.458414 0.000000
0.000000 0.458414 0.000000
0.000000 0.458414 0.000000
0.000000 0.458209 0.000000
0.032358 0.457486 0.000000
0.112789 0.456199 0.000000
0.234387 0.454253 0.000000
0.403093 0.451554 0.000000
0.552670 0.449161 0.000000
0.665331 0.447358 0.000000
0.760319 0.445838 0.000000
0.840889 0.444549 0.000000
0.910187 0.443440 0.000000
0.971295 0.442463 0.000000
0.990567 0.442154 0.000000
0.990567 0.442154 0.000000
0.990567 0.442154 0.000000
0.000000 0.553851 0.000000
0.000000 0.553851 0.000000
0.000000 0.553851 0.000000
0.000000 0.553646 0.000000
0.027019 0.552923 0.000000
0.107450 0.551636 0.000000
0.229048 0.549690 0.000000
0.397754 0.546991 0.000000
0.547331 0.544598 0.000000
0.659992 0.542795 0.000000
0.754980 0.541275 0.000000
0.835550 0.539986 0.000000
0.904848 0.538877 0.000000
0.965957 0.537900 0.000000
0.985228 0.537591 0.000000
0.985228 0.537591 0.000000
0.985228 0.537591 0.000000
0.000000 0.634804 0.000000
0.000000 0.634804 0.000000
0.000000 0.634804 0.000000
0.000000 0.634599 0.000000
0.022491 0.633876 0.000000
0.102921 0.632589 0.000000
0.224519 0.630644 0.000000
0.393226 0.627944 0.000000
0.542802 0.625551 0.000000
0.655463 0.623748 0.000000
0.750452 0.622229 0.000000
0.831022 0.620939 0.000000
0.900320 0.619831 0.000000
0.961428 0.618853 0.000000
0.980700 0.618545 0.000000
0.980700 0.618545 0.000000
0.980700 0.618545 0.000000
0.000000 0.703778 0.000000
0.000000 0.703778 0.000000
0.000000 0.703778 0.000000
0.000000 0.703573 0.000000
0.018632 0.702850 0.000000
0.099063 0.701563 0.000000
0.220661 0.699617 0.000000
0.389367 0.696918 0.000000
0.538944 0.694525 0.000000
0.651605 0.692722 0.000000
0.746593 0.691202 0.000000
0.827163 0.689913 0.000000
0.896461 0.688804 0.000000
0.957569 0.687826 0.000000
0.976841 0.687518 0.000000
0.976841 0.687518 0.000000
0.976841 0.687518 0.000000
0.000000 0.763308 0.000000
0.000000 0.763308 0.000000
0.000000 0.763308 0.000000
0.000000 0.763102 0.000000
0.015302 0.762379 0.000000
0.095733 0.761092 0.000000
0.217330 0.759147 0.000000
0.386037 0.756448 0.000000
0.535613 0.754054 0.000000
0.648275 0.752252 0.000000
0.743263 0.750732 0.000000
0.823833 0.749443 0.000000
0.893131 0.748334 0.000000
0.954239 0.747356 0.000000
0.973511 0.747048 0.000000
0.973511 0.747048 0.000000
0.973511 0.747048 0.000000
0.000000 0.815949 0.000000
0.000000 0.815949 0.000000
0.000000 0.815949 0.000000
0.000000 0.815744 0.000000
0.012357 0.815021 0.000000
0.092788 0.813734 0.000000
0.214386 0.811788 0.000000
0.383092 0.809089 0.000000
0.532669 0.806696 0.000000
0.645330 0.804893 0.000000
0.740318 0.803373 0.000000
0.820888 0.802084 0.000000
0.890186 0.800975 0.000000
0.951294 0.799998 0.000000
0.970566 0.799689 0.000000
0.970566 0.799689 0.000000
0.970566 0.799689 0.000000
0.000000 0.864269 0.000000
0.000000 0.864269 0.000000
0.000000 0.864269 0.000000
0.000000 0.864064 0.000000
0.009654 0.863341 0.000000
0.090085 0.862054 0.000000
0.211683 0.860108 0.000000
0.380389 0.857409 0.000000
0.529965 0.855016 0.000000
0.642627 0.853213 0.000000
0.737615 0.851693 0.000000
0.818185 0.850404 0.000000
0.887483 0.849295 0.000000
0.948591 0.848318 0.000000
0.967863 0.848009 0.000000
0.967863 0.848009 0.000000
0.967863 0.848009 0.000000
0.000000 0.910843 0.000000
0.000000 0.910843 0.000000
0.000000 0.910843 0.000000
0.000000 0.910638 0.000000
0.007048 0.909915 0.000000
0.087479 0.908628 0.000000
0.209077 0.906683 0.000000
0.377784 0.903983 0.000000
0.527360 0.901590 0.000000
0.640021 0.899788 0.000000
0.735010 0.898268 0.000000
0.815580 0.896979 0.000000
0.884877 0.895870 0.000000
0.945986 0.894892 0.000000
0.965258 0.894584 0.000000
0.965258 0.894584 0.000000
0.965258 0.894584 0.000000
0.000000 0.927680 0.000000
0.000000 0.927680 0.000000
0.000000 0.927680 0.000000
0.000000 0.927475 0.000000
0.006107 0.926752 0.000000
0.086537 0.925465 0.000000
0.208135 0.923519 0.000000
0.376842 0.920820 0.000000
0.526418 0.918427 0.000000
0.639080 0.916624 0.000000
0.734068 0.915104 0.000000
0.814638 0.913815 0.000000
0.883936 0.912707 0.000000
0.945044 0.911729 0.000000
0.964316 0.911420 0.000000
0.964316 0.911420 0.000000
0.964316 0.911420 0.000000
0.000000 0.000000 0.001525
0.000000 0.000000 0.001525
0.000000 0.000000 0.001525
0.012819 0.000000 0.001320
0.058003 0.000000 0.000597
0.138433 0.000000 0.000000
0.260031 0.000000 0.000000
0.428738 0.000000 0.000000
0.578314 0.000000 0.000000
0.690976 0.000000 0.000000
0.785964 0.000000 0.000000
0.866534 0.000000 0.000000
0.935832 0.000000 0.000000
0.996940 0.000000 0.000000
1.000000 0.000000 0.000000
1.000000 0.000000 0.000000
1.000000 0.000000 0.000000
0.000000 0.000000 0.001525
0.000000 0.000000 0.001525
0.000000 0.000000 0.001525
0.012819 0.000000 0.001320
0.058003 0.000000 0.000597
0.138433 0.000000 0.000000
0.260031 0.000000 0.000000
0.428738 0.000000 0.000000
0.578314 0.000000 0.000000
0.690976 0.000000 0.000000
0.785964 0.000000 0.000000
0.866534 0.000000 0.000000
0.935832 0.000000 0.000000
0.996940 0.000000 0.000000
1.000000 0.000000 0.000000
1.000000 0.000000 0.000000
1.000000 0.000000 0.000000
0.000000 0.000000 0.001525
0.000000 0.000000 0.001525
0.000000 0.000000 0.001525
0.012819 0.000000 0.001320
0.058003 0.000000 0.000597
0.138433 0.000000 0.000000
0.260031 0.000000 0.000000
0.428738 0.000000 0.000000
0.578314 0.000000 0.000000
0.690976 0.000000 0.000000
0.785964 0.000000 0.000000
0.866534 0.000000 0.000000
0.935832 0.000000 0.000000
0.996940 0.000000 0.000000
1.000000 0.000000 0.000000
1.000000 0.000000 0.000000
1.000000 0.000000 0.000000
0.000000 0.000000 0.001525
0.000000 0.000000 0.001525
0.000000 0.000000 0.001525
0.012819 0.000000 0.001320
0.058003 0.000000 0.000597
0.138433 0.000000 0.000000
0.260031 0.000000 0.000000
0.428738 0.000000 0.000000
0.578314 0.000000 0.000000
0.690976 0.000000 0.000000
0.785964 0.000000 0.000000
0.866534 0.000000 0.000000
0.935832 0.000000 0.000000
0.996940 0.000000 0.000000
1.000000 0.000000 0.000000
1.000000 0.000000 0.000000
1.000000 0.000000 0.000000
0.000000 0.031615 0.000000
0.000000 0.031615 0.000000
0.000000 0.031615 0.000000
0.011050 0.031410 0.000000
0.056234 0.030687 0.000000
0.136664 0.029400 0.000000
0.258262 0.027454 0.000000
0.426969 0.024755 0.000000
0.576545 0.022362 0.000000
0.689207 0.020559 0.000000
0.784195 0.019039 0.000000
0.864765 0.017750 0.000000
0.934063 0.016641 0.000000
0.995171 0.015664 0.000000
1.000000 0.015355 0.000000
1.000000 0.015355 0.000000
1.000000 0.015355 0.000000
0.000000 0.094994 0.000000
0.000000 0.094994 0.000000
0.000000 0.094994 0.000000
0.007504 0.094789 0.000000
0.052688 0.094066 0.000000
0.133119 0.092779 0.000000
0.254717 0.090833 0.000000
0.423424 0.088134 0.000000
0.573000 0.085741 0.000000
0.685661 0.083938 0.000000
0.780650 0.082418 0.000000
0.861219 0.081129 0.000000
0.930517 0.080020 0.000000
0.991626 0.079042 0.000000
1.000000 0.078734 0.000000
1.000000 0.078734 0.000000
1.000000 0.078734 0.000000
0.000000 0.193400 0.000000
0.000000 0.193400 0.000000
0.000000 0.193400 0.000000
0.001999 0.193195 0.000000
0.047183 0.192472 0.000000
0.127614 0.191185 0.000000
0.249212 0.189239 0.000000
0.417919 0.186540 0.000000
0.567495 0.184147 0.000000
0.680156 0.182344 0.000000
0.775145 0.180824 0.000000
0.855714 0.179535 0.000000
0.925012 0.178427 0.000000
0.986121 0.177449 0.000000
1.000000 0.177140 0.000000
1.000000 0.177140 0.000000
1.000000 0.177140 0.000000
0.000000 0.332871 0.000000
0.000000 0.332871 0.000000
0.000000 0.332871 0.000000
0.000000 0.332666 0.000000
0.039381 0.331943 0.000000
0.119812 0.330656 0.000000
0.241410 0.328711 0.000000
0.410116 0.326011 0.000000
0.559693 0.323618 0.000000
0.672354 0.321815 0.000000
0.767342 0.320296 0.000000
0.847912 0.319006 0.000000
0.917210 0.317898 0.000000
0.978318 0.316920 0.000000
0.997590 0.316612 0.000000
0.997590 0.316612 0.000000
0.997590 0.316612 0.000000
0.000000 0.458414 0.000000
0.000000 0.458414 0.000000
0.000000 0.458414 0.000000
0.000000 0.458209 0.000000
0.032358 0.457486 0.000000
0.112789 0.456199 0.000000
0.234387 0.454253 0.000000
0.403093 0.451554 0.000000
0.552670 0.449161 0.000000
0.665331 0.447358 0.000000
0.760319 0.445838 0.000000
0.840889 0.444549 0.000000
0.910187 0.443440 0.000000
0.971295 0.442463 0.000000
0.990567 0.442154 0.000000
0.990567 0.442154 0.000000
0.990567 0.442154 0.000000
0.000000 0.553851 0.000000
0.000000 0.553851 0.000000
0.000000 0.553851 0.000000
0.000000 0.553646 0.000000
0.027019 0.552923 0.000000
0.107450 0.551636 0.000000
0.229048 0.549690 0.000000
0.397754 0.546991 0.000000
0.547331 0.544598 0.000000
0.659992 0.542795 0.000000
0.754980 0.541275 0.000000
0.835550 0.539986 0.000000
0.904848 0.538877 0.000000
0.965957 0.537900 0.000000
0.985228 0.537591 0.000000
0.985228 0.537591 0.000000
0.985228 0.537591 0.000000
0.000000 0.634804 0.000000
0.000000 0.634804 0.000000
0.000000 0.634804 0.000000
0.000000 0.634599 0.000000
0.022491 0.633876 0.000000
0.102921 0.632589 0.000000
0.224519 0.630644 0.000000
0.393226 0.627944 0.000000
0.542802 0.625551 0.000000
0.655463 0.623748 0.000000
0.750452 0.622229 0.000000
0.831022 0.620939 0.000000
0.900320 0.619831 0.000000
0.961428 0.618853 0.000000
0.980700 0.618545 0.000000
0.980700 0.618545 0.000000
0.980700 0.618545 0.000000
0.000000 0.703778 0.000000
0.000000 0.703778 0.000000
0.000000 0.703778 0.000000
0.000000 0.703573 0.000000
0.018632 0.702850 0.000000
0.099063 0.701563 0.000000
0.220661 0.699617 0.000000
0.389367 0.696918 0.000000
0.538944 0.694525 0.000000
0.651605 0.692722 0.000000
0.746593 0.691202 0.000000
0.827163 0.689913 0.000000
0.896461 0.688804 0.000000
0.957569 0.687826 0.000000
0.976841 0.687518 0.000000
0.976841 0.687518 0.000000
0.976841 0.687518 0.000000
0.000000 0.763308 0.000000
0.000000 0.763308 0.000000
0.000000 0.763308 0.000000
0.000000 0.763102 0.000000
0.015302 0.762379 0.000000
0.095733 0.761092 0.000000
0.217330 0.759147 0.000000
0.386037 0.756448 0.000000
0.535613 0.754054 0.000000
0.648275 0.752252 0.000000
0.743263 0.750732 0.000000
0.823833 0.749443 0.000000
0.893131 0.748334 0.000000
0.954239 0.747356 0.000000
0.973511 0.747048 0.000000
0.973511 0.747048 0.000000
0.973511 0.747048 0.000000
0.000000 0.815949 0.000000
0.000000 0.815949 0.000000
0.000000 0.815949 0.000000
0.000000 0.815744 0.000000
0.012357 0.815021 0.000000
0.092788 0.813734 0.000000
0.214386 0.811788 0.000000
0.383092 0.809089 0.000000
0.532669 0.806696 0.000000
0.645330 0.804893 0.000000
0.740318 0.803373 0.000000
0.820888 0.802084 0.000000
0.890186 0.800975 0.000000
0.951294 0.799998 0.000000
0.970566 0.799689 0.000000
0.970566 0.799689 0.000000
0.970566 0.799689 0.000000
0.000000 0.864269 0.000000
0.000000 0.864269 0.000000
0.000000 0.864269 0.000000
0.000000 0.864064 0.000000
0.009654 0.863341 0.000000
0.090085 0.862054 0.000000
0.211683 0.860108 0.000000
0.380389 0.857409 0.000000
0.529965 0.855016 0.000000
0.642627 0.853213 0.000000
0.737615 0.851693 0.000000
0.818185 0.850404 0.000000
0.887483 0.849295 0.000000
0.948591 0.848318 0.000000
0.967863 0.848009 0.000000
0.967863 0.848009 0.000000
0.967863 0.848009 0.000000
0.000000 0.910843 0.000000
0.000000 0.910843 0.000000
0.000000 0.910843 0.000000
0.000000 0.910638 0.000000
0.007048 0.909915 0.000000
0.087479 0.908628 0.000000
0.209077 0.906683 0.000000
0.377784 0.903983 0.000000
0.527360 0.901590 0.000000
0.640021 0.899788 0.000000
0.735010 0.898268 0.000000
0.815580 0.896979 0.000000
0.884877 0.895870 0.000000
0.945986 0.894892 0.000000
0.965258 0.894584 0.000000
0.965258 0.894584 0.000000
0.965258 0.894584 0.000000
0.000000 0.927680 0.000000
0.000000 0.927680 0.000000
0.000000 0.927680 0.000000
0.000000 0.927475 0.000000
0.006107 0.926752 0.000000
0.086537 0.925465 0.000000
0.208135 0.923519 0.000000
0.376842 0.920820 0.000000
0.526418 0.918427 0.000000
0.639080 0.916624 0.000000
0.734068 0.915104 0.000000
0.814638 0.913815 0.000000
0.883936 0.912707 0.000000
0.945044 0.911729 0.000000
0.964316 0.911420 0.000000
0.964316 0.911420 0.000000
0.964316 0.911420 0.000000
0.000000 0.000000 0.001652
0.000000 0.000000 0.001652
0.000000 0.000000 0.001652
0.012818 0.000000 0.001447
0.058002 0.000000 0.000724
0.138433 0.000000 0.000000
0.260031 0.000000 0.000000
0.428737 0.000000 0.000000
0.578314 0.000000 0.000000
0.690975 0.000000 0.000000
0.785963 0.000000 0.000000
0.866533 0.000000 0.000000
0.935831 0.000000 0.000000
0.996940 0.000000 0.000000
1.000000 0.000000 0.000000
1.000000 0.000000 0.000000
1.000000 0.000000 0.000000
0.000000 0.000000 0.001652
0.000000 0.000000 0.001652
0.000000 0.000000 0.001652
0.012818 0.000000 0.001447
0.058002 0.000000 0.000724
0.138433 0.000000 0.000000
0.260031 0.000000 0.000000
0.428737 0.000000 0.000000
0.578314 0.000000 0.000000
0.690975 0.000000 0.000000
0.785963 0.000000 0.000000
0.866533 0.000000 0.000000
0.935831 0.000000 0.000000
0.996940 0.000000 0.000000
1.000000 0.000000 0.000000
1.000000 0.000000 0.000000
1.000000 0.000000 0.000000
0.000000 0.000000 0.001652
0.000000 0.000000 0.001652
0.000000 0.000000 0.001652
0.012818 0.000000 0.001447
0.058002 0.000000 0.000724
0.138433 0.000000 0.000000
0.260031 0.000000 0.000000
0.428737 0.000000 0.000000
0.578314 0.000000 0.000000
0.690975 0.000000 0.000000
0.785963 0.000000 0.000000
0.866533 0.000000 0.000000
0.935831 0.000000 0.000000
0.996940 0.000000 0.000000
1.000000 0.000000 0.000000
1.000000 0.000000 0.000000
1.000000 0.000000 0.000000
0.000000 0.000000 0.001652
0.000000 0.000000 0.001652
0.000000 0.000000 0.001652
0.012818 0.000000 0.001447
0.058002 0.000000 0.000724
0.138433 0.000000 0.000000
0.260031 0.000000 0.000000
0.428737 0.000000 0.000000
0.578314 0.000000 0.000000
0.690975 0.000000 0.000000
0.785963 0.000000 0.000000
0.866533 0.000000 0.000000
0.935831 0.000000 0.000000
0.996940 0.000000 0.000000
1.000000 0.000000 0.000000
1.000000 0.000000 0.000000
1.000000 0.000000 0.000000
0.000000 0.031614 0.000000
0.000000 0.031614 0.000000
0.000000 0.031614 0.000000
0.011049 0.031409 0.000000
0.056233 0.030686 0.000000
0.136664 0.029399 0.000000
0.258262 0.027454 0.000000
0.426968 0.024754 0.000000
0.576545 0.022361 0.000000
0.689206 0.020558 0.000000
0.784194 0.019039 0.000000
0.864764 0.017750 0.000000
0.934062 0.016641 0.000000
0.995170 0.015663 0.000000
1.000000 0.015355 0.000000
1.000000 0.015355 0.000000
1.000000 0.015355 0.000000
0.000000 0.094993 0.000000
0.000000 0.094993 0.000000
0.000000 0.094993 0.000000
0.007504 0.094788 0.000000
0.052688 0.094065 0.000000
0.133118 0.092778 0.000000
0.254716 0.090832 0.000000
0.423423 0.088133 0.000000
0.572999 0.085740 0.000000
0.685661 0.083937 0.000000
0.780649 0.082417 0.000000
0.861219 0.081128 0.000000
0.930517 0.080020 0.000000
0.991625 0.079042 0.000000
1.000000 0.078733 0.000000
1.000000 0.078733 0.000000
1.000000 0.078733 0.000000
0.000000 0.193399 0.000000
0.000000 0.193399 0.000000
0.000000 0.193399 0.000000
0.001999 0.193194 0.000000
0.047183 0.192471 0.000000
0.127613 0.191184 0.000000
0.249211 0.189239 0.000000
0.417918 0.186539 0.000000
0.567494 0.184146 0.000000
0.680156 0.182344 0.000000
0.775144 0.180824 0.000000
0.855714 0.179535 0.000000
0.925012 0.178426 0.000000
0.986120 0.177448 0.000000
1.000000 0.177140 0.000000
1.000000 0.177140 0.000000
1.000000 0.177140 0.000000
0.000000 0.332870 0.000000
0.000000 0.332870 0.000000
0.000000 0.332870 0.000000
0.000000 0.332665 0.000000
0.039380 0.331942 0.000000
0.119811 0.330655 0.000000
0.241409 0.328710 0.000000
0.410116 0.326011 0.000000
0.559692 0.323617 0.000000
0.672353 0.321815 0.000000
0.767342 0.320295 0.000000
0.847911 0.319006 0.000000
0.917209 0.317897 0.000000
0.978318 0.316919 0.000000
0.997590 0.316611 0.000000
0.997590 0.316611 0.000000
0.997590 0.316611 0.000000
0.000000 0.458413 0.000000
0.000000 0.458413 0.000000
0.000000 0.458413 0.000000
0.000000 0.458208 0.000000
0.032357 0.457485 0.000000
0.112788 0.456198 0.000000
0.234386 0.454252 0.000000
0.403093 0.451553 0.000000
0.552669 0.449160 0.000000
0.665330 0.447357 0.000000
0.760319 0.445837 0.000000
0.840888 0.444548 0.000000
0.910186 0.443440 0.000000
0.971295 0.442462 0.000000
0.990567 0.442153 0.000000
0.990567 0.442153 0.000000
0.990567 0.442153 0.000000
0.000000 0.553850 0.000000
0.000000 0.553850 0.000000
0.000000 0.553850 0.000000
0.000000 0.553645 0.000000
0.027018 0.552922 0.000000
0.107449 0.551635 0.000000
0.229047 0.549690 0.000000
0.397754 0.546990 0.000000
0.547330 0.544597 0.000000
0.659991 0.542794 0.000000
0.754980 0.541275 0.000000
0.835550 0.539985 0.000000
0.904847 0.538877 0.000000
0.965956 0.537899 0.000000
0.985228 0.537591 0.000000
0.985228 0.537591 0.000000
0.985228 0.537591 0.000000
0.000000 0.634804 0.000000
0.000000 0.634804 0.000000
0.000000 0.634804 0.000000
0.000000 0.634598 0.000000
0.022490 0.633875 0.000000
0.102920 0.632588 0.000000
0.224518 0.630643 0.000000
0.393225 0.627944 0.000000
0.542801 0.625550 0.000000
0.655463 0.623748 0.000000
0.750451 0.622228 0.000000
0.831021 0.620939 0.000000
0.900319 0.619830 0.000000
0.961427 0.618852 0.000000
0.980699 0.618544 0.000000
0.980699 0.618544 0.000000
0.980699 0.618544 0.000000
0.000000 0.703777 0.000000
0.000000 0.703777 0.000000
0.000000 0.703777 0.000000
0.000000 0.703572 0.000000
0.018631 0.702849 0.000000
0.099062 0.701562 0.000000
0.220660 0.699616 0.000000
0.389367 0.696917 0.000000
0.538943 0.694524 0.000000
0.651604 0.692721 0.000000
0.746593 0.691201 0.000000
0.827162 0.689912 0.000000
0.896460 0.688804 0.000000
0.957569 0.687826 0.000000
0.976841 0.687517 0.000000
0.976841 0.687517 0.000000
0.976841 0.687517 0.000000
0.000000 0.763307 0.000000
0.000000 0.763307 0.000000
0.000000 0.763307 0.000000
0.000000 0.763102 0.000000
0.015301 0.762379 0.000000
0.095732 0.761092 0.000000
0.217330 0.759146 0.000000
0.386037 0.756447 0.000000
0.535613 0.754054 0.000000
0.648274 0.752251 0.000000
0.743262 0.750731 0.000000
0.823832 0.749442 0.000000
0.893130 0.748333 0.000000
0.954239 0.747356 0.000000
0.973510 0.747047 0.000000
0.973510 0.747047 0.000000
0.973510 0.747047 0.000000
0.000000 0.815948 0.000000
0.000000 0.815948 0.000000
0.000000 0.815948 0.000000
0.000000 0.815743 0.000000
0.012356 0.815020 0.000000
0.092787 0.813733 0.000000
0.214385 0.811787 0.000000
0.383092 0.809088 0.000000
0.532668 0.806695 0.000000
0.645329 0.804892 0.000000
0.740318 0.803372 0.000000
0.820887 0.802083 0.000000
0.890185 0.800975 0.000000
0.951294 0.799997 0.000000
0.970566 0.799688 0.000000
0.970566 0.799688 0.000000
0.970566 0.799688 0.000000
0.000000 0.864268 0.000000
0.000000 0.864268 0.000000
0.000000 0.864268 0.000000
0.000000 0.864063 0.000000
0.009653 0.863340 0.000000
0.090084 0.862053 0.000000
0.211682 0.860108 0.000000
0.380389 0.857408 0.000000
0.529965 0.855015 0.000000
0.642626 0.853212 0.000000
0.737614 0.851693 0.000000
0.818184 0.850403 0.000000
0.887482 0.849295 0.000000
0.948591 0.848317 0.000000
0.967863 0.848009 0.000000
0.967863 0.848009 0.000000
0.967863 0.848009 0.000000
0.000000 0.910843 0.000000
0.000000 0.910843 0.000000
0.000000 0.910843 0.000000
0.000000 0.910638 0.000000
0.007048 0.909915 0.000000
0.087478 0.908628 0.000000
0.209076 0.906682 0.000000
0.377783 0.903983 0.000000
0.527359 0.901590 0.000000
0.640021 0.899787 0.000000
0.735009 0.898267 0.000000
0.815579 0.896978 0.000000
0.884877 0.895869 0.000000
0.945985 0.894891 0.000000
0.965257 0.894583 0.000000
0.965257 0.894583 0.000000
0.965257 0.894583 0.000000
0.000000 0.927679 0.000000
0.000000 0.927679 0.000000
0.000000 0.927679 0.000000
0.000000 0.927474 0.000000
0.006106 0.926751 0.000000
0.086537 0.925464 0.000000
0.208135 0.923519 0.000000
0.376841 0.920819 0.000000
0.526417 0.918426 0.000000
0.639079 0.916624 0.000000
0.734067 0.915104 0.000000
0.814637 0.913815 0.000000
0.883935 0.912706 0.000000
0.945043 0.911728 0.000000
0.964315 0.911420 0.000000
0.964315 0.911420 0.000000
0.964315 0.911420 0.000000
0.000000 0.000000 0.012569
0.000000 0.000000 0.012569
0.000000 0.000000 0.012569
0.012760 0.000000 0.012364
0.057943 0.000000 0.011641
0.138374 0.000000 0.010354
0.259972 0.000000 0.008409
0.428679 0.000000 0.005709
0.578255 0.000000 0.003316
0.690916 0.000000 0.001513
0.785905 0.000000 0.000000
0.866475 0.000000 0.000000
0.935772 0.000000 0.000000
0.996881 0.000000 0.000000
1.000000 0.000000 0.000000
1.000000 0.000000 0.000000
1.000000 0.000000 0.000000
0.000000 0.000000 0.012569
