public/luts/dji/lk-dji-teal-orange.cube
TITLE "LK DJI Teal & Orange"
LUT_3D_SIZE 5
DOMAIN_MIN 0.0 0.0 0.0
DOMAIN_MAX 1.0 1.0 1.0
0.000000 0.000000 0.013095
0.051858 0.000000 0.012167
0.556281 0.000000 0.003154
0.916568 0.000000 0.000000
1.000000 0.000000 0.000000
0.000000 0.040277 0.010562
0.049326 0.039349 0.009634
0.553748 0.030336 0.000621
0.914035 0.023899 0.000000
1.000000 0.021660 0.000000
0.000000 0.481873 0.000000
0.021611 0.480945 0.000000
0.526034 0.471932 0.000000
0.886321 0.465494 0.000000
1.000000 0.463255 0.000000
0.000000 0.797337 0.000000
0.001813 0.796409 0.000000
0.506235 0.787396 0.000000
0.866522 0.780958 0.000000
0.991829 0.778719 0.000000
0.000000 0.967408 0.000000
0.000000 0.966480 0.000000
0.495562 0.957467 0.000000
0.855849 0.951029 0.000000
0.981155 0.948791 0.000000
0.000000 0.000000 0.067165
0.051534 0.000000 0.066237
0.555956 0.000000 0.057224
0.916243 0.000000 0.050787
1.000000 0.000000 0.048548
0.000000 0.039953 0.064632
0.049001 0.039025 0.063704
0.553424 0.030012 0.054692
0.913711 0.023574 0.048254
1.000000 0.021335 0.046015
0.000000 0.481548 0.036918
0.021287 0.480620 0.035990
0.525709 0.471607 0.026977
0.885996 0.465170 0.020540
1.000000 0.462931 0.018301
0.000000 0.797012 0.017120
0.001489 0.796084 0.016192
0.505911 0.787072 0.007179
0.866198 0.780634 0.000741
0.991505 0.778395 0.000000
0.000000 0.967084 0.006446
0.000000 0.966156 0.005518
0.495238 0.957143 0.000000
0.855525 0.950705 0.000000
0.980831 0.948466 0.000000
0.000000 0.000000 0.539203
0.048703 0.000000 0.538275
0.553126 0.000000 0.529262
0.913412 0.000000 0.522824
1.000000 0.000000 0.520585
0.000000 0.037122 0.536670
0.046170 0.036194 0.535742
0.550593 0.027181 0.526729
0.910880 0.020743 0.520292
1.000000 0.018504 0.518053
0.000000 0.478717 0.508956
0.018456 0.477789 0.508028
0.522879 0.468776 0.499015
0.883166 0.462339 0.492577
1.000000 0.460100 0.490338
0.000000 0.794182 0.489157
0.000000 0.793254 0.488229
0.503080 0.784241 0.479216
0.863367 0.777803 0.472779
0.988674 0.775564 0.470540
0.000000 0.964253 0.478484
0.000000 0.963325 0.477556
0.492407 0.954312 0.468543
0.852694 0.947874 0.462105
0.978000 0.945635 0.459866
0.000000 0.000000 0.866805
0.046738 0.000000 0.865877
0.551161 0.000000 0.856864
0.911448 0.000000 0.850426
1.000000 0.000000 0.848188
0.000000 0.035157 0.864272
0.044206 0.034229 0.863344
0.548628 0.025216 0.854331
0.908915 0.018779 0.847894
1.000000 0.016540 0.845655
0.000000 0.476753 0.836558
0.016492 0.475825 0.835630
0.520914 0.466812 0.826617
0.881201 0.460374 0.820180
1.000000 0.458135 0.817941
0.000000 0.792217 0.816760
0.000000 0.791289 0.815832
0.501116 0.782276 0.806819
0.861402 0.775838 0.800381
0.986709 0.773599 0.798142
0.000000 0.962288 0.806086
0.000000 0.961360 0.805158
0.490442 0.952347 0.796145
0.850729 0.945910 0.789708
0.976035 0.943671 0.787469
0.000000 0.000000 1.000000
0.045689 0.000000 1.000000
0.550112 0.000000 1.000000
0.910399 0.000000 1.000000
1.000000 0.000000 1.000000
0.000000 0.034108 1.000000
0.043157 0.033180 1.000000
0.547579 0.024167 1.000000
0.907866 0.017729 1.000000
1.000000 0.015491 1.000000
0.000000 0.475703 1.000000
0.015442 0.474775 1.000000
0.519865 0.465763 1.000000
0.880152 0.459325 0.995128
1.000000 0.457086 0.992890
0.000000 0.791168 0.991709
0.000000 0.790240 0.990781
0.500066 0.781227 0.981768
0.860353 0.774789 0.975330
0.985660 0.772550 0.973091
0.000000 0.961239 0.981035
0.000000 0.960311 0.980107
0.489393 0.951298 0.971094
0.849680 0.944860 0.964657
0.974986 0.942621 0.962418
