public/luts/dji/lk-dji-moody-dark.cube
TITLE "LK DJI Moody Dark"
LUT_3D_SIZE 5
DOMAIN_MIN 0.0 0.0 0.0
DOMAIN_MAX 1.0 1.0 1.0
0.000000 0.000000 0.000000
0.008127 0.000250 0.000250
0.371119 0.011427 0.011427
0.643484 0.019813 0.019813
0.792438 0.024399 0.024399
0.000842 0.008718 0.000842
0.008969 0.008969 0.001092
0.371961 0.020145 0.012268
0.644325 0.028531 0.020654
0.793280 0.033117 0.025241
0.038440 0.398132 0.038440
0.046567 0.398383 0.038690
0.409559 0.409559 0.049867
0.681923 0.417945 0.058253
0.830878 0.422531 0.062839
0.066651 0.690322 0.066651
0.074778 0.690572 0.066901
0.437770 0.701749 0.078078
0.710135 0.710135 0.086464
0.859089 0.714721 0.091050
0.082080 0.850119 0.082080
0.090206 0.850369 0.082330
0.453199 0.861546 0.093506
0.725563 0.869932 0.101892
0.874518 0.874518 0.106478
0.000237 0.000237 0.022187
0.008364 0.000487 0.022437
0.371356 0.011663 0.033614
0.643720 0.020049 0.042000
0.792675 0.024636 0.046586
0.001079 0.008955 0.023029
0.009205 0.009205 0.023279
0.372198 0.020382 0.034455
0.644562 0.028768 0.042841
0.793517 0.033354 0.047428
0.038677 0.398369 0.060627
0.046804 0.398619 0.060877
0.409796 0.409796 0.072054
0.682160 0.418182 0.080440
0.831115 0.422768 0.085026
0.066888 0.690559 0.088838
0.075015 0.690809 0.089088
0.438007 0.701985 0.100265
0.710371 0.710371 0.108651
0.859326 0.714958 0.113237
0.082316 0.850356 0.104267
0.090443 0.850606 0.104517
0.453435 0.861782 0.115693
0.725800 0.870168 0.124079
0.874755 0.874755 0.128665
0.004413 0.004413 0.413464
0.012540 0.004663 0.413714
0.375532 0.015840 0.424891
0.647897 0.024226 0.433277
0.796851 0.028812 0.437863
0.005255 0.013131 0.414306
0.013382 0.013382 0.414556
0.376374 0.024558 0.425733
0.648738 0.032944 0.434119
0.797693 0.037530 0.438705
0.042853 0.402545 0.451904
0.050980 0.402796 0.452154
0.413972 0.413972 0.463331
0.686337 0.422358 0.471717
0.835291 0.426944 0.476303
0.071064 0.694735 0.480115
0.079191 0.694985 0.480365
0.442183 0.706162 0.491542
0.714548 0.714548 0.499928
0.863502 0.719134 0.504514
0.086493 0.854532 0.495544
0.094619 0.854782 0.495794
0.457612 0.865959 0.506970
0.729976 0.874345 0.515356
0.878931 0.878931 0.519943
0.007473 0.007473 0.700157
0.015600 0.007723 0.700407
0.378592 0.018900 0.711583
0.650957 0.027286 0.719969
0.799911 0.031872 0.724556
0.008315 0.016191 0.700999
0.016442 0.016442 0.701249
0.379434 0.027618 0.712425
0.651798 0.036004 0.720811
0.800753 0.040590 0.725397
0.045913 0.405605 0.738597
0.054040 0.405856 0.738847
0.417032 0.417032 0.750023
0.689397 0.425418 0.758409
0.838351 0.430004 0.762996
0.074124 0.697795 0.766808
0.082251 0.698045 0.767058
0.445243 0.709222 0.778234
0.717608 0.717608 0.786620
0.866562 0.722194 0.791207
0.089553 0.857592 0.782236
0.097679 0.857842 0.782487
0.460672 0.869019 0.793663
0.733036 0.877405 0.802049
0.881991 0.881991 0.806635
0.008566 0.008566 0.802578
0.016693 0.008816 0.802828
0.379685 0.019993 0.814005
0.652050 0.028379 0.822391
0.801004 0.032965 0.826977
0.009408 0.017285 0.803420
0.017535 0.017535 0.803670
0.380527 0.028711 0.814847
0.652892 0.037097 0.823233
0.801846 0.041684 0.827819
0.047006 0.406698 0.841018
0.055133 0.406949 0.841268
0.418125 0.418125 0.852445
0.690490 0.426511 0.860831
0.839444 0.431097 0.865417
0.075217 0.698888 0.869229
0.083344 0.699138 0.869479
0.446336 0.710315 0.880656
0.718701 0.718701 0.889042
0.867655 0.723287 0.893628
0.090646 0.858685 0.884658
0.098773 0.858935 0.884908
0.461765 0.870112 0.896084
0.734129 0.878498 0.904470
0.883084 0.883084 0.909057
