public/luts/dji/lk-dji-teal-orange.cube
TITLE "LK DJI Teal & Orange"
LUT_3D_SIZE 9
DOMAIN_MIN 0.0 0.0 0.0
DOMAIN_MAX 1.0 1.0 1.0
0.000000 0.000000 0.013095
0.000000 0.000000 0.013095
0.051858 0.000000 0.012167
0.243099 0.000000 0.008750
0.556281 0.000000 0.003154
0.764719 0.000000 0.000000
0.916568 0.000000 0.000000
1.000000 0.000000 0.000000
1.000000 0.000000 0.000000
0.000000 0.000000 0.013095
0.000000 0.000000 0.013095
0.051858 0.000000 0.012167
0.243099 0.000000 0.008750
0.556281 0.000000 0.003154
0.764719 0.000000 0.000000
0.916568 0.000000 0.000000
1.000000 0.000000 0.000000
1.000000 0.000000 0.000000
0.000000 0.040277 0.010562
0.000000 0.040277 0.010562
0.049326 0.039349 0.009634
0.240566 0.035932 0.006217
0.553748 0.030336 0.000621
0.762187 0.026612 0.000000
0.914035 0.023899 0.000000
1.000000 0.021767 0.000000
1.000000 0.021660 0.000000
0.000000 0.207671 0.000057
0.000000 0.207671 0.000057
0.038820 0.206743 0.000000
0.230061 0.203326 0.000000
0.543242 0.197730 0.000000
0.751681 0.194006 0.000000
0.903529 0.191293 0.000000
1.000000 0.189161 0.000000
1.000000 0.189054 0.000000
0.000000 0.481873 0.000000
0.000000 0.481873 0.000000
0.021611 0.480945 0.000000
0.212852 0.477528 0.000000
0.526034 0.471932 0.000000
0.734472 0.468207 0.000000
0.886321 0.465494 0.000000
1.000000 0.463362 0.000000
1.000000 0.463255 0.000000
0.000000 0.664378 0.000000
0.000000 0.664378 0.000000
0.010157 0.663450 0.000000
0.201398 0.660033 0.000000
0.514580 0.654437 0.000000
0.723018 0.650713 0.000000
0.874867 0.648000 0.000000
0.994169 0.645868 0.000000
1.000000 0.645761 0.000000
0.000000 0.797337 0.000000
0.000000 0.797337 0.000000
0.001813 0.796409 0.000000
0.193054 0.792992 0.000000
0.506235 0.787396 0.000000
0.714674 0.783671 0.000000
0.866522 0.780958 0.000000
0.985824 0.778827 0.000000
0.991829 0.778719 0.000000
0.000000 0.901798 0.000000
0.000000 0.901798 0.000000
0.000000 0.900870 0.000000
0.186498 0.897453 0.000000
0.499679 0.891857 0.000000
0.708118 0.888133 0.000000
0.859966 0.885420 0.000000
0.979268 0.883288 0.000000
0.985273 0.883181 0.000000
0.000000 0.967408 0.000000
0.000000 0.967408 0.000000
0.000000 0.966480 0.000000
0.182380 0.963063 0.000000
0.495562 0.957467 0.000000
0.704000 0.953743 0.000000
0.855849 0.951029 0.000000
0.975151 0.948898 0.000000
0.981155 0.948791 0.000000
0.000000 0.000000 0.013257
0.000000 0.000000 0.013257
0.051857 0.000000 0.012329
0.243098 0.000000 0.008912
0.556280 0.000000 0.003316
0.764718 0.000000 0.000000
0.916567 0.000000 0.000000
1.000000 0.000000 0.000000
1.000000 0.000000 0.000000
0.000000 0.000000 0.013257
0.000000 0.000000 0.013257
0.051857 0.000000 0.012329
0.243098 0.000000 0.008912
0.556280 0.000000 0.003316
0.764718 0.000000 0.000000
0.916567 0.000000 0.000000
1.000000 0.000000 0.000000
1.000000 0.000000 0.000000
0.000000 0.040276 0.010724
0.000000 0.040276 0.010724
0.049325 0.039348 0.009796
0.240565 0.035931 0.006379
0.553747 0.030335 0.000784
0.762186 0.026611 0.000000
0.914034 0.023898 0.000000
1.000000 0.021766 0.000000
1.000000 0.021659 0.000000
0.000000 0.207670 0.000219
0.000000 0.207670 0.000219
0.038819 0.206742 0.000000
0.230060 0.203325 0.000000
0.543242 0.197729 0.000000
0.751680 0.194005 0.000000
0.903528 0.191292 0.000000
1.000000 0.189160 0.000000
1.000000 0.189053 0.000000
0.000000 0.481872 0.000000
0.000000 0.481872 0.000000
0.021610 0.480944 0.000000
0.212851 0.477527 0.000000
0.526033 0.471931 0.000000
0.734471 0.468206 0.000000
0.886320 0.465493 0.000000
1.000000 0.463362 0.000000
1.000000 0.463254 0.000000
0.000000 0.664377 0.000000
0.000000 0.664377 0.000000
0.010157 0.663449 0.000000
0.201397 0.660032 0.000000
0.514579 0.654436 0.000000
0.723017 0.650712 0.000000
0.874866 0.647999 0.000000
0.994168 0.645867 0.000000
1.000000 0.645760 0.000000
0.000000 0.797336 0.000000
0.000000 0.797336 0.000000
0.001812 0.796408 0.000000
0.193053 0.792991 0.000000
0.506234 0.787395 0.000000
0.714673 0.783670 0.000000
0.866521 0.780957 0.000000
0.985823 0.778826 0.000000
0.991828 0.778718 0.000000
0.000000 0.901797 0.000000
0.000000 0.901797 0.000000
0.000000 0.900869 0.000000
0.186497 0.897452 0.000000
0.499679 0.891856 0.000000
0.708117 0.888132 0.000000
0.859965 0.885419 0.000000
0.979267 0.883287 0.000000
0.985272 0.883180 0.000000
0.000000 0.967407 0.000000
0.000000 0.967407 0.000000
0.000000 0.966479 0.000000
0.182379 0.963062 0.000000
0.495561 0.957466 0.000000
0.704000 0.953742 0.000000
0.855848 0.951028 0.000000
0.975150 0.948897 0.000000
0.981154 0.948790 0.000000
0.000000 0.000000 0.067165
0.000000 0.000000 0.067165
0.051534 0.000000 0.066237
0.242775 0.000000 0.062820
0.555956 0.000000 0.057224
0.764395 0.000000 0.053500
0.916243 0.000000 0.050787
1.000000 0.000000 0.048655
1.000000 0.000000 0.048548
0.000000 0.000000 0.067165
0.000000 0.000000 0.067165
0.051534 0.000000 0.066237
0.242775 0.000000 0.062820
0.555956 0.000000 0.057224
0.764395 0.000000 0.053500
0.916243 0.000000 0.050787
1.000000 0.000000 0.048655
1.000000 0.000000 0.048548
0.000000 0.039953 0.064632
0.000000 0.039953 0.064632
0.049001 0.039025 0.063704
0.240242 0.035608 0.060287
0.553424 0.030012 0.054692
0.761862 0.026287 0.050967
0.913711 0.023574 0.048254
1.000000 0.021443 0.046122
1.000000 0.021335 0.046015
0.000000 0.207347 0.054127
0.000000 0.207347 0.054127
0.038496 0.206419 0.053199
0.229737 0.203002 0.049782
0.542918 0.197406 0.044186
0.751357 0.193681 0.040462
0.903205 0.190968 0.037748
1.000000 0.188837 0.035617
1.000000 0.188729 0.035510
0.000000 0.481548 0.036918
0.000000 0.481548 0.036918
0.021287 0.480620 0.035990
0.212528 0.477203 0.032573
0.525709 0.471607 0.026977
0.734148 0.467883 0.023253
0.885996 0.465170 0.020540
1.000000 0.463038 0.018408
1.000000 0.462931 0.018301
0.000000 0.664054 0.025464
0.000000 0.664054 0.025464
0.009833 0.663126 0.024536
0.201074 0.659709 0.021119
0.514256 0.654113 0.015523
0.722694 0.650389 0.011799
0.874542 0.647676 0.009086
0.993844 0.645544 0.006954
0.999849 0.645437 0.006847
0.000000 0.797012 0.017120
0.000000 0.797012 0.017120
0.001489 0.796084 0.016192
0.192730 0.792667 0.012775
0.505911 0.787072 0.007179
0.714350 0.783347 0.003455
0.866198 0.780634 0.000741
0.985500 0.778502 0.000000
0.991505 0.778395 0.000000
0.000000 0.901474 0.010564
0.000000 0.901474 0.010564
0.000000 0.900546 0.009636
0.186174 0.897129 0.006219
0.499355 0.891533 0.000623
0.707794 0.887809 0.000000
0.859642 0.885096 0.000000
0.978944 0.882964 0.000000
0.984949 0.882857 0.000000
0.000000 0.967084 0.006446
0.000000 0.967084 0.006446
0.000000 0.966156 0.005518
0.182056 0.962739 0.002101
0.495238 0.957143 0.000000
0.703676 0.953418 0.000000
0.855525 0.950705 0.000000
0.974826 0.948574 0.000000
0.980831 0.948466 0.000000
0.000000 0.000000 0.249303
0.000000 0.000000 0.249303
0.050442 0.000000 0.248375
0.241683 0.000000 0.244958
0.554864 0.000000 0.239362
0.763303 0.000000 0.235637
0.915151 0.000000 0.232924
1.000000 0.000000 0.230793
1.000000 0.000000 0.230685
0.000000 0.000000 0.249303
0.000000 0.000000 0.249303
0.050442 0.000000 0.248375
0.241683 0.000000 0.244958
0.554864 0.000000 0.239362
0.763303 0.000000 0.235637
0.915151 0.000000 0.232924
1.000000 0.000000 0.230793
1.000000 0.000000 0.230685
0.000000 0.038860 0.246770
0.000000 0.038860 0.246770
0.047909 0.037932 0.245842
0.239150 0.034515 0.242425
0.552331 0.028920 0.236829
0.760770 0.025195 0.233105
0.912618 0.022482 0.230392
1.000000 0.020350 0.228260
1.000000 0.020243 0.228153
0.000000 0.206254 0.236264
0.000000 0.206254 0.236264
0.037404 0.205326 0.235336
0.228644 0.201909 0.231919
0.541826 0.196314 0.226324
0.750264 0.192589 0.222599
0.902113 0.189876 0.219886
1.000000 0.187744 0.217754
1.000000 0.187637 0.217647
0.000000 0.480456 0.219056
0.000000 0.480456 0.219056
0.020195 0.479528 0.218128
0.211436 0.476111 0.214711
0.524617 0.470515 0.209115
0.733056 0.466791 0.205391
0.884904 0.464078 0.202677
1.000000 0.461946 0.200546
1.000000 0.461839 0.200438
0.000000 0.662962 0.207602
0.000000 0.662962 0.207602
0.008741 0.662034 0.206674
0.199982 0.658617 0.203257
0.513163 0.653021 0.197661
0.721602 0.649296 0.193937
0.873450 0.646583 0.191223
0.992752 0.644452 0.189092
0.998757 0.644344 0.188984
0.000000 0.795920 0.199257
0.000000 0.795920 0.199257
0.000397 0.794992 0.198329
0.191637 0.791575 0.194912
0.504819 0.785979 0.189317
0.713257 0.782255 0.185592
0.865106 0.779542 0.182879
0.984408 0.777410 0.180747
0.990412 0.777303 0.180640
0.000000 0.900382 0.192701
0.000000 0.900382 0.192701
0.000000 0.899454 0.191773
0.185081 0.896037 0.188356
0.498263 0.890441 0.182761
0.706702 0.886716 0.179036
0.858550 0.884003 0.176323
0.977852 0.881872 0.174191
0.983856 0.881764 0.174084
0.000000 0.965991 0.188584
0.000000 0.965991 0.188584
0.000000 0.965063 0.187656
0.180964 0.961646 0.184239
0.494145 0.956050 0.178643
0.702584 0.952326 0.174919
0.854432 0.949613 0.172205
0.973734 0.947481 0.170074
0.979739 0.947374 0.169966
0.000000 0.000000 0.539203
0.000000 0.000000 0.539203
0.048703 0.000000 0.538275
0.239944 0.000000 0.534858
0.553126 0.000000 0.529262
0.761564 0.000000 0.525537
0.913412 0.000000 0.522824
1.000000 0.000000 0.520693
1.000000 0.000000 0.520585
0.000000 0.000000 0.539203
0.000000 0.000000 0.539203
0.048703 0.000000 0.538275
0.239944 0.000000 0.534858
0.553126 0.000000 0.529262
0.761564 0.000000 0.525537
0.913412 0.000000 0.522824
1.000000 0.000000 0.520693
1.000000 0.000000 0.520585
0.000000 0.037122 0.536670
0.000000 0.037122 0.536670
0.046170 0.036194 0.535742
0.237411 0.032777 0.532325
0.550593 0.027181 0.526729
0.759031 0.023457 0.523005
0.910880 0.020743 0.520292
1.000000 0.018612 0.518160
1.000000 0.018504 0.518053
0.000000 0.204516 0.526164
0.000000 0.204516 0.526164
0.035665 0.203588 0.525236
0.226906 0.200171 0.521819
0.540087 0.194575 0.516224
0.748526 0.190851 0.512499
0.900374 0.188137 0.509786
1.000000 0.186006 0.507654
1.000000 0.185898 0.507547
0.000000 0.478717 0.508956
0.000000 0.478717 0.508956
0.018456 0.477789 0.508028
0.209697 0.474372 0.504611
0.522879 0.468776 0.499015
0.731317 0.465052 0.495290
0.883166 0.462339 0.492577
1.000000 0.460207 0.490446
1.000000 0.460100 0.490338
0.000000 0.661223 0.497502
0.000000 0.661223 0.497502
0.007002 0.660295 0.496574
0.198243 0.656878 0.493157
0.511425 0.651282 0.487561
0.719863 0.647558 0.483837
0.871712 0.644845 0.481123
0.991013 0.642713 0.478992
0.997018 0.642606 0.478884
0.000000 0.794182 0.489157
0.000000 0.794182 0.489157
0.000000 0.793254 0.488229
0.189899 0.789836 0.484812
0.503080 0.784241 0.479216
0.711519 0.780516 0.475492
0.863367 0.777803 0.472779
0.982669 0.775671 0.470647
0.988674 0.775564 0.470540
0.000000 0.898643 0.482601
0.000000 0.898643 0.482601
0.000000 0.897715 0.481673
0.183343 0.894298 0.478256
0.496524 0.888702 0.472661
0.704963 0.884978 0.468936
0.856811 0.882265 0.466223
0.976113 0.880133 0.464091
0.982118 0.880026 0.463984
0.000000 0.964253 0.478484
0.000000 0.964253 0.478484
0.000000 0.963325 0.477556
0.179225 0.959908 0.474139
0.492407 0.954312 0.468543
0.700845 0.950587 0.464819
0.852694 0.947874 0.462105
0.971995 0.945743 0.459974
0.978000 0.945635 0.459866
0.000000 0.000000 0.729292
0.000000 0.000000 0.729292
0.047563 0.000000 0.728364
0.238804 0.000000 0.724947
0.551986 0.000000 0.719351
0.760424 0.000000 0.715626
0.912272 0.000000 0.712913
1.000000 0.000000 0.710782
1.000000 0.000000 0.710674
0.000000 0.000000 0.729292
0.000000 0.000000 0.729292
0.047563 0.000000 0.728364
0.238804 0.000000 0.724947
0.551986 0.000000 0.719351
0.760424 0.000000 0.715626
0.912272 0.000000 0.712913
1.000000 0.000000 0.710782
1.000000 0.000000 0.710674
0.000000 0.035982 0.726759
0.000000 0.035982 0.726759
0.045030 0.035054 0.725831
0.236271 0.031637 0.722414
0.549453 0.026041 0.716818
0.757891 0.022317 0.713094
0.909740 0.019603 0.710380
1.000000 0.017472 0.708249
1.000000 0.017364 0.708142
0.000000 0.203376 0.716253
0.000000 0.203376 0.716253
0.034525 0.202448 0.715325
0.225766 0.199031 0.711908
0.538947 0.193435 0.706312
0.747386 0.189711 0.702588
0.899234 0.186997 0.699875
1.000000 0.184866 0.697743
1.000000 0.184758 0.697636
0.000000 0.477577 0.699045
0.000000 0.477577 0.699045
0.017316 0.476649 0.698117
0.208557 0.473232 0.694700
0.521739 0.467636 0.689104
0.730177 0.463912 0.685379
0.882026 0.461199 0.682666
1.000000 0.459067 0.680535
1.000000 0.458960 0.680427
0.000000 0.660083 0.687591
0.000000 0.660083 0.687591
0.005862 0.659155 0.686663
0.197103 0.655738 0.683246
0.510285 0.650142 0.677650
0.718723 0.646418 0.673925
0.870572 0.643705 0.671212
0.989873 0.641573 0.669081
0.995878 0.641466 0.668973
0.000000 0.793042 0.679246
0.000000 0.793042 0.679246
0.000000 0.792114 0.678318
0.188759 0.788696 0.674901
0.501940 0.783101 0.669305
0.710379 0.779376 0.665581
0.862227 0.776663 0.662868
0.981529 0.774531 0.660736
0.987534 0.774424 0.660629
0.000000 0.897503 0.672690
0.000000 0.897503 0.672690
0.000000 0.896575 0.671762
0.182203 0.893158 0.668345
0.495384 0.887562 0.662750
0.703823 0.883838 0.659025
0.855671 0.881125 0.656312
0.974973 0.878993 0.654180
0.980978 0.878886 0.654073
0.000000 0.963113 0.668573
0.000000 0.963113 0.668573
0.000000 0.962185 0.667645
0.178085 0.958768 0.664228
0.491267 0.953172 0.658632
0.699705 0.949447 0.654908
0.851554 0.946734 0.652194
0.970855 0.944603 0.650063
0.976860 0.944495 0.649955
0.000000 0.000000 0.866805
0.000000 0.000000 0.866805
0.046738 0.000000 0.865877
0.237979 0.000000 0.862460
0.551161 0.000000 0.856864
0.759599 0.000000 0.853140
0.911448 0.000000 0.850426
1.000000 0.000000 0.848295
1.000000 0.000000 0.848188
0.000000 0.000000 0.866805
0.000000 0.000000 0.866805
0.046738 0.000000 0.865877
0.237979 0.000000 0.862460
0.551161 0.000000 0.856864
0.759599 0.000000 0.853140
0.911448 0.000000 0.850426
1.000000 0.000000 0.848295
1.000000 0.000000 0.848188
0.000000 0.035157 0.864272
0.000000 0.035157 0.864272
0.044206 0.034229 0.863344
0.235447 0.030812 0.859927
0.548628 0.025216 0.854331
0.757067 0.021492 0.850607
0.908915 0.018779 0.847894
1.000000 0.016647 0.845762
1.000000 0.016540 0.845655
0.000000 0.202551 0.853767
0.000000 0.202551 0.853767
0.033700 0.201623 0.852839
0.224941 0.198206 0.849422
0.538123 0.192610 0.843826
0.746561 0.188886 0.840101
0.898410 0.186173 0.837388
1.000000 0.184041 0.835257
1.000000 0.183934 0.835149
0.000000 0.476753 0.836558
0.000000 0.476753 0.836558
0.016492 0.475825 0.835630
0.207732 0.472408 0.832213
0.520914 0.466812 0.826617
0.729352 0.463087 0.822893
0.881201 0.460374 0.820180
1.000000 0.458243 0.818048
1.000000 0.458135 0.817941
0.000000 0.659258 0.825104
0.000000 0.659258 0.825104
0.005038 0.658330 0.824176
0.196278 0.654913 0.820759
0.509460 0.649318 0.815163
0.717899 0.645593 0.811439
0.869747 0.642880 0.808726
0.989049 0.640748 0.806594
0.995053 0.640641 0.806487
0.000000 0.792217 0.816760
0.000000 0.792217 0.816760
0.000000 0.791289 0.815832
0.187934 0.787872 0.812415
0.501116 0.782276 0.806819
0.709554 0.778552 0.803094
0.861402 0.775838 0.800381
0.980704 0.773707 0.798250
0.986709 0.773599 0.798142
0.000000 0.896678 0.810204
0.000000 0.896678 0.810204
0.000000 0.895750 0.809276
0.181378 0.892333 0.805859
0.494560 0.886737 0.800263
0.702998 0.883013 0.796538
0.854847 0.880300 0.793825
0.974148 0.878168 0.791694
0.980153 0.878061 0.791586
0.000000 0.962288 0.806086
0.000000 0.962288 0.806086
0.000000 0.961360 0.805158
0.177260 0.957943 0.801741
0.490442 0.952347 0.796145
0.698881 0.948623 0.792421
0.850729 0.945910 0.789708
0.970031 0.943778 0.787576
0.976035 0.943671 0.787469
0.000000 0.000000 0.974377
0.000000 0.000000 0.974377
0.046093 0.000000 0.973449
0.237334 0.000000 0.970032
0.550516 0.000000 0.964436
0.758954 0.000000 0.960712
0.910803 0.000000 0.957998
1.000000 0.000000 0.955867
1.000000 0.000000 0.955759
0.000000 0.000000 0.974377
0.000000 0.000000 0.974377
0.046093 0.000000 0.973449
0.237334 0.000000 0.970032
0.550516 0.000000 0.964436
0.758954 0.000000 0.960712
0.910803 0.000000 0.957998
1.000000 0.000000 0.955867
1.000000 0.000000 0.955759
0.000000 0.034512 0.971844
0.000000 0.034512 0.971844
0.043561 0.033584 0.970916
0.234801 0.030167 0.967499
0.547983 0.024571 0.961903
0.756422 0.020847 0.958179
0.908270 0.018134 0.955466
1.000000 0.016002 0.953334
1.000000 0.015895 0.953227
0.000000 0.201906 0.961339
0.000000 0.201906 0.961339
0.033055 0.200978 0.960411
0.224296 0.197561 0.956994
0.537477 0.191965 0.951398
0.745916 0.188241 0.947673
0.897764 0.185528 0.944960
1.000000 0.183396 0.942828
1.000000 0.183289 0.942721
0.000000 0.476108 0.944130
0.000000 0.476108 0.944130
0.015846 0.475180 0.943202
0.207087 0.471763 0.939785
0.520269 0.466167 0.934189
0.728707 0.462442 0.930465
0.880556 0.459729 0.927751
0.999857 0.457597 0.925620
1.000000 0.457490 0.925512
0.000000 0.658613 0.932676
0.000000 0.658613 0.932676
0.004392 0.657685 0.931748
0.195633 0.654268 0.928331
0.508815 0.648672 0.922735
0.717253 0.644948 0.919011
0.869102 0.642235 0.916298
0.988404 0.640103 0.914166
0.994408 0.639996 0.914059
0.000000 0.791572 0.924332
0.000000 0.791572 0.924332
0.000000 0.790644 0.923404
0.187289 0.787227 0.919987
0.500470 0.781631 0.914391
0.708909 0.777906 0.910666
0.860757 0.775193 0.907953
0.980059 0.773062 0.905821
0.986064 0.772954 0.905714
0.000000 0.896033 0.917776
0.000000 0.896033 0.917776
0.000000 0.895105 0.916848
0.180733 0.891688 0.913431
0.493914 0.886092 0.907835
0.702353 0.882368 0.904110
0.854201 0.879655 0.901397
0.973503 0.877523 0.899266
0.979508 0.877416 0.899158
0.000000 0.961643 0.913658
0.000000 0.961643 0.913658
0.000000 0.960715 0.912730
0.176615 0.957298 0.909313
0.489797 0.951702 0.903717
0.698235 0.947978 0.899993
0.850084 0.945264 0.897280
0.969386 0.943133 0.895148
0.975390 0.943026 0.895041
0.000000 0.000000 1.000000
0.000000 0.000000 1.000000
0.045689 0.000000 1.000000
0.236930 0.000000 1.000000
0.550112 0.000000 1.000000
0.758550 0.000000 1.000000
0.910399 0.000000 1.000000
1.000000 0.000000 1.000000
1.000000 0.000000 1.000000
0.000000 0.000000 1.000000
0.000000 0.000000 1.000000
0.045689 0.000000 1.000000
0.236930 0.000000 1.000000
0.550112 0.000000 1.000000
0.758550 0.000000 1.000000
0.910399 0.000000 1.000000
1.000000 0.000000 1.000000
1.000000 0.000000 1.000000
0.000000 0.034108 1.000000
0.000000 0.034108 1.000000
0.043157 0.033180 1.000000
0.234397 0.029763 1.000000
0.547579 0.024167 1.000000
0.756018 0.020443 1.000000
0.907866 0.017729 1.000000
1.000000 0.015598 1.000000
1.000000 0.015491 1.000000
0.000000 0.201502 1.000000
0.000000 0.201502 1.000000
0.032651 0.200574 1.000000
0.223892 0.197157 1.000000
0.537073 0.191561 1.000000
0.745512 0.187837 1.000000
0.897360 0.185123 1.000000
1.000000 0.182992 1.000000
1.000000 0.182885 1.000000
0.000000 0.475703 1.000000
0.000000 0.475703 1.000000
0.015442 0.474775 1.000000
0.206683 0.471358 1.000000
0.519865 0.465763 1.000000
0.728303 0.462038 0.997842
0.880152 0.459325 0.995128
0.999453 0.457193 0.992997
1.000000 0.457086 0.992890
0.000000 0.658209 1.000000
0.000000 0.658209 1.000000
0.003988 0.657281 0.999125
0.195229 0.653864 0.995708
0.508411 0.648268 0.990112
0.716849 0.644544 0.986388
0.868698 0.641831 0.983675
0.987999 0.639699 0.981543
0.994004 0.639592 0.981436
0.000000 0.791168 0.991709
0.000000 0.791168 0.991709
0.000000 0.790240 0.990781
0.186885 0.786823 0.987364
0.500066 0.781227 0.981768
0.708505 0.777502 0.978043
0.860353 0.774789 0.975330
0.979655 0.772658 0.973198
0.985660 0.772550 0.973091
0.000000 0.895629 0.985153
0.000000 0.895629 0.985153
0.000000 0.894701 0.984225
0.180329 0.891284 0.980808
0.493510 0.885688 0.975212
0.701949 0.881964 0.971487
0.853797 0.879251 0.968774
0.973099 0.877119 0.966643
0.979104 0.877012 0.966535
0.000000 0.961239 0.981035
0.000000 0.961239 0.981035
0.000000 0.960311 0.980107
0.176211 0.956894 0.976690
0.489393 0.951298 0.971094
0.697831 0.947574 0.967370
0.849680 0.944860 0.964657
0.968981 0.942729 0.962525
0.974986 0.942621 0.962418
