public/luts/dji/lk-dji-golden-hour.cube
TITLE "LK DJI Golden Hour"
LUT_3D_SIZE 9
DOMAIN_MIN 0.0 0.0 0.0
DOMAIN_MAX 1.0 1.0 1.0
0.000000 0.000000 0.000000
0.000000 0.000000 0.000000
0.061162 0.000000 0.000000
0.263983 0.000000 0.000000
0.576964 0.000000 0.000000
0.779100 0.000000 0.000000
0.924311 0.000000 0.000000
0.994333 0.000000 0.000000
0.994333 0.000000 0.000000
0.000000 0.000000 0.000000
0.000000 0.000000 0.000000
0.061162 0.000000 0.000000
0.263983 0.000000 0.000000
0.576964 0.000000 0.000000
0.779100 0.000000 0.000000
0.924311 0.000000 0.000000
0.994333 0.000000 0.000000
0.994333 0.000000 0.000000
0.000000 0.044317 0.000000
0.000000 0.044317 0.000000
0.059292 0.043572 0.000000
0.262113 0.041102 0.000000
0.575095 0.037289 0.000000
0.777231 0.034827 0.000000
0.922441 0.033059 0.000000
0.992463 0.032206 0.000000
0.992463 0.032206 0.000000
0.000000 0.221514 0.000000
0.000000 0.221514 0.000000
0.051816 0.220769 0.000000
0.254637 0.218298 0.000000
0.567618 0.214486 0.000000
0.769754 0.212024 0.000000
0.914965 0.210255 0.000000
0.984987 0.209402 0.000000
0.984987 0.209402 0.000000
0.000000 0.497043 0.000000
0.000000 0.497043 0.000000
0.040191 0.496298 0.000000
0.243012 0.493828 0.000000
0.555994 0.490016 0.000000
0.758130 0.487553 0.000000
0.903340 0.485785 0.000000
0.973362 0.484932 0.000000
0.973362 0.484932 0.000000
0.000000 0.675787 0.000000
0.000000 0.675787 0.000000
0.032650 0.675042 0.000000
0.235471 0.672572 0.000000
0.548452 0.668759 0.000000
0.750588 0.666297 0.000000
0.895799 0.664529 0.000000
0.965820 0.663676 0.000000
0.965820 0.663676 0.000000
0.000000 0.804468 0.000000
0.000000 0.804468 0.000000
0.027221 0.803723 0.000000
0.230041 0.801253 0.000000
0.543023 0.797441 0.000000
0.745159 0.794979 0.000000
0.890369 0.793210 0.000000
0.960391 0.792357 0.000000
0.960391 0.792357 0.000000
0.000000 0.904834 0.000000
0.000000 0.904834 0.000000
0.022986 0.904089 0.000000
0.225807 0.901619 0.000000
0.538788 0.897806 0.000000
0.740924 0.895344 0.000000
0.886135 0.893575 0.000000
0.956157 0.892723 0.000000
0.956157 0.892723 0.000000
0.000000 0.965700 0.000000
0.000000 0.965700 0.000000
0.020418 0.964955 0.000000
0.223239 0.962485 0.000000
0.536220 0.958673 0.000000
0.738356 0.956210 0.000000
0.883567 0.954442 0.000000
0.953589 0.953589 0.000000
0.953589 0.953589 0.000000
0.000000 0.000000 0.000000
0.000000 0.000000 0.000000
0.061162 0.000000 0.000000
0.263983 0.000000 0.000000
0.576964 0.000000 0.000000
0.779100 0.000000 0.000000
0.924311 0.000000 0.000000
0.994333 0.000000 0.000000
0.994333 0.000000 0.000000
0.000000 0.000000 0.000000
0.000000 0.000000 0.000000
0.061162 0.000000 0.000000
0.263983 0.000000 0.000000
0.576964 0.000000 0.000000
0.779100 0.000000 0.000000
0.924311 0.000000 0.000000
0.994333 0.000000 0.000000
0.994333 0.000000 0.000000
0.000000 0.044317 0.000000
0.000000 0.044317 0.000000
0.059292 0.043572 0.000000
0.262113 0.041102 0.000000
0.575095 0.037289 0.000000
0.777231 0.034827 0.000000
0.922441 0.033059 0.000000
0.992463 0.032206 0.000000
0.992463 0.032206 0.000000
0.000000 0.221514 0.000000
0.000000 0.221514 0.000000
0.051816 0.220769 0.000000
0.254637 0.218298 0.000000
0.567618 0.214486 0.000000
0.769754 0.212024 0.000000
0.914965 0.210255 0.000000
0.984987 0.209402 0.000000
0.984987 0.209402 0.000000
0.000000 0.497043 0.000000
0.000000 0.497043 0.000000
0.040191 0.496298 0.000000
0.243012 0.493828 0.000000
0.555994 0.490016 0.000000
0.758130 0.487553 0.000000
0.903340 0.485785 0.000000
0.973362 0.484932 0.000000
0.973362 0.484932 0.000000
0.000000 0.675787 0.000000
0.000000 0.675787 0.000000
0.032650 0.675042 0.000000
0.235471 0.672572 0.000000
0.548452 0.668759 0.000000
0.750588 0.666297 0.000000
0.895799 0.664529 0.000000
0.965820 0.663676 0.000000
0.965820 0.663676 0.000000
0.000000 0.804468 0.000000
0.000000 0.804468 0.000000
0.027221 0.803723 0.000000
0.230041 0.801253 0.000000
0.543023 0.797441 0.000000
0.745159 0.794979 0.000000
0.890369 0.793210 0.000000
0.960391 0.792357 0.000000
0.960391 0.792357 0.000000
0.000000 0.904834 0.000000
0.000000 0.904834 0.000000
0.022986 0.904089 0.000000
0.225807 0.901619 0.000000
0.538788 0.897806 0.000000
0.740924 0.895344 0.000000
0.886135 0.893575 0.000000
0.956157 0.892723 0.000000
0.956157 0.892723 0.000000
0.000000 0.965700 0.000000
0.000000 0.965700 0.000000
0.020418 0.964955 0.000000
0.223239 0.962485 0.000000
0.536220 0.958673 0.000000
0.738356 0.956210 0.000000
0.883567 0.954442 0.000000
0.953589 0.953589 0.000000
0.953589 0.953589 0.000000
0.000000 0.000000 0.014566
0.000000 0.000000 0.014566
0.061102 0.000000 0.013821
0.263923 0.000000 0.011351
0.576905 0.000000 0.007539
0.779041 0.000000 0.005076
0.924251 0.000000 0.003308
0.994273 0.000000 0.002455
0.994273 0.000000 0.002455
0.000000 0.000000 0.014566
0.000000 0.000000 0.014566
0.061102 0.000000 0.013821
0.263923 0.000000 0.011351
0.576905 0.000000 0.007539
0.779041 0.000000 0.005076
0.924251 0.000000 0.003308
0.994273 0.000000 0.002455
0.994273 0.000000 0.002455
0.000000 0.044257 0.012696
0.000000 0.044257 0.012696
0.059233 0.043512 0.011952
0.262053 0.041042 0.009481
0.575035 0.037230 0.005669
0.777171 0.034768 0.003207
0.922381 0.032999 0.001438
0.992403 0.032146 0.000585
0.992403 0.032146 0.000585
0.000000 0.221454 0.005220
0.000000 0.221454 0.005220
0.051756 0.220709 0.004475
0.254577 0.218238 0.002005
0.567559 0.214426 0.000000
0.769695 0.211964 0.000000
0.914905 0.210195 0.000000
0.984927 0.209342 0.000000
0.984927 0.209342 0.000000
0.000000 0.496983 0.000000
0.000000 0.496983 0.000000
0.040132 0.496239 0.000000
0.242952 0.493768 0.000000
0.555934 0.489956 0.000000
0.758070 0.487494 0.000000
0.903280 0.485725 0.000000
0.973302 0.484872 0.000000
0.973302 0.484872 0.000000
0.000000 0.675727 0.000000
0.000000 0.675727 0.000000
0.032590 0.674982 0.000000
0.235411 0.672512 0.000000
0.548392 0.668700 0.000000
0.750528 0.666238 0.000000
0.895739 0.664469 0.000000
0.965761 0.663616 0.000000
0.965761 0.663616 0.000000
0.000000 0.804409 0.000000
0.000000 0.804409 0.000000
0.027161 0.803664 0.000000
0.229982 0.801193 0.000000
0.542963 0.797381 0.000000
0.745099 0.794919 0.000000
0.890310 0.793150 0.000000
0.960332 0.792297 0.000000
0.960332 0.792297 0.000000
0.000000 0.904774 0.000000
0.000000 0.904774 0.000000
0.022926 0.904029 0.000000
0.225747 0.901559 0.000000
0.538729 0.897747 0.000000
0.740865 0.895284 0.000000
0.886075 0.893516 0.000000
0.956097 0.892663 0.000000
0.956097 0.892663 0.000000
0.000000 0.965640 0.000000
0.000000 0.965640 0.000000
0.020358 0.964896 0.000000
0.223179 0.962425 0.000000
0.536161 0.958613 0.000000
0.738297 0.956151 0.000000
0.883507 0.954382 0.000000
0.953529 0.953529 0.000000
0.953529 0.953529 0.000000
0.000000 0.000000 0.158942
0.000000 0.000000 0.158942
0.060510 0.000000 0.158197
0.263330 0.000000 0.155726
0.576312 0.000000 0.151914
0.778448 0.000000 0.149452
0.923658 0.000000 0.147683
0.993680 0.000000 0.146830
0.993680 0.000000 0.146830
0.000000 0.000000 0.158942
0.000000 0.000000 0.158942
0.060510 0.000000 0.158197
0.263330 0.000000 0.155726
0.576312 0.000000 0.151914
0.778448 0.000000 0.149452
0.923658 0.000000 0.147683
0.993680 0.000000 0.146830
0.993680 0.000000 0.146830
0.000000 0.043665 0.157072
0.000000 0.043665 0.157072
0.058640 0.042920 0.156327
0.261461 0.040449 0.153857
0.574442 0.036637 0.150044
0.776578 0.034175 0.147582
0.921789 0.032406 0.145813
0.991811 0.031553 0.144961
0.991811 0.031553 0.144961
0.000000 0.220861 0.149596
0.000000 0.220861 0.149596
0.051164 0.220116 0.148851
0.253985 0.217646 0.146381
0.566966 0.213834 0.142568
0.769102 0.211372 0.140106
0.914313 0.209603 0.138337
0.984335 0.208750 0.137484
0.984335 0.208750 0.137484
0.000000 0.496391 0.137971
0.000000 0.496391 0.137971
0.039539 0.495646 0.137226
0.242360 0.493176 0.134756
0.555341 0.489363 0.130943
0.757477 0.486901 0.128481
0.902688 0.485132 0.126712
0.972710 0.484280 0.125860
0.972710 0.484280 0.125860
0.000000 0.675135 0.130430
0.000000 0.675135 0.130430
0.031998 0.674390 0.129685
0.234818 0.671919 0.127214
0.547800 0.668107 0.123402
0.749936 0.665645 0.120940
0.895146 0.663876 0.119171
0.965168 0.663023 0.118318
0.965168 0.663023 0.118318
0.000000 0.803816 0.125001
0.000000 0.803816 0.125001
0.026569 0.803071 0.124256
0.229389 0.800601 0.121785
0.542371 0.796788 0.117973
0.744507 0.794326 0.115511
0.889717 0.792558 0.113742
0.959739 0.791705 0.112889
0.959739 0.791705 0.112889
0.000000 0.904182 0.120766
0.000000 0.904182 0.120766
0.022334 0.903437 0.120021
0.225155 0.900966 0.117551
0.538136 0.897154 0.113738
0.740272 0.894692 0.111276
0.885483 0.892923 0.109507
0.955505 0.892070 0.108654
0.955505 0.892070 0.108654
0.000000 0.965048 0.118198
0.000000 0.965048 0.118198
0.019766 0.964303 0.117453
0.222587 0.961833 0.114983
0.535568 0.958020 0.111170
0.737704 0.955558 0.108708
0.882915 0.953789 0.106939
0.952937 0.952937 0.106086
0.952937 0.952937 0.106086
0.000000 0.000000 0.397784
0.000000 0.000000 0.397784
0.059530 0.000000 0.397039
0.262350 0.000000 0.394568
0.575332 0.000000 0.390756
0.777468 0.000000 0.388294
0.922678 0.000000 0.386525
0.992700 0.000000 0.385672
0.992700 0.000000 0.385672
0.000000 0.000000 0.397784
0.000000 0.000000 0.397784
0.059530 0.000000 0.397039
0.262350 0.000000 0.394568
0.575332 0.000000 0.390756
0.777468 0.000000 0.388294
0.922678 0.000000 0.386525
0.992700 0.000000 0.385672
0.992700 0.000000 0.385672
0.000000 0.042685 0.395914
0.000000 0.042685 0.395914
0.057660 0.041940 0.395169
0.260481 0.039469 0.392698
0.573462 0.035657 0.388886
0.775598 0.033195 0.386424
0.920809 0.031426 0.384655
0.990831 0.030573 0.383802
0.990831 0.030573 0.383802
0.000000 0.219881 0.388438
0.000000 0.219881 0.388438
0.050184 0.219136 0.387693
0.253004 0.216666 0.385222
0.565986 0.212854 0.381410
0.768122 0.210391 0.378948
0.913332 0.208623 0.377179
0.983354 0.207770 0.376326
0.983354 0.207770 0.376326
0.000000 0.495411 0.376813
0.000000 0.495411 0.376813
0.038559 0.494666 0.376068
0.241380 0.492195 0.373597
0.554361 0.488383 0.369785
0.756497 0.485921 0.367323
0.901708 0.484152 0.365554
0.971730 0.483299 0.364701
0.971730 0.483299 0.364701
0.000000 0.674155 0.369271
0.000000 0.674155 0.369271
0.031018 0.673410 0.368526
0.233838 0.670939 0.366056
0.546820 0.667127 0.362244
0.748956 0.664665 0.359782
0.894166 0.662896 0.358013
0.964188 0.662043 0.357160
0.964188 0.662043 0.357160
0.000000 0.802836 0.363842
0.000000 0.802836 0.363842
0.025588 0.802091 0.363097
0.228409 0.799621 0.360627
0.541391 0.795808 0.356815
0.743527 0.793346 0.354352
0.888737 0.791577 0.352584
0.958759 0.790725 0.351731
0.958759 0.790725 0.351731
0.000000 0.903202 0.359608
0.000000 0.903202 0.359608
0.021354 0.902457 0.358863
0.224174 0.899986 0.356392
0.537156 0.896174 0.352580
0.739292 0.893712 0.350118
0.884502 0.891943 0.348349
0.954524 0.891090 0.347496
0.954524 0.891090 0.347496
0.000000 0.964068 0.357040
0.000000 0.964068 0.357040
0.018786 0.963323 0.356295
0.221606 0.960852 0.353824
0.534588 0.957040 0.350012
0.736724 0.954578 0.347550
0.881934 0.952809 0.345781
0.951956 0.951956 0.344928
0.951956 0.951956 0.344928
0.000000 0.000000 0.557691
0.000000 0.000000 0.557691
0.058874 0.000000 0.556946
0.261694 0.000000 0.554476
0.574676 0.000000 0.550663
0.776812 0.000000 0.548201
0.922022 0.000000 0.546432
0.992044 0.000000 0.545579
0.992044 0.000000 0.545579
0.000000 0.000000 0.557691
0.000000 0.000000 0.557691
0.058874 0.000000 0.556946
0.261694 0.000000 0.554476
0.574676 0.000000 0.550663
0.776812 0.000000 0.548201
0.922022 0.000000 0.546432
0.992044 0.000000 0.545579
0.992044 0.000000 0.545579
0.000000 0.042029 0.555821
0.000000 0.042029 0.555821
0.057004 0.041284 0.555076
0.259824 0.038813 0.552606
0.572806 0.035001 0.548793
0.774942 0.032539 0.546331
0.920152 0.030770 0.544563
0.990174 0.029917 0.543710
0.990174 0.029917 0.543710
0.000000 0.219225 0.548345
0.000000 0.219225 0.548345
0.049528 0.218480 0.547600
0.252348 0.216010 0.545130
0.565330 0.212197 0.541317
0.767466 0.209735 0.538855
0.912676 0.207966 0.537086
0.982698 0.207114 0.536234
0.982698 0.207114 0.536234
0.000000 0.494755 0.536720
0.000000 0.494755 0.536720
0.037903 0.494010 0.535975
0.240723 0.491539 0.533505
0.553705 0.487727 0.529692
0.755841 0.485265 0.527230
0.901051 0.483496 0.525462
0.971073 0.482643 0.524609
0.971073 0.482643 0.524609
0.000000 0.673499 0.529179
0.000000 0.673499 0.529179
0.030361 0.672754 0.528434
0.233182 0.670283 0.525963
0.546164 0.666471 0.522151
0.748300 0.664009 0.519689
0.893510 0.662240 0.517920
0.963532 0.661387 0.517067
0.963532 0.661387 0.517067
0.000000 0.802180 0.523750
0.000000 0.802180 0.523750
0.024932 0.801435 0.523005
0.227753 0.798964 0.520534
0.540734 0.795152 0.516722
0.742870 0.792690 0.514260
0.888081 0.790921 0.512491
0.958103 0.790068 0.511638
0.958103 0.790068 0.511638
0.000000 0.902546 0.519515
0.000000 0.902546 0.519515
0.020698 0.901801 0.518770
0.223518 0.899330 0.516300
0.536500 0.895518 0.512487
0.738636 0.893056 0.510025
0.883846 0.891287 0.508256
0.953868 0.890434 0.507404
0.953868 0.890434 0.507404
0.000000 0.963412 0.516947
0.000000 0.963412 0.516947
0.018130 0.962667 0.516202
0.220950 0.960196 0.513732
0.533932 0.956384 0.509919
0.736068 0.953922 0.507457
0.881278 0.952153 0.505688
0.951300 0.951300 0.504836
0.951300 0.951300 0.504836
0.000000 0.000000 0.674512
0.000000 0.000000 0.674512
0.058394 0.000000 0.673767
0.261215 0.000000 0.671296
0.574196 0.000000 0.667484
0.776332 0.000000 0.665022
0.921543 0.000000 0.663253
0.991565 0.000000 0.662400
0.991565 0.000000 0.662400
0.000000 0.000000 0.674512
0.000000 0.000000 0.674512
0.058394 0.000000 0.673767
0.261215 0.000000 0.671296
0.574196 0.000000 0.667484
0.776332 0.000000 0.665022
0.921543 0.000000 0.663253
0.991565 0.000000 0.662400
0.991565 0.000000 0.662400
0.000000 0.041549 0.672642
0.000000 0.041549 0.672642
0.056524 0.040804 0.671897
0.259345 0.038334 0.669426
0.572327 0.034522 0.665614
0.774463 0.032059 0.663152
0.919673 0.030291 0.661383
0.989695 0.029438 0.660530
0.989695 0.029438 0.660530
0.000000 0.218746 0.665166
0.000000 0.218746 0.665166
0.049048 0.218001 0.664421
0.251869 0.215530 0.661950
0.564850 0.211718 0.658138
0.766987 0.209256 0.655676
0.912197 0.207487 0.653907
0.982219 0.206634 0.653054
0.982219 0.206634 0.653054
0.000000 0.494275 0.653541
0.000000 0.494275 0.653541
0.037423 0.493530 0.652796
0.240244 0.491060 0.650325
0.553226 0.487248 0.646513
0.755362 0.484786 0.644051
0.900572 0.483017 0.642282
0.970594 0.482164 0.641429
0.970594 0.482164 0.641429
0.000000 0.673019 0.646000
0.000000 0.673019 0.646000
0.029882 0.672274 0.645255
0.232703 0.669804 0.642784
0.545684 0.665991 0.638972
0.747820 0.663529 0.636510
0.893031 0.661761 0.634741
0.963053 0.660908 0.633888
0.963053 0.660908 0.633888
0.000000 0.801700 0.640570
0.000000 0.801700 0.640570
0.024453 0.800955 0.639825
0.227273 0.798485 0.637355
0.540255 0.794673 0.633543
0.742391 0.792211 0.631080
0.887601 0.790442 0.629312
0.957623 0.789589 0.628459
0.957623 0.789589 0.628459
0.000000 0.902066 0.636336
0.000000 0.902066 0.636336
0.020218 0.901321 0.635591
0.223039 0.898851 0.633120
0.536020 0.895038 0.629308
0.738157 0.892576 0.626846
0.883367 0.890808 0.625077
0.953389 0.889955 0.624224
0.953389 0.889955 0.624224
0.000000 0.962932 0.633768
0.000000 0.962932 0.633768
0.017650 0.962187 0.633023
0.220471 0.959717 0.630552
0.533452 0.955905 0.626740
0.735589 0.953443 0.624278
0.880799 0.951674 0.622509
0.950821 0.950821 0.621656
0.950821 0.950821 0.621656
0.000000 0.000000 0.766453
0.000000 0.000000 0.766453
0.058017 0.000000 0.765708
0.260837 0.000000 0.763238
0.573819 0.000000 0.759425
0.775955 0.000000 0.756963
0.921165 0.000000 0.755195
0.991187 0.000000 0.754342
0.991187 0.000000 0.754342
0.000000 0.000000 0.766453
0.000000 0.000000 0.766453
0.058017 0.000000 0.765708
0.260837 0.000000 0.763238
0.573819 0.000000 0.759425
0.775955 0.000000 0.756963
0.921165 0.000000 0.755195
0.991187 0.000000 0.754342
0.991187 0.000000 0.754342
0.000000 0.041172 0.764583
0.000000 0.041172 0.764583
0.056147 0.040427 0.763838
0.258968 0.037957 0.761368
0.571949 0.034144 0.757556
0.774085 0.031682 0.755094
0.919296 0.029913 0.753325
0.989318 0.029060 0.752472
0.989318 0.029060 0.752472
0.000000 0.218368 0.757107
0.000000 0.218368 0.757107
0.048671 0.217623 0.756362
0.251492 0.215153 0.753892
0.564473 0.211341 0.750080
0.766609 0.208879 0.747617
0.911820 0.207110 0.745849
0.981842 0.206257 0.744996
0.981842 0.206257 0.744996
0.000000 0.493898 0.745482
0.000000 0.493898 0.745482
0.037046 0.493153 0.744737
0.239867 0.490683 0.742267
0.552848 0.486870 0.738455
0.754984 0.484408 0.735993
0.900195 0.482639 0.734224
0.970217 0.481787 0.733371
0.970217 0.481787 0.733371
0.000000 0.672642 0.737941
0.000000 0.672642 0.737941
0.029505 0.671897 0.737196
0.232325 0.669426 0.734726
0.545307 0.665614 0.730913
0.747443 0.663152 0.728451
0.892653 0.661383 0.726682
0.962675 0.660530 0.725830
0.962675 0.660530 0.725830
0.000000 0.801323 0.732512
0.000000 0.801323 0.732512
0.024076 0.800578 0.731767
0.226896 0.798108 0.729296
0.539878 0.794295 0.725484
0.742014 0.791833 0.723022
0.887224 0.790065 0.721253
0.957246 0.789212 0.720400
0.957246 0.789212 0.720400
0.000000 0.901689 0.728277
0.000000 0.901689 0.728277
0.019841 0.900944 0.727532
0.222662 0.898473 0.725062
0.535643 0.894661 0.721250
0.737779 0.892199 0.718787
0.882990 0.890430 0.717019
0.953012 0.889577 0.716166
0.953012 0.889577 0.716166
0.000000 0.962555 0.725709
0.000000 0.962555 0.725709
0.017273 0.961810 0.724964
0.220094 0.959340 0.722494
0.533075 0.955527 0.718682
0.735211 0.953065 0.716219
0.880422 0.951296 0.714451
0.950444 0.950444 0.713598
0.950444 0.950444 0.713598
0.000000 0.000000 0.824263
0.000000 0.000000 0.824263
0.057780 0.000000 0.823518
0.260600 0.000000 0.821047
0.573582 0.000000 0.817235
0.775718 0.000000 0.814773
0.920928 0.000000 0.813004
0.990950 0.000000 0.812151
0.990950 0.000000 0.812151
0.000000 0.000000 0.824263
0.000000 0.000000 0.824263
0.057780 0.000000 0.823518
0.260600 0.000000 0.821047
0.573582 0.000000 0.817235
0.775718 0.000000 0.814773
0.920928 0.000000 0.813004
0.990950 0.000000 0.812151
0.990950 0.000000 0.812151
0.000000 0.040935 0.822393
0.000000 0.040935 0.822393
0.055910 0.040190 0.821648
0.258730 0.037719 0.819178
0.571712 0.033907 0.815365
0.773848 0.031445 0.812903
0.919058 0.029676 0.811134
0.989080 0.028823 0.810282
0.989080 0.028823 0.810282
0.000000 0.218131 0.814917
0.000000 0.218131 0.814917
0.048434 0.217386 0.814172
0.251254 0.214916 0.811702
0.564236 0.211103 0.807889
0.766372 0.208641 0.805427
0.911582 0.206873 0.803658
0.981604 0.206020 0.802805
0.981604 0.206020 0.802805
0.000000 0.493661 0.803292
0.000000 0.493661 0.803292
0.036809 0.492916 0.802547
0.239629 0.490445 0.800077
0.552611 0.486633 0.796264
0.754747 0.484171 0.793802
0.899957 0.482402 0.792034
0.969979 0.481549 0.791181
0.969979 0.481549 0.791181
0.000000 0.672405 0.795751
0.000000 0.672405 0.795751
0.029268 0.671660 0.795006
0.232088 0.669189 0.792535
0.545070 0.665377 0.788723
0.747206 0.662915 0.786261
0.892416 0.661146 0.784492
0.962438 0.660293 0.783639
0.962438 0.660293 0.783639
0.000000 0.801086 0.790322
0.000000 0.801086 0.790322
0.023838 0.800341 0.789577
0.226659 0.797871 0.787106
0.539641 0.794058 0.783294
0.741777 0.791596 0.780832
0.886987 0.789827 0.779063
0.957009 0.788974 0.778210
0.957009 0.788974 0.778210
0.000000 0.901452 0.786087
0.000000 0.901452 0.786087
0.019604 0.900707 0.785342
0.222424 0.898236 0.782872
0.535406 0.894424 0.779059
0.737542 0.891962 0.776597
0.882752 0.890193 0.774828
0.952774 0.889340 0.773975
0.952774 0.889340 0.773975
0.000000 0.962318 0.783519
0.000000 0.962318 0.783519
0.017036 0.961573 0.782774
0.219856 0.959102 0.780304
0.532838 0.955290 0.776491
0.734974 0.952828 0.774029
0.880184 0.951059 0.772260
0.950206 0.950206 0.771407
0.950206 0.950206 0.771407
