public/luts/dji/lk-dji-teal-orange.cube
TITLE "LK DJI Teal & Orange"
LUT_3D_SIZE 17
DOMAIN_MIN 0.0 0.0 0.0
DOMAIN_MAX 1.0 1.0 1.0
0.000000 0.000000 0.013095
0.000000 0.000000 0.013095
0.000000 0.000000 0.013095
0.011172 0.000000 0.012894
0.051858 0.000000 0.012167
0.126790 0.000000 0.010828
0.243099 0.000000 0.008750
0.407924 0.000000 0.005805
0.556281 0.000000 0.003154
0.669058 0.000000 0.001139
0.764719 0.000000 0.000000
0.846223 0.000000 0.000000
0.916568 0.000000 0.000000
0.978772 0.000000 0.000000
1.000000 0.000000 0.000000
1.000000 0.000000 0.000000
1.000000 0.000000 0.000000
0.000000 0.000000 0.013095
0.000000 0.000000 0.013095
0.000000 0.000000 0.013095
0.011172 0.000000 0.012894
0.051858 0.000000 0.012167
0.126790 0.000000 0.010828
0.243099 0.000000 0.008750
0.407924 0.000000 0.005805
0.556281 0.000000 0.003154
0.669058 0.000000 0.001139
0.764719 0.000000 0.000000
0.846223 0.000000 0.000000
0.916568 0.000000 0.000000
0.978772 0.000000 0.000000
1.000000 0.000000 0.000000
1.000000 0.000000 0.000000
1.000000 0.000000 0.000000
0.000000 0.000000 0.013095
0.000000 0.000000 0.013095
0.000000 0.000000 0.013095
0.011172 0.000000 0.012894
0.051858 0.000000 0.012167
0.126790 0.000000 0.010828
0.243099 0.000000 0.008750
0.407924 0.000000 0.005805
0.556281 0.000000 0.003154
0.669058 0.000000 0.001139
0.764719 0.000000 0.000000
0.846223 0.000000 0.000000
0.916568 0.000000 0.000000
0.978772 0.000000 0.000000
1.000000 0.000000 0.000000
1.000000 0.000000 0.000000
1.000000 0.000000 0.000000
0.000000 0.004706 0.012795
0.000000 0.004706 0.012795
0.000000 0.004706 0.012795
0.010872 0.004505 0.012594
0.051558 0.003778 0.011867
0.126490 0.002439 0.010528
0.242799 0.000361 0.008450
0.407624 0.000000 0.005505
0.555980 0.000000 0.002854
0.668758 0.000000 0.000839
0.764419 0.000000 0.000000
0.845923 0.000000 0.000000
0.916267 0.000000 0.000000
0.978471 0.000000 0.000000
1.000000 0.000000 0.000000
1.000000 0.000000 0.000000
1.000000 0.000000 0.000000
0.000000 0.040277 0.010562
0.000000 0.040277 0.010562
0.000000 0.040277 0.010562
0.008639 0.040076 0.010361
0.049326 0.039349 0.009634
0.124257 0.038010 0.008295
0.240566 0.035932 0.006217
0.405391 0.032987 0.003272
0.553748 0.030336 0.000621
0.666526 0.028321 0.000000
0.762187 0.026612 0.000000
0.843691 0.025155 0.000000
0.914035 0.023899 0.000000
0.976239 0.022787 0.000000
1.000000 0.021767 0.000000
1.000000 0.021660 0.000000
1.000000 0.021660 0.000000
0.000000 0.105853 0.006447
0.000000 0.105853 0.006447
0.000000 0.105853 0.006447
0.004524 0.105652 0.006246
0.045210 0.104925 0.005519
0.120142 0.103586 0.004180
0.236451 0.101508 0.002102
0.401276 0.098563 0.000000
0.549633 0.095912 0.000000
0.662410 0.093897 0.000000
0.758071 0.092188 0.000000
0.839575 0.090731 0.000000
0.909919 0.089475 0.000000
0.972123 0.088363 0.000000
1.000000 0.087343 0.000000
1.000000 0.087236 0.000000
1.000000 0.087236 0.000000
0.000000 0.207671 0.000057
0.000000 0.207671 0.000057
0.000000 0.207671 0.000057
0.000000 0.207470 0.000000
0.038820 0.206743 0.000000
0.113752 0.205404 0.000000
0.230061 0.203326 0.000000
0.394886 0.200381 0.000000
0.543242 0.197730 0.000000
0.656020 0.195715 0.000000
0.751681 0.194006 0.000000
0.833185 0.192549 0.000000
0.903529 0.191293 0.000000
0.965733 0.190181 0.000000
1.000000 0.189161 0.000000
1.000000 0.189054 0.000000
1.000000 0.189054 0.000000
0.000000 0.351977 0.000000
0.000000 0.351977 0.000000
0.000000 0.351977 0.000000
0.000000 0.351776 0.000000
0.029764 0.351049 0.000000
0.104695 0.349711 0.000000
0.221004 0.347632 0.000000
0.385829 0.344687 0.000000
0.534186 0.342037 0.000000
0.646964 0.340021 0.000000
0.742624 0.338312 0.000000
0.824129 0.336856 0.000000
0.894473 0.335599 0.000000
0.956677 0.334488 0.000000
1.000000 0.333467 0.000000
1.000000 0.333360 0.000000
1.000000 0.333360 0.000000
0.000000 0.481873 0.000000
0.000000 0.481873 0.000000
0.000000 0.481873 0.000000
0.000000 0.481672 0.000000
0.021611 0.480945 0.000000
0.096543 0.479606 0.000000
0.212852 0.477528 0.000000
0.377677 0.474582 0.000000
0.526034 0.471932 0.000000
0.638811 0.469917 0.000000
0.734472 0.468207 0.000000
0.815976 0.466751 0.000000
0.886321 0.465494 0.000000
0.948525 0.464383 0.000000
1.000000 0.463362 0.000000
1.000000 0.463255 0.000000
1.000000 0.463255 0.000000
0.000000 0.580618 0.000000
0.000000 0.580618 0.000000
0.000000 0.580618 0.000000
0.000000 0.580417 0.000000
0.015414 0.579690 0.000000
0.090346 0.578352 0.000000
0.206655 0.576273 0.000000
0.371480 0.573328 0.000000
0.519837 0.570677 0.000000
0.632614 0.568662 0.000000
0.728275 0.566953 0.000000
0.809779 0.565497 0.000000
0.880123 0.564240 0.000000
0.942328 0.563129 0.000000
0.999425 0.562108 0.000000
1.000000 0.562001 0.000000
1.000000 0.562001 0.000000
0.000000 0.664378 0.000000
0.000000 0.664378 0.000000
0.000000 0.664378 0.000000
0.000000 0.664177 0.000000
0.010157 0.663450 0.000000
0.085089 0.662111 0.000000
0.201398 0.660033 0.000000
0.366223 0.657088 0.000000
0.514580 0.654437 0.000000
0.627357 0.652422 0.000000
0.723018 0.650713 0.000000
0.804522 0.649257 0.000000
0.874867 0.648000 0.000000
0.937071 0.646888 0.000000
0.994169 0.645868 0.000000
1.000000 0.645761 0.000000
1.000000 0.645761 0.000000
0.000000 0.735743 0.000000
0.000000 0.735743 0.000000
0.000000 0.735743 0.000000
0.000000 0.735542 0.000000
0.005679 0.734815 0.000000
0.080610 0.733476 0.000000
0.196919 0.731398 0.000000
0.361744 0.728453 0.000000
0.510101 0.725802 0.000000
0.622879 0.723787 0.000000
0.718540 0.722078 0.000000
0.800044 0.720622 0.000000
0.870388 0.719365 0.000000
0.932592 0.718253 0.000000
0.989690 0.717233 0.000000
0.995694 0.717126 0.000000
0.995694 0.717126 0.000000
0.000000 0.797337 0.000000
0.000000 0.797337 0.000000
0.000000 0.797337 0.000000
0.000000 0.797136 0.000000
0.001813 0.796409 0.000000
0.076745 0.795070 0.000000
0.193054 0.792992 0.000000
0.357879 0.790047 0.000000
0.506235 0.787396 0.000000
0.619013 0.785381 0.000000
0.714674 0.783671 0.000000
0.796178 0.782215 0.000000
0.866522 0.780958 0.000000
0.928726 0.779847 0.000000
0.985824 0.778827 0.000000
0.991829 0.778719 0.000000
0.991829 0.778719 0.000000
0.000000 0.851803 0.000000
0.000000 0.851803 0.000000
0.000000 0.851803 0.000000
0.000000 0.851602 0.000000
0.000000 0.850875 0.000000
0.073326 0.849536 0.000000
0.189636 0.847458 0.000000
0.354461 0.844513 0.000000
0.502817 0.841862 0.000000
0.615595 0.839847 0.000000
0.711256 0.838138 0.000000
0.792760 0.836681 0.000000
0.863104 0.835425 0.000000
0.925308 0.834313 0.000000
0.982406 0.833293 0.000000
0.988411 0.833186 0.000000
0.988411 0.833186 0.000000
0.000000 0.901798 0.000000
0.000000 0.901798 0.000000
0.000000 0.901798 0.000000
0.000000 0.901597 0.000000
0.000000 0.900870 0.000000
0.070189 0.899531 0.000000
0.186498 0.897453 0.000000
0.351323 0.894508 0.000000
0.499679 0.891857 0.000000
0.612457 0.889842 0.000000
0.708118 0.888133 0.000000
0.789622 0.886677 0.000000
0.859966 0.885420 0.000000
0.922170 0.884308 0.000000
0.979268 0.883288 0.000000
0.985273 0.883181 0.000000
0.985273 0.883181 0.000000
0.000000 0.949988 0.000000
0.000000 0.949988 0.000000
0.000000 0.949988 0.000000
0.000000 0.949787 0.000000
0.000000 0.949060 0.000000
0.067164 0.947721 0.000000
0.183474 0.945643 0.000000
0.348299 0.942697 0.000000
0.496655 0.940047 0.000000
0.609433 0.938032 0.000000
0.705094 0.936322 0.000000
0.786598 0.934866 0.000000
0.856942 0.933609 0.000000
0.919146 0.932498 0.000000
0.976244 0.931477 0.000000
0.982249 0.931370 0.000000
0.982249 0.931370 0.000000
0.000000 0.967408 0.000000
0.000000 0.967408 0.000000
0.000000 0.967408 0.000000
0.000000 0.967207 0.000000
0.000000 0.966480 0.000000
0.066071 0.965141 0.000000
0.182380 0.963063 0.000000
0.347205 0.960118 0.000000
0.495562 0.957467 0.000000
0.608339 0.955452 0.000000
0.704000 0.953743 0.000000
0.785505 0.952286 0.000000
0.855849 0.951029 0.000000
0.918053 0.949918 0.000000
0.975151 0.948898 0.000000
0.981155 0.948791 0.000000
0.981155 0.948791 0.000000
0.000000 0.000000 0.013095
0.000000 0.000000 0.013095
0.000000 0.000000 0.013095
0.011172 0.000000 0.012894
0.051858 0.000000 0.012167
0.126790 0.000000 0.010828
0.243099 0.000000 0.008750
0.407924 0.000000 0.005805
0.556281 0.000000 0.003154
0.669058 0.000000 0.001139
0.764719 0.000000 0.000000
0.846223 0.000000 0.000000
0.916568 0.000000 0.000000
0.978772 0.000000 0.000000
1.000000 0.000000 0.000000
1.000000 0.000000 0.000000
1.000000 0.000000 0.000000
0.000000 0.000000 0.013095
0.000000 0.000000 0.013095
0.000000 0.000000 0.013095
0.011172 0.000000 0.012894
0.051858 0.000000 0.012167
0.126790 0.000000 0.010828
0.243099 0.000000 0.008750
0.407924 0.000000 0.005805
0.556281 0.000000 0.003154
0.669058 0.000000 0.001139
0.764719 0.000000 0.000000
0.846223 0.000000 0.000000
0.916568 0.000000 0.000000
0.978772 0.000000 0.000000
1.000000 0.000000 0.000000
1.000000 0.000000 0.000000
1.000000 0.000000 0.000000
0.000000 0.000000 0.013095
0.000000 0.000000 0.013095
0.000000 0.000000 0.013095
0.011172 0.000000 0.012894
0.051858 0.000000 0.012167
0.126790 0.000000 0.010828
0.243099 0.000000 0.008750
0.407924 0.000000 0.005805
0.556281 0.000000 0.003154
0.669058 0.000000 0.001139
0.764719 0.000000 0.000000
0.846223 0.000000 0.000000
0.916568 0.000000 0.000000
0.978772 0.000000 0.000000
1.000000 0.000000 0.000000
1.000000 0.000000 0.000000
1.000000 0.000000 0.000000
0.000000 0.004706 0.012795
0.000000 0.004706 0.012795
0.000000 0.004706 0.012795
0.010872 0.004505 0.012594
0.051558 0.003778 0.011867
0.126490 0.002439 0.010528
0.242799 0.000361 0.008450
0.407624 0.000000 0.005505
0.555980 0.000000 0.002854
0.668758 0.000000 0.000839
0.764419 0.000000 0.000000
0.845923 0.000000 0.000000
0.916267 0.000000 0.000000
0.978471 0.000000 0.000000
1.000000 0.000000 0.000000
1.000000 0.000000 0.000000
1.000000 0.000000 0.000000
0.000000 0.040277 0.010562
0.000000 0.040277 0.010562
0.000000 0.040277 0.010562
0.008639 0.040076 0.010361
0.049326 0.039349 0.009634
0.124257 0.038010 0.008295
0.240566 0.035932 0.006217
0.405391 0.032987 0.003272
0.553748 0.030336 0.000621
0.666526 0.028321 0.000000
0.762187 0.026612 0.000000
0.843691 0.025155 0.000000
0.914035 0.023899 0.000000
0.976239 0.022787 0.000000
1.000000 0.021767 0.000000
1.000000 0.021660 0.000000
1.000000 0.021660 0.000000
0.000000 0.105853 0.006447
0.000000 0.105853 0.006447
0.000000 0.105853 0.006447
0.004524 0.105652 0.006246
0.045210 0.104925 0.005519
0.120142 0.103586 0.004180
0.236451 0.101508 0.002102
0.401276 0.098563 0.000000
0.549633 0.095912 0.000000
0.662410 0.093897 0.000000
0.758071 0.092188 0.000000
0.839575 0.090731 0.000000
0.909919 0.089475 0.000000
0.972123 0.088363 0.000000
1.000000 0.087343 0.000000
1.000000 0.087236 0.000000
1.000000 0.087236 0.000000
0.000000 0.207671 0.000057
0.000000 0.207671 0.000057
0.000000 0.207671 0.000057
0.000000 0.207470 0.000000
0.038820 0.206743 0.000000
0.113752 0.205404 0.000000
0.230061 0.203326 0.000000
0.394886 0.200381 0.000000
0.543242 0.197730 0.000000
0.656020 0.195715 0.000000
0.751681 0.194006 0.000000
0.833185 0.192549 0.000000
0.903529 0.191293 0.000000
0.965733 0.190181 0.000000
1.000000 0.189161 0.000000
1.000000 0.189054 0.000000
1.000000 0.189054 0.000000
0.000000 0.351977 0.000000
0.000000 0.351977 0.000000
0.000000 0.351977 0.000000
0.000000 0.351776 0.000000
0.029764 0.351049 0.000000
0.104695 0.349711 0.000000
0.221004 0.347632 0.000000
0.385829 0.344687 0.000000
0.534186 0.342037 0.000000
0.646964 0.340021 0.000000
0.742624 0.338312 0.000000
0.824129 0.336856 0.000000
0.894473 0.335599 0.000000
0.956677 0.334488 0.000000
1.000000 0.333467 0.000000
1.000000 0.333360 0.000000
1.000000 0.333360 0.000000
0.000000 0.481873 0.000000
0.000000 0.481873 0.000000
0.000000 0.481873 0.000000
0.000000 0.481672 0.000000
0.021611 0.480945 0.000000
0.096543 0.479606 0.000000
0.212852 0.477528 0.000000
0.377677 0.474582 0.000000
0.526034 0.471932 0.000000
0.638811 0.469917 0.000000
0.734472 0.468207 0.000000
0.815976 0.466751 0.000000
0.886321 0.465494 0.000000
0.948525 0.464383 0.000000
1.000000 0.463362 0.000000
1.000000 0.463255 0.000000
1.000000 0.463255 0.000000
0.000000 0.580618 0.000000
0.000000 0.580618 0.000000
0.000000 0.580618 0.000000
0.000000 0.580417 0.000000
0.015414 0.579690 0.000000
0.090346 0.578352 0.000000
0.206655 0.576273 0.000000
0.371480 0.573328 0.000000
0.519837 0.570677 0.000000
0.632614 0.568662 0.000000
0.728275 0.566953 0.000000
0.809779 0.565497 0.000000
0.880123 0.564240 0.000000
0.942328 0.563129 0.000000
0.999425 0.562108 0.000000
1.000000 0.562001 0.000000
1.000000 0.562001 0.000000
0.000000 0.664378 0.000000
0.000000 0.664378 0.000000
0.000000 0.664378 0.000000
0.000000 0.664177 0.000000
0.010157 0.663450 0.000000
0.085089 0.662111 0.000000
0.201398 0.660033 0.000000
0.366223 0.657088 0.000000
0.514580 0.654437 0.000000
0.627357 0.652422 0.000000
0.723018 0.650713 0.000000
0.804522 0.649257 0.000000
0.874867 0.648000 0.000000
0.937071 0.646888 0.000000
0.994169 0.645868 0.000000
1.000000 0.645761 0.000000
1.000000 0.645761 0.000000
0.000000 0.735743 0.000000
0.000000 0.735743 0.000000
0.000000 0.735743 0.000000
0.000000 0.735542 0.000000
0.005679 0.734815 0.000000
0.080610 0.733476 0.000000
0.196919 0.731398 0.000000
0.361744 0.728453 0.000000
0.510101 0.725802 0.000000
0.622879 0.723787 0.000000
0.718540 0.722078 0.000000
0.800044 0.720622 0.000000
0.870388 0.719365 0.000000
0.932592 0.718253 0.000000
0.989690 0.717233 0.000000
0.995694 0.717126 0.000000
0.995694 0.717126 0.000000
0.000000 0.797337 0.000000
0.000000 0.797337 0.000000
0.000000 0.797337 0.000000
0.000000 0.797136 0.000000
0.001813 0.796409 0.000000
0.076745 0.795070 0.000000
0.193054 0.792992 0.000000
0.357879 0.790047 0.000000
0.506235 0.787396 0.000000
0.619013 0.785381 0.000000
0.714674 0.783671 0.000000
0.796178 0.782215 0.000000
0.866522 0.780958 0.000000
0.928726 0.779847 0.000000
0.985824 0.778827 0.000000
0.991829 0.778719 0.000000
0.991829 0.778719 0.000000
0.000000 0.851803 0.000000
0.000000 0.851803 0.000000
0.000000 0.851803 0.000000
0.000000 0.851602 0.000000
0.000000 0.850875 0.000000
0.073326 0.849536 0.000000
0.189636 0.847458 0.000000
0.354461 0.844513 0.000000
0.502817 0.841862 0.000000
0.615595 0.839847 0.000000
0.711256 0.838138 0.000000
0.792760 0.836681 0.000000
0.863104 0.835425 0.000000
0.925308 0.834313 0.000000
0.982406 0.833293 0.000000
0.988411 0.833186 0.000000
0.988411 0.833186 0.000000
0.000000 0.901798 0.000000
0.000000 0.901798 0.000000
0.000000 0.901798 0.000000
0.000000 0.901597 0.000000
0.000000 0.900870 0.000000
0.070189 0.899531 0.000000
0.186498 0.897453 0.000000
0.351323 0.894508 0.000000
0.499679 0.891857 0.000000
0.612457 0.889842 0.000000
0.708118 0.888133 0.000000
0.789622 0.886677 0.000000
0.859966 0.885420 0.000000
0.922170 0.884308 0.000000
0.979268 0.883288 0.000000
0.985273 0.883181 0.000000
0.985273 0.883181 0.000000
0.000000 0.949988 0.000000
0.000000 0.949988 0.000000
0.000000 0.949988 0.000000
0.000000 0.949787 0.000000
0.000000 0.949060 0.000000
0.067164 0.947721 0.000000
0.183474 0.945643 0.000000
0.348299 0.942697 0.000000
0.496655 0.940047 0.000000
0.609433 0.938032 0.000000
0.705094 0.936322 0.000000
0.786598 0.934866 0.000000
0.856942 0.933609 0.000000
0.919146 0.932498 0.000000
0.976244 0.931477 0.000000
0.982249 0.931370 0.000000
0.982249 0.931370 0.000000
0.000000 0.967408 0.000000
0.000000 0.967408 0.000000
0.000000 0.967408 0.000000
0.000000 0.967207 0.000000
0.000000 0.966480 0.000000
0.066071 0.965141 0.000000
0.182380 0.963063 0.000000
0.347205 0.960118 0.000000
0.495562 0.957467 0.000000
0.608339 0.955452 0.000000
0.704000 0.953743 0.000000
0.785505 0.952286 0.000000
0.855849 0.951029 0.000000
0.918053 0.949918 0.000000
0.975151 0.948898 0.000000
0.981155 0.948791 0.000000
0.981155 0.948791 0.000000
0.000000 0.000000 0.013257
0.000000 0.000000 0.013257
0.000000 0.000000 0.013257
0.011171 0.000000 0.013056
0.051857 0.000000 0.012329
0.126789 0.000000 0.010990
0.243098 0.000000 0.008912
0.407923 0.000000 0.005967
0.556280 0.000000 0.003316
0.669057 0.000000 0.001301
0.764718 0.000000 0.000000
0.846222 0.000000 0.000000
0.916567 0.000000 0.000000
0.978771 0.000000 0.000000
1.000000 0.000000 0.000000
1.000000 0.000000 0.000000
1.000000 0.000000 0.000000
0.000000 0.000000 0.013257
0.000000 0.000000 0.013257
0.000000 0.000000 0.013257
0.011171 0.000000 0.013056
0.051857 0.000000 0.012329
0.126789 0.000000 0.010990
0.243098 0.000000 0.008912
0.407923 0.000000 0.005967
0.556280 0.000000 0.003316
0.669057 0.000000 0.001301
0.764718 0.000000 0.000000
0.846222 0.000000 0.000000
0.916567 0.000000 0.000000
0.978771 0.000000 0.000000
1.000000 0.000000 0.000000
1.000000 0.000000 0.000000
1.000000 0.000000 0.000000
0.000000 0.000000 0.013257
0.000000 0.000000 0.013257
0.000000 0.000000 0.013257
0.011171 0.000000 0.013056
0.051857 0.000000 0.012329
0.126789 0.000000 0.010990
0.243098 0.000000 0.008912
0.407923 0.000000 0.005967
0.556280 0.000000 0.003316
0.669057 0.000000 0.001301
0.764718 0.000000 0.000000
0.846222 0.000000 0.000000
0.916567 0.000000 0.000000
0.978771 0.000000 0.000000
1.000000 0.000000 0.000000
1.000000 0.000000 0.000000
1.000000 0.000000 0.000000
0.000000 0.004705 0.012957
0.000000 0.004705 0.012957
0.000000 0.004705 0.012957
0.010871 0.004504 0.012756
0.051557 0.003777 0.012029
0.126489 0.002438 0.010690
0.242798 0.000360 0.008612
0.407623 0.000000 0.005667
0.555979 0.000000 0.003016
0.668757 0.000000 0.001001
0.764418 0.000000 0.000000
0.845922 0.000000 0.000000
0.916266 0.000000 0.000000
0.978470 0.000000 0.000000
1.000000 0.000000 0.000000
1.000000 0.000000 0.000000
1.000000 0.000000 0.000000
0.000000 0.040276 0.010724
0.000000 0.040276 0.010724
0.000000 0.040276 0.010724
0.008638 0.040075 0.010523
0.049325 0.039348 0.009796
0.124256 0.038009 0.008458
0.240565 0.035931 0.006379
0.405390 0.032986 0.003434
0.553747 0.030335 0.000784
0.666525 0.028320 0.000000
0.762186 0.026611 0.000000
0.843690 0.025154 0.000000
0.914034 0.023898 0.000000
0.976238 0.022786 0.000000
1.000000 0.021766 0.000000
1.000000 0.021659 0.000000
1.000000 0.021659 0.000000
0.000000 0.105852 0.006609
0.000000 0.105852 0.006609
0.000000 0.105852 0.006609
0.004523 0.105651 0.006408
0.045209 0.104924 0.005681
0.120141 0.103585 0.004342
0.236450 0.101507 0.002264
0.401275 0.098562 0.000000
0.549632 0.095911 0.000000
0.662409 0.093896 0.000000
0.758070 0.092187 0.000000
0.839574 0.090731 0.000000
0.909918 0.089474 0.000000
0.972123 0.088362 0.000000
1.000000 0.087342 0.000000
1.000000 0.087235 0.000000
1.000000 0.087235 0.000000
0.000000 0.207670 0.000219
0.000000 0.207670 0.000219
0.000000 0.207670 0.000219
0.000000 0.207469 0.000018
0.038819 0.206742 0.000000
0.113751 0.205403 0.000000
0.230060 0.203325 0.000000
0.394885 0.200380 0.000000
0.543242 0.197729 0.000000
0.656019 0.195714 0.000000
0.751680 0.194005 0.000000
0.833184 0.192548 0.000000
0.903528 0.191292 0.000000
0.965732 0.190180 0.000000
1.000000 0.189160 0.000000
1.000000 0.189053 0.000000
1.000000 0.189053 0.000000
0.000000 0.351976 0.000000
0.000000 0.351976 0.000000
0.000000 0.351976 0.000000
0.000000 0.351775 0.000000
0.029763 0.351049 0.000000
0.104694 0.349710 0.000000
0.221003 0.347631 0.000000
0.385828 0.344686 0.000000
0.534185 0.342036 0.000000
0.646963 0.340021 0.000000
0.742624 0.338311 0.000000
0.824128 0.336855 0.000000
0.894472 0.335598 0.000000
0.956676 0.334487 0.000000
1.000000 0.333466 0.000000
1.000000 0.333359 0.000000
1.000000 0.333359 0.000000
0.000000 0.481872 0.000000
0.000000 0.481872 0.000000
0.000000 0.481872 0.000000
0.000000 0.481671 0.000000
0.021610 0.480944 0.000000
0.096542 0.479605 0.000000
0.212851 0.477527 0.000000
0.377676 0.474581 0.000000
0.526033 0.471931 0.000000
0.638810 0.469916 0.000000
0.734471 0.468206 0.000000
0.815975 0.466750 0.000000
0.886320 0.465493 0.000000
0.948524 0.464382 0.000000
1.000000 0.463362 0.000000
1.000000 0.463254 0.000000
1.000000 0.463254 0.000000
0.000000 0.580617 0.000000
0.000000 0.580617 0.000000
0.000000 0.580617 0.000000
0.000000 0.580416 0.000000
0.015413 0.579689 0.000000
0.090345 0.578351 0.000000
0.206654 0.576272 0.000000
0.371479 0.573327 0.000000
0.519836 0.570677 0.000000
0.632613 0.568661 0.000000
0.728274 0.566952 0.000000
0.809778 0.565496 0.000000
0.880122 0.564239 0.000000
0.942327 0.563128 0.000000
0.999424 0.562107 0.000000
1.000000 0.562000 0.000000
1.000000 0.562000 0.000000
0.000000 0.664377 0.000000
0.000000 0.664377 0.000000
0.000000 0.664377 0.000000
0.000000 0.664176 0.000000
0.010157 0.663449 0.000000
0.085088 0.662110 0.000000
0.201397 0.660032 0.000000
0.366222 0.657087 0.000000
0.514579 0.654436 0.000000
0.627356 0.652421 0.000000
0.723017 0.650712 0.000000
0.804522 0.649256 0.000000
0.874866 0.647999 0.000000
0.937070 0.646887 0.000000
0.994168 0.645867 0.000000
1.000000 0.645760 0.000000
1.000000 0.645760 0.000000
0.000000 0.735742 0.000000
0.000000 0.735742 0.000000
0.000000 0.735742 0.000000
0.000000 0.735541 0.000000
0.005678 0.734814 0.000000
0.080609 0.733475 0.000000
0.196918 0.731397 0.000000
0.361743 0.728452 0.000000
0.510100 0.725801 0.000000
0.622878 0.723786 0.000000
0.718539 0.722077 0.000000
0.800043 0.720621 0.000000
0.870387 0.719364 0.000000
0.932591 0.718252 0.000000
0.989689 0.717232 0.000000
0.995693 0.717125 0.000000
0.995693 0.717125 0.000000
0.000000 0.797336 0.000000
0.000000 0.797336 0.000000
0.000000 0.797336 0.000000
0.000000 0.797135 0.000000
0.001812 0.796408 0.000000
0.076744 0.795069 0.000000
0.193053 0.792991 0.000000
0.357878 0.790046 0.000000
0.506234 0.787395 0.000000
0.619012 0.785380 0.000000
0.714673 0.783670 0.000000
0.796177 0.782214 0.000000
0.866521 0.780957 0.000000
0.928725 0.779846 0.000000
0.985823 0.778826 0.000000
0.991828 0.778718 0.000000
0.991828 0.778718 0.000000
0.000000 0.851802 0.000000
0.000000 0.851802 0.000000
0.000000 0.851802 0.000000
0.000000 0.851601 0.000000
0.000000 0.850874 0.000000
0.073325 0.849535 0.000000
0.189635 0.847457 0.000000
0.354460 0.844512 0.000000
0.502816 0.841861 0.000000
0.615594 0.839846 0.000000
0.711255 0.838137 0.000000
0.792759 0.836680 0.000000
0.863103 0.835424 0.000000
0.925307 0.834312 0.000000
0.982405 0.833292 0.000000
0.988410 0.833185 0.000000
0.988410 0.833185 0.000000
0.000000 0.901797 0.000000
0.000000 0.901797 0.000000
0.000000 0.901797 0.000000
0.000000 0.901596 0.000000
0.000000 0.900869 0.000000
0.070188 0.899530 0.000000
0.186497 0.897452 0.000000
0.351322 0.894507 0.000000
0.499679 0.891856 0.000000
0.612456 0.889841 0.000000
0.708117 0.888132 0.000000
0.789621 0.886676 0.000000
0.859965 0.885419 0.000000
0.922170 0.884307 0.000000
0.979267 0.883287 0.000000
0.985272 0.883180 0.000000
0.985272 0.883180 0.000000
0.000000 0.949987 0.000000
0.000000 0.949987 0.000000
0.000000 0.949987 0.000000
0.000000 0.949786 0.000000
0.000000 0.949059 0.000000
0.067163 0.947720 0.000000
0.183473 0.945642 0.000000
0.348298 0.942696 0.000000
0.496654 0.940046 0.000000
0.609432 0.938031 0.000000
0.705093 0.936321 0.000000
0.786597 0.934865 0.000000
0.856941 0.933608 0.000000
0.919145 0.932497 0.000000
0.976243 0.931477 0.000000
0.982248 0.931369 0.000000
0.982248 0.931369 0.000000
0.000000 0.967407 0.000000
0.000000 0.967407 0.000000
0.000000 0.967407 0.000000
0.000000 0.967206 0.000000
0.000000 0.966479 0.000000
0.066070 0.965140 0.000000
0.182379 0.963062 0.000000
0.347204 0.960117 0.000000
0.495561 0.957466 0.000000
0.608339 0.955451 0.000000
0.704000 0.953742 0.000000
0.785504 0.952285 0.000000
0.855848 0.951028 0.000000
0.918052 0.949917 0.000000
0.975150 0.948897 0.000000
0.981154 0.948790 0.000000
0.981154 0.948790 0.000000
0.000000 0.000000 0.027031
0.000000 0.000000 0.027031
0.000000 0.000000 0.027031
0.011089 0.000000 0.026830
0.051775 0.000000 0.026103
0.126706 0.000000 0.024764
0.243016 0.000000 0.022686
0.407840 0.000000 0.019741
0.556197 0.000000 0.017090
0.668975 0.000000 0.015075
0.764636 0.000000 0.013366
0.846140 0.000000 0.011910
0.916484 0.000000 0.010653
0.978688 0.000000 0.009541
1.000000 0.000000 0.008521
1.000000 0.000000 0.008414
1.000000 0.000000 0.008414
0.000000 0.000000 0.027031
