public/luts/dji/lk-dji-moody-dark.cube
TITLE "LK DJI Moody Dark"
LUT_3D_SIZE 9
DOMAIN_MIN 0.0 0.0 0.0
DOMAIN_MAX 1.0 1.0 1.0
0.000000 0.000000 0.000000
0.000000 0.000000 0.000000
0.008127 0.000250 0.000250
0.140993 0.004341 0.004341
0.371119 0.011427 0.011427
0.527977 0.016256 0.016256
0.643484 0.019813 0.019813
0.734829 0.022625 0.022625
0.792438 0.024399 0.024399
0.000000 0.000000 0.000000
0.000000 0.000000 0.000000
0.008127 0.000250 0.000250
0.140993 0.004341 0.004341
0.371119 0.011427 0.011427
0.527977 0.016256 0.016256
0.643484 0.019813 0.019813
0.734829 0.022625 0.022625
0.792438 0.024399 0.024399
0.000842 0.008718 0.000842
0.000842 0.008718 0.000842
0.008969 0.008969 0.001092
0.141835 0.013060 0.005183
0.371961 0.020145 0.012268
0.528819 0.024975 0.017098
0.644325 0.028531 0.020654
0.735671 0.031344 0.023467
0.793280 0.033117 0.025241
0.014604 0.151256 0.014604
0.014604 0.151256 0.014604
0.022731 0.151506 0.014854
0.155597 0.155597 0.018945
0.385723 0.162683 0.026030
0.542581 0.167512 0.030860
0.658087 0.171069 0.034417
0.749433 0.173881 0.037229
0.807042 0.175655 0.039003
0.038440 0.398132 0.038440
0.038440 0.398132 0.038440
0.046567 0.398383 0.038690
0.179433 0.402473 0.042781
0.409559 0.409559 0.049867
0.566417 0.414389 0.054696
0.681923 0.417945 0.058253
0.773269 0.420757 0.061065
0.830878 0.422531 0.062839
0.054687 0.566408 0.054687
0.054687 0.566408 0.054687
0.062814 0.566658 0.054937
0.195680 0.570749 0.059028
0.425806 0.577835 0.066114
0.582664 0.582664 0.070943
0.698171 0.586221 0.074500
0.789516 0.589033 0.077312
0.847125 0.590807 0.079086
0.066651 0.690322 0.066651
0.066651 0.690322 0.066651
0.074778 0.690572 0.066901
0.207644 0.694663 0.070992
0.437770 0.701749 0.078078
0.594628 0.706578 0.082907
0.710135 0.710135 0.086464
0.801480 0.712947 0.089276
0.859089 0.714721 0.091050
0.076113 0.788317 0.076113
0.076113 0.788317 0.076113
0.084239 0.788567 0.076363
0.217106 0.792658 0.080454
0.447231 0.799743 0.087539
0.604090 0.804573 0.092369
0.719596 0.808129 0.095925
0.810942 0.810942 0.098738
0.868551 0.812715 0.100511
0.082080 0.850119 0.082080
0.082080 0.850119 0.082080
0.090206 0.850369 0.082330
0.223073 0.854460 0.086421
0.453199 0.861546 0.093506
0.610057 0.866375 0.098336
0.725563 0.869932 0.101892
0.816909 0.872744 0.104705
0.874518 0.874518 0.106478
0.000000 0.000000 0.000000
0.000000 0.000000 0.000000
0.008127 0.000250 0.000250
0.140993 0.004341 0.004341
0.371119 0.011427 0.011427
0.527977 0.016256 0.016256
0.643484 0.019813 0.019813
0.734829 0.022625 0.022625
0.792438 0.024399 0.024399
0.000000 0.000000 0.000000
0.000000 0.000000 0.000000
0.008127 0.000250 0.000250
0.140993 0.004341 0.004341
0.371119 0.011427 0.011427
0.527977 0.016256 0.016256
0.643484 0.019813 0.019813
0.734829 0.022625 0.022625
0.792438 0.024399 0.024399
0.000842 0.008718 0.000842
0.000842 0.008718 0.000842
0.008969 0.008969 0.001092
0.141835 0.013060 0.005183
0.371961 0.020145 0.012268
0.528819 0.024975 0.017098
0.644325 0.028531 0.020654
0.735671 0.031344 0.023467
0.793280 0.033117 0.025241
0.014604 0.151256 0.014604
0.014604 0.151256 0.014604
0.022731 0.151506 0.014854
0.155597 0.155597 0.018945
0.385723 0.162683 0.026030
0.542581 0.167512 0.030860
0.658087 0.171069 0.034417
0.749433 0.173881 0.037229
0.807042 0.175655 0.039003
0.038440 0.398132 0.038440
0.038440 0.398132 0.038440
0.046567 0.398383 0.038690
0.179433 0.402473 0.042781
0.409559 0.409559 0.049867
0.566417 0.414389 0.054696
0.681923 0.417945 0.058253
0.773269 0.420757 0.061065
0.830878 0.422531 0.062839
0.054687 0.566408 0.054687
0.054687 0.566408 0.054687
0.062814 0.566658 0.054937
0.195680 0.570749 0.059028
0.425806 0.577835 0.066114
0.582664 0.582664 0.070943
0.698171 0.586221 0.074500
0.789516 0.589033 0.077312
0.847125 0.590807 0.079086
0.066651 0.690322 0.066651
0.066651 0.690322 0.066651
0.074778 0.690572 0.066901
0.207644 0.694663 0.070992
0.437770 0.701749 0.078078
0.594628 0.706578 0.082907
0.710135 0.710135 0.086464
0.801480 0.712947 0.089276
0.859089 0.714721 0.091050
0.076113 0.788317 0.076113
0.076113 0.788317 0.076113
0.084239 0.788567 0.076363
0.217106 0.792658 0.080454
0.447231 0.799743 0.087539
0.604090 0.804573 0.092369
0.719596 0.808129 0.095925
0.810942 0.810942 0.098738
0.868551 0.812715 0.100511
0.082080 0.850119 0.082080
0.082080 0.850119 0.082080
0.090206 0.850369 0.082330
0.223073 0.854460 0.086421
0.453199 0.861546 0.093506
0.610057 0.866375 0.098336
0.725563 0.869932 0.101892
0.816909 0.872744 0.104705
0.874518 0.874518 0.106478
0.000237 0.000237 0.022187
0.000237 0.000237 0.022187
0.008364 0.000487 0.022437
0.141230 0.004578 0.026528
0.371356 0.011663 0.033614
0.528214 0.016493 0.038443
0.643720 0.020049 0.042000
0.735066 0.022862 0.044812
0.792675 0.024636 0.046586
0.000237 0.000237 0.022187
0.000237 0.000237 0.022187
0.008364 0.000487 0.022437
0.141230 0.004578 0.026528
0.371356 0.011663 0.033614
0.528214 0.016493 0.038443
0.643720 0.020049 0.042000
0.735066 0.022862 0.044812
0.792675 0.024636 0.046586
0.001079 0.008955 0.023029
0.001079 0.008955 0.023029
0.009205 0.009205 0.023279
0.142072 0.013296 0.027370
0.372198 0.020382 0.034455
0.529056 0.025211 0.039285
0.644562 0.028768 0.042841
0.735908 0.031580 0.045654
0.793517 0.033354 0.047428
0.014841 0.151493 0.036791
0.014841 0.151493 0.036791
0.022968 0.151743 0.037041
0.155834 0.155834 0.041132
0.385960 0.162919 0.048217
0.542818 0.167749 0.053047
0.658324 0.171305 0.056603
0.749670 0.174118 0.059416
0.807279 0.175892 0.061190
0.038677 0.398369 0.060627
0.038677 0.398369 0.060627
0.046804 0.398619 0.060877
0.179670 0.402710 0.064968
0.409796 0.409796 0.072054
0.566654 0.414625 0.076883
0.682160 0.418182 0.080440
0.773506 0.420994 0.083252
0.831115 0.422768 0.085026
0.054924 0.566645 0.076874
0.054924 0.566645 0.076874
0.063051 0.566895 0.077124
0.195917 0.570986 0.081215
0.426043 0.578071 0.088301
0.582901 0.582901 0.093130
0.698407 0.586457 0.096687
0.789753 0.589270 0.099499
0.847362 0.591044 0.101273
0.066888 0.690559 0.088838
0.066888 0.690559 0.088838
0.075015 0.690809 0.089088
0.207881 0.694900 0.093179
0.438007 0.701985 0.100265
0.594865 0.706815 0.105094
0.710371 0.710371 0.108651
0.801717 0.713184 0.111463
0.859326 0.714958 0.113237
0.076349 0.788553 0.098299
0.076349 0.788553 0.098299
0.084476 0.788804 0.098550
0.217342 0.792894 0.102641
0.447468 0.799980 0.109726
0.604326 0.804810 0.114556
0.719833 0.808366 0.118112
0.811179 0.811179 0.120925
0.868788 0.812952 0.122698
0.082316 0.850356 0.104267
0.082316 0.850356 0.104267
0.090443 0.850606 0.104517
0.223310 0.854697 0.108608
0.453435 0.861782 0.115693
0.610293 0.866612 0.120523
0.725800 0.870168 0.124079
0.817146 0.872981 0.126892
0.874755 0.874755 0.128665
0.001792 0.001792 0.167886
0.001792 0.001792 0.167886
0.009919 0.002042 0.168136
0.142785 0.006133 0.172227
0.372911 0.013219 0.179313
0.529769 0.018048 0.184142
0.645275 0.021605 0.187699
0.736621 0.024417 0.190511
0.794230 0.026191 0.192285
0.001792 0.001792 0.167886
0.001792 0.001792 0.167886
0.009919 0.002042 0.168136
0.142785 0.006133 0.172227
0.372911 0.013219 0.179313
0.529769 0.018048 0.184142
0.645275 0.021605 0.187699
0.736621 0.024417 0.190511
0.794230 0.026191 0.192285
0.002634 0.010510 0.168728
0.002634 0.010510 0.168728
0.010761 0.010761 0.168978
0.143627 0.014851 0.173069
0.373753 0.021937 0.180154
0.530611 0.026767 0.184984
0.646117 0.030323 0.188540
0.737463 0.033135 0.191353
0.795072 0.034909 0.193127
0.016396 0.153048 0.182490
0.016396 0.153048 0.182490
0.024523 0.153298 0.182740
0.157389 0.157389 0.186831
0.387515 0.164474 0.193916
0.544373 0.169304 0.198746
0.659879 0.172860 0.202302
0.751225 0.175673 0.205115
0.808834 0.177447 0.206889
0.040232 0.399924 0.206326
0.040232 0.399924 0.206326
0.048359 0.400174 0.206576
0.181225 0.404265 0.210667
0.411351 0.411351 0.217753
0.568209 0.416180 0.222582
0.683715 0.419737 0.226139
0.775061 0.422549 0.228951
0.832670 0.424323 0.230725
0.056479 0.568200 0.222573
0.056479 0.568200 0.222573
0.064606 0.568450 0.222823
0.197472 0.572541 0.226914
0.427598 0.579626 0.234000
0.584456 0.584456 0.238829
0.699963 0.588012 0.242386
0.791308 0.590825 0.245198
0.848917 0.592599 0.246972
0.068443 0.692114 0.234537
0.068443 0.692114 0.234537
0.076570 0.692364 0.234787
0.209436 0.696455 0.238878
0.439562 0.703540 0.245964
0.596420 0.708370 0.250793
0.711927 0.711927 0.254350
0.803272 0.714739 0.257162
0.860881 0.716513 0.258936
0.077904 0.790108 0.243998
0.077904 0.790108 0.243998
0.086031 0.790359 0.244249
0.218898 0.794450 0.248340
0.449023 0.801535 0.255425
0.605881 0.806365 0.260255
0.721388 0.809921 0.263811
0.812734 0.812734 0.266624
0.870343 0.814507 0.268397
0.083871 0.851911 0.249966
0.083871 0.851911 0.249966
0.091998 0.852161 0.250216
0.224865 0.856252 0.254307
0.454990 0.863337 0.261392
0.611849 0.868167 0.266222
0.727355 0.871723 0.269778
0.818701 0.874536 0.272591
0.876310 0.876310 0.274364
0.004413 0.004413 0.413464
0.004413 0.004413 0.413464
0.012540 0.004663 0.413714
0.145406 0.008754 0.417805
0.375532 0.015840 0.424891
0.532390 0.020669 0.429720
0.647897 0.024226 0.433277
0.739242 0.027038 0.436089
0.796851 0.028812 0.437863
0.004413 0.004413 0.413464
0.004413 0.004413 0.413464
0.012540 0.004663 0.413714
0.145406 0.008754 0.417805
0.375532 0.015840 0.424891
0.532390 0.020669 0.429720
0.647897 0.024226 0.433277
0.739242 0.027038 0.436089
0.796851 0.028812 0.437863
0.005255 0.013131 0.414306
0.005255 0.013131 0.414306
0.013382 0.013382 0.414556
0.146248 0.017473 0.418647
0.376374 0.024558 0.425733
0.533232 0.029388 0.430562
0.648738 0.032944 0.434119
0.740084 0.035757 0.436931
0.797693 0.037530 0.438705
0.019017 0.155669 0.428068
0.019017 0.155669 0.428068
0.027144 0.155919 0.428318
0.160010 0.160010 0.432409
0.390136 0.167096 0.439495
0.546994 0.171925 0.444324
0.662500 0.175482 0.447881
0.753846 0.178294 0.450693
0.811455 0.180068 0.452467
0.042853 0.402545 0.451904
0.042853 0.402545 0.451904
0.050980 0.402796 0.452154
0.183846 0.406886 0.456245
0.413972 0.413972 0.463331
0.570830 0.418802 0.468160
0.686337 0.422358 0.471717
0.777682 0.425171 0.474529
0.835291 0.426944 0.476303
0.059100 0.570821 0.468151
0.059100 0.570821 0.468151
0.067227 0.571071 0.468402
0.200093 0.575162 0.472492
0.430219 0.582248 0.479578
0.587077 0.587077 0.484408
0.702584 0.590634 0.487964
0.793929 0.593446 0.490776
0.851538 0.595220 0.492550
0.071064 0.694735 0.480115
0.071064 0.694735 0.480115
0.079191 0.694985 0.480365
0.212057 0.699076 0.484456
0.442183 0.706162 0.491542
0.599041 0.710991 0.496372
0.714548 0.714548 0.499928
0.805893 0.717360 0.502740
0.863502 0.719134 0.504514
0.080526 0.792730 0.489577
0.080526 0.792730 0.489577
0.088652 0.792980 0.489827
0.221519 0.797071 0.493918
0.451645 0.804156 0.501003
0.608503 0.808986 0.505833
0.724009 0.812542 0.509389
0.815355 0.815355 0.512202
0.872964 0.817129 0.513976
0.086493 0.854532 0.495544
0.086493 0.854532 0.495544
0.094619 0.854782 0.495794
0.227486 0.858873 0.499885
0.457612 0.865959 0.506970
0.614470 0.870788 0.511800
0.729976 0.874345 0.515356
0.821322 0.877157 0.518169
0.878931 0.878931 0.519943
0.006179 0.006179 0.578940
0.006179 0.006179 0.578940
0.014306 0.006429 0.579190
0.147172 0.010520 0.583281
0.377298 0.017606 0.590366
0.534156 0.022435 0.595196
0.649663 0.025992 0.598752
0.741008 0.028804 0.601565
0.798617 0.030578 0.603339
0.006179 0.006179 0.578940
0.006179 0.006179 0.578940
0.014306 0.006429 0.579190
0.147172 0.010520 0.583281
0.377298 0.017606 0.590366
0.534156 0.022435 0.595196
0.649663 0.025992 0.598752
0.741008 0.028804 0.601565
0.798617 0.030578 0.603339
0.007021 0.014898 0.579781
0.007021 0.014898 0.579781
0.015148 0.015148 0.580032
0.148014 0.019239 0.584122
0.378140 0.026324 0.591208
0.534998 0.031154 0.596038
0.650505 0.034710 0.599594
0.741850 0.037523 0.602407
0.799459 0.039297 0.604180
0.020783 0.157435 0.593543
0.020783 0.157435 0.593543
0.028910 0.157685 0.593794
0.161776 0.161776 0.597885
0.391902 0.168862 0.604970
0.548760 0.173691 0.609800
0.664267 0.177248 0.613356
0.755612 0.180060 0.616169
0.813221 0.181834 0.617942
0.044619 0.404312 0.617380
0.044619 0.404312 0.617380
0.052746 0.404562 0.617630
0.185612 0.408653 0.621721
0.415738 0.415738 0.628806
0.572596 0.420568 0.633636
0.688103 0.424124 0.637192
0.779448 0.426937 0.640005
0.837057 0.428710 0.641778
0.060866 0.572587 0.633627
0.060866 0.572587 0.633627
0.068993 0.572837 0.633877
0.201859 0.576928 0.637968
0.431985 0.584014 0.645053
0.588843 0.588843 0.649883
0.704350 0.592400 0.653439
0.795695 0.595212 0.656252
0.853305 0.596986 0.658026
0.072830 0.696501 0.645591
0.072830 0.696501 0.645591
0.080957 0.696751 0.645841
0.213823 0.700842 0.649932
0.443949 0.707928 0.657017
0.600807 0.712757 0.661847
0.716314 0.716314 0.665403
0.807659 0.719126 0.668216
0.865269 0.720900 0.669990
0.082292 0.794496 0.655052
0.082292 0.794496 0.655052
0.090419 0.794746 0.655302
0.223285 0.798837 0.659393
0.453411 0.805922 0.666479
0.610269 0.810752 0.671308
0.725775 0.814308 0.674865
0.817121 0.817121 0.677677
0.874730 0.818895 0.679451
0.088259 0.856298 0.661019
0.088259 0.856298 0.661019
0.096386 0.856548 0.661269
0.229252 0.860639 0.665360
0.459378 0.867725 0.672446
0.616236 0.872554 0.677275
0.731742 0.876111 0.680832
0.823088 0.878923 0.683644
0.880697 0.880697 0.685418
0.007473 0.007473 0.700157
0.007473 0.007473 0.700157
0.015600 0.007723 0.700407
0.148466 0.011814 0.704498
0.378592 0.018900 0.711583
0.535450 0.023729 0.716413
0.650957 0.027286 0.719969
0.742302 0.030098 0.722782
0.799911 0.031872 0.724556
0.007473 0.007473 0.700157
0.007473 0.007473 0.700157
0.015600 0.007723 0.700407
0.148466 0.011814 0.704498
0.378592 0.018900 0.711583
0.535450 0.023729 0.716413
0.650957 0.027286 0.719969
0.742302 0.030098 0.722782
0.799911 0.031872 0.724556
0.008315 0.016191 0.700999
0.008315 0.016191 0.700999
0.016442 0.016442 0.701249
0.149308 0.020533 0.705340
0.379434 0.027618 0.712425
0.536292 0.032448 0.717255
0.651798 0.036004 0.720811
0.743144 0.038817 0.723624
0.800753 0.040590 0.725397
0.022077 0.158729 0.714761
0.022077 0.158729 0.714761
0.030204 0.158979 0.715011
0.163070 0.163070 0.719102
0.393196 0.170156 0.726187
0.550054 0.174985 0.731017
0.665560 0.178542 0.734573
0.756906 0.181354 0.737386
0.814515 0.183128 0.739160
0.045913 0.405605 0.738597
0.045913 0.405605 0.738597
0.054040 0.405856 0.738847
0.186906 0.409946 0.742938
0.417032 0.417032 0.750023
0.573890 0.421862 0.754853
0.689397 0.425418 0.758409
0.780742 0.428230 0.761222
0.838351 0.430004 0.762996
0.062160 0.573881 0.754844
0.062160 0.573881 0.754844
0.070287 0.574131 0.755094
0.203153 0.578222 0.759185
0.433279 0.585308 0.766270
0.590137 0.590137 0.771100
0.705644 0.593694 0.774656
0.796989 0.596506 0.777469
0.854598 0.598280 0.779243
0.074124 0.697795 0.766808
0.074124 0.697795 0.766808
0.082251 0.698045 0.767058
0.215117 0.702136 0.771149
0.445243 0.709222 0.778234
0.602101 0.714051 0.783064
0.717608 0.717608 0.786620
0.808953 0.720420 0.789433
0.866562 0.722194 0.791207
0.083586 0.795790 0.776269
0.083586 0.795790 0.776269
0.091712 0.796040 0.776519
0.224579 0.800131 0.780610
0.454705 0.807216 0.787696
0.611563 0.812046 0.792526
0.727069 0.815602 0.796082
0.818415 0.818415 0.798894
0.876024 0.820188 0.800668
0.089553 0.857592 0.782236
0.089553 0.857592 0.782236
0.097679 0.857842 0.782487
0.230546 0.861933 0.786577
0.460672 0.869019 0.793663
0.617530 0.873848 0.798493
0.733036 0.877405 0.802049
0.824382 0.880217 0.804861
0.881991 0.881991 0.806635
0.008493 0.008493 0.795713
0.008493 0.008493 0.795713
0.016620 0.008743 0.795963
0.149486 0.012834 0.800054
0.379612 0.019920 0.807140
0.536470 0.024749 0.811969
0.651976 0.028306 0.815526
0.743322 0.031118 0.818338
0.800931 0.032892 0.820112
0.008493 0.008493 0.795713
0.008493 0.008493 0.795713
0.016620 0.008743 0.795963
0.149486 0.012834 0.800054
0.379612 0.019920 0.807140
0.536470 0.024749 0.811969
0.651976 0.028306 0.815526
0.743322 0.031118 0.818338
0.800931 0.032892 0.820112
0.009335 0.017211 0.796555
0.009335 0.017211 0.796555
0.017462 0.017462 0.796805
0.150328 0.021552 0.800896
0.380454 0.028638 0.807981
0.537312 0.033468 0.812811
0.652818 0.037024 0.816367
0.744164 0.039837 0.819180
0.801773 0.041610 0.820954
0.023097 0.159749 0.810317
0.023097 0.159749 0.810317
0.031224 0.159999 0.810567
0.164090 0.164090 0.814658
0.394216 0.171175 0.821744
0.551074 0.176005 0.826573
0.666580 0.179561 0.830130
0.757926 0.182374 0.832942
0.815535 0.184148 0.834716
0.046933 0.406625 0.834153
0.046933 0.406625 0.834153
0.055060 0.406875 0.834403
0.187926 0.410966 0.838494
0.418052 0.418052 0.845580
0.574910 0.422881 0.850409
0.690416 0.426438 0.853966
0.781762 0.429250 0.856778
0.839371 0.431024 0.858552
0.063180 0.574901 0.850400
0.063180 0.574901 0.850400
0.071307 0.575151 0.850650
0.204173 0.579242 0.854741
0.434299 0.586327 0.861827
0.591157 0.591157 0.866656
0.706664 0.594713 0.870213
0.798009 0.597526 0.873025
0.855618 0.599300 0.874799
0.075144 0.698815 0.862364
0.075144 0.698815 0.862364
0.083271 0.699065 0.862614
0.216137 0.703156 0.866705
0.446263 0.710242 0.873791
0.603121 0.715071 0.878620
0.718628 0.718628 0.882177
0.809973 0.721440 0.884989
0.867582 0.723214 0.886763
0.084605 0.796809 0.871826
0.084605 0.796809 0.871826
0.092732 0.797060 0.872076
0.225599 0.801151 0.876167
0.455724 0.808236 0.883252
0.612583 0.813066 0.888082
0.728089 0.816622 0.891638
0.819435 0.819435 0.894451
0.877044 0.821208 0.896224
0.090572 0.858612 0.877793
0.090572 0.858612 0.877793
0.098699 0.858862 0.878043
0.231566 0.862953 0.882134
0.461691 0.870038 0.889219
0.618550 0.874868 0.894049
0.734056 0.878424 0.897605
0.825402 0.881237 0.900418
0.883011 0.883011 0.902192
0.008566 0.008566 0.802578
0.008566 0.008566 0.802578
0.016693 0.008816 0.802828
0.149559 0.012907 0.806919
0.379685 0.019993 0.814005
0.536543 0.024822 0.818834
0.652050 0.028379 0.822391
0.743395 0.031191 0.825203
0.801004 0.032965 0.826977
0.008566 0.008566 0.802578
0.008566 0.008566 0.802578
0.016693 0.008816 0.802828
0.149559 0.012907 0.806919
0.379685 0.019993 0.814005
0.536543 0.024822 0.818834
0.652050 0.028379 0.822391
0.743395 0.031191 0.825203
0.801004 0.032965 0.826977
0.009408 0.017285 0.803420
0.009408 0.017285 0.803420
0.017535 0.017535 0.803670
0.150401 0.021626 0.807761
0.380527 0.028711 0.814847
0.537385 0.033541 0.819676
0.652892 0.037097 0.823233
0.744237 0.039910 0.826045
0.801846 0.041684 0.827819
0.023170 0.159822 0.817182
0.023170 0.159822 0.817182
0.031297 0.160072 0.817432
0.164163 0.164163 0.821523
0.394289 0.171249 0.828609
0.551147 0.176078 0.833438
0.666654 0.179635 0.836995
0.757999 0.182447 0.839807
0.815608 0.184221 0.841581
0.047006 0.406698 0.841018
0.047006 0.406698 0.841018
0.055133 0.406949 0.841268
0.187999 0.411040 0.845359
0.418125 0.418125 0.852445
0.574983 0.422955 0.857274
0.690490 0.426511 0.860831
0.781835 0.429324 0.863643
0.839444 0.431097 0.865417
0.063253 0.574974 0.857265
0.063253 0.574974 0.857265
0.071380 0.575224 0.857515
0.204246 0.579315 0.861606
0.434372 0.586401 0.868692
0.591230 0.591230 0.873521
0.706737 0.594787 0.877078
0.798082 0.597599 0.879890
0.855692 0.599373 0.881664
0.075217 0.698888 0.869229
0.075217 0.698888 0.869229
0.083344 0.699138 0.869479
0.216210 0.703229 0.873570
0.446336 0.710315 0.880656
0.603194 0.715144 0.885485
0.718701 0.718701 0.889042
0.810046 0.721513 0.891854
0.867655 0.723287 0.893628
0.084679 0.796883 0.878691
0.084679 0.796883 0.878691
0.092806 0.797133 0.878941
0.225672 0.801224 0.883032
0.455798 0.808309 0.890117
0.612656 0.813139 0.894947
0.728162 0.816695 0.898503
0.819508 0.819508 0.901316
0.877117 0.821282 0.903090
0.090646 0.858685 0.884658
0.090646 0.858685 0.884658
0.098773 0.858935 0.884908
0.231639 0.863026 0.888999
0.461765 0.870112 0.896084
0.618623 0.874941 0.900914
0.734129 0.878498 0.904470
0.825475 0.881310 0.907283
0.883084 0.883084 0.909057
