public/luts/dji/lk-dji-pastel.cube
TITLE "LK DJI Pastel"
LUT_3D_SIZE 5
DOMAIN_MIN 0.0 0.0 0.0
DOMAIN_MAX 1.0 1.0 1.0
0.073460 0.074174 0.077025
0.111887 0.077109 0.079959
0.429289 0.101347 0.104198
0.640250 0.117457 0.120308
0.741668 0.125201 0.128052
0.083132 0.118621 0.086697
0.121559 0.121555 0.089631
0.438961 0.145793 0.113870
0.649922 0.161903 0.129979
0.751340 0.169648 0.137724
0.163125 0.486221 0.166690
0.201552 0.489155 0.169624
0.518954 0.513393 0.193863
0.729915 0.529503 0.209973
0.831333 0.537248 0.217717
0.216312 0.730638 0.219877
0.254739 0.733572 0.222812
0.572141 0.757810 0.247050
0.783103 0.773920 0.263160
0.884521 0.781665 0.270905
0.244271 0.859118 0.247836
0.282698 0.862053 0.250770
0.600099 0.886291 0.275008
0.811061 0.902401 0.291118
0.912479 0.910145 0.298863
0.074452 0.075167 0.113370
0.112879 0.078101 0.116305
0.430281 0.102339 0.140543
0.641243 0.118449 0.156653
0.742661 0.126194 0.164397
0.084124 0.119613 0.123042
0.122551 0.122548 0.125977
0.439953 0.146786 0.150215
0.650915 0.162896 0.166325
0.752333 0.170641 0.174069
0.164117 0.487213 0.203035
0.202544 0.490148 0.205970
0.519946 0.514386 0.230208
0.730908 0.530496 0.246318
0.832326 0.538240 0.254062
0.217305 0.731630 0.256223
0.255732 0.734565 0.259157
0.573134 0.758803 0.283395
0.784095 0.774913 0.299505
0.885513 0.782658 0.307250
0.245263 0.860111 0.284181
0.283690 0.863045 0.287116
0.601092 0.887283 0.311354
0.812054 0.903393 0.327464
0.913472 0.911138 0.335208
0.082673 0.083388 0.414380
0.121100 0.086322 0.417314
0.438502 0.110560 0.441552
0.649464 0.126670 0.457662
0.750882 0.134415 0.465407
0.092345 0.127834 0.424052
0.130772 0.130769 0.426986
0.448174 0.155007 0.451224
0.659136 0.171117 0.467334
0.760554 0.178861 0.475079
0.172338 0.495434 0.504045
0.210765 0.498369 0.506979
0.528167 0.522607 0.531217
0.739129 0.538717 0.547327
0.840547 0.546461 0.555072
0.225526 0.739851 0.557232
0.263953 0.742786 0.560167
0.581354 0.767024 0.584405
0.792316 0.783134 0.600515
0.893734 0.790878 0.608259
0.253484 0.868332 0.585191
0.291911 0.871266 0.588125
0.609313 0.895504 0.612363
0.820275 0.911614 0.628473
0.921693 0.919359 0.636218
0.088141 0.088856 0.614601
0.126569 0.091790 0.617535
0.443970 0.116029 0.641774
0.654932 0.132138 0.657883
0.756350 0.139883 0.665628
0.097813 0.133302 0.624273
0.136241 0.136237 0.627207
0.453642 0.160475 0.651445
0.664604 0.176585 0.667555
0.766022 0.184330 0.675300
0.177806 0.500902 0.704266
0.216234 0.503837 0.707200
0.533635 0.528075 0.731439
0.744597 0.544185 0.747548
0.846015 0.551929 0.755293
0.230994 0.745319 0.757453
0.269421 0.748254 0.760388
0.586823 0.772492 0.784626
0.797784 0.788602 0.800736
0.899202 0.796347 0.808481
0.258952 0.873800 0.785412
0.297379 0.876734 0.788346
0.614781 0.900973 0.812584
0.825743 0.917082 0.828694
0.927161 0.924827 0.836439
0.090689 0.091403 0.707870
0.129116 0.094338 0.710805
0.446518 0.118576 0.735043
0.657479 0.134686 0.751153
0.758897 0.142430 0.758897
0.100361 0.135850 0.717542
0.138788 0.138784 0.720477
0.456190 0.163022 0.744715
0.667151 0.179132 0.760825
0.768569 0.186877 0.768569
0.180354 0.503450 0.797535
0.218781 0.506384 0.800470
0.536183 0.530622 0.824708
0.747144 0.546732 0.840818
0.848562 0.554477 0.848562
0.233541 0.747867 0.850722
0.271968 0.750801 0.853657
0.589370 0.775039 0.877895
0.800332 0.791149 0.894005
0.901750 0.798894 0.901750
0.261500 0.876347 0.878681
0.299927 0.879282 0.881615
0.617328 0.903520 0.905854
0.828290 0.919630 0.921963
0.929708 0.927374 0.929708
