public/luts/dji/lk-dji-sunset.cube
TITLE "LK DJI Sunset"
LUT_3D_SIZE 9
DOMAIN_MIN 0.0 0.0 0.0
DOMAIN_MAX 1.0 1.0 1.0
0.000000 0.000000 0.001525
0.000000 0.000000 0.001525
0.058003 0.000000 0.000597
0.260031 0.000000 0.000000
0.578314 0.000000 0.000000
0.785964 0.000000 0.000000
0.935832 0.000000 0.000000
1.000000 0.000000 0.000000
1.000000 0.000000 0.000000
0.000000 0.000000 0.001525
0.000000 0.000000 0.001525
0.058003 0.000000 0.000597
0.260031 0.000000 0.000000
0.578314 0.000000 0.000000
0.785964 0.000000 0.000000
0.935832 0.000000 0.000000
1.000000 0.000000 0.000000
1.000000 0.000000 0.000000
0.000000 0.031615 0.000000
0.000000 0.031615 0.000000
0.056234 0.030687 0.000000
0.258262 0.027454 0.000000
0.576545 0.022362 0.000000
0.784195 0.019039 0.000000
0.934063 0.016641 0.000000
1.000000 0.015355 0.000000
1.000000 0.015355 0.000000
0.000000 0.193400 0.000000
0.000000 0.193400 0.000000
0.047183 0.192472 0.000000
0.249212 0.189239 0.000000
0.567495 0.184147 0.000000
0.775145 0.180824 0.000000
0.925012 0.178427 0.000000
1.000000 0.177140 0.000000
1.000000 0.177140 0.000000
0.000000 0.458414 0.000000
0.000000 0.458414 0.000000
0.032358 0.457486 0.000000
0.234387 0.454253 0.000000
0.552670 0.449161 0.000000
0.760319 0.445838 0.000000
0.910187 0.443440 0.000000
0.990567 0.442154 0.000000
0.990567 0.442154 0.000000
0.000000 0.634804 0.000000
0.000000 0.634804 0.000000
0.022491 0.633876 0.000000
0.224519 0.630644 0.000000
0.542802 0.625551 0.000000
0.750452 0.622229 0.000000
0.900320 0.619831 0.000000
0.980700 0.618545 0.000000
0.980700 0.618545 0.000000
0.000000 0.763308 0.000000
0.000000 0.763308 0.000000
0.015302 0.762379 0.000000
0.217330 0.759147 0.000000
0.535613 0.754054 0.000000
0.743263 0.750732 0.000000
0.893131 0.748334 0.000000
0.973511 0.747048 0.000000
0.973511 0.747048 0.000000
0.000000 0.864269 0.000000
0.000000 0.864269 0.000000
0.009654 0.863341 0.000000
0.211683 0.860108 0.000000
0.529965 0.855016 0.000000
0.737615 0.851693 0.000000
0.887483 0.849295 0.000000
0.967863 0.848009 0.000000
0.967863 0.848009 0.000000
0.000000 0.927680 0.000000
0.000000 0.927680 0.000000
0.006107 0.926752 0.000000
0.208135 0.923519 0.000000
0.526418 0.918427 0.000000
0.734068 0.915104 0.000000
0.883936 0.912707 0.000000
0.964316 0.911420 0.000000
0.964316 0.911420 0.000000
0.000000 0.000000 0.001652
0.000000 0.000000 0.001652
0.058002 0.000000 0.000724
0.260031 0.000000 0.000000
0.578314 0.000000 0.000000
0.785963 0.000000 0.000000
0.935831 0.000000 0.000000
1.000000 0.000000 0.000000
1.000000 0.000000 0.000000
0.000000 0.000000 0.001652
0.000000 0.000000 0.001652
0.058002 0.000000 0.000724
0.260031 0.000000 0.000000
0.578314 0.000000 0.000000
0.785963 0.000000 0.000000
0.935831 0.000000 0.000000
1.000000 0.000000 0.000000
1.000000 0.000000 0.000000
0.000000 0.031614 0.000000
0.000000 0.031614 0.000000
0.056233 0.030686 0.000000
0.258262 0.027454 0.000000
0.576545 0.022361 0.000000
0.784194 0.019039 0.000000
0.934062 0.016641 0.000000
1.000000 0.015355 0.000000
1.000000 0.015355 0.000000
0.000000 0.193399 0.000000
0.000000 0.193399 0.000000
0.047183 0.192471 0.000000
0.249211 0.189239 0.000000
0.567494 0.184146 0.000000
0.775144 0.180824 0.000000
0.925012 0.178426 0.000000
1.000000 0.177140 0.000000
1.000000 0.177140 0.000000
0.000000 0.458413 0.000000
0.000000 0.458413 0.000000
0.032357 0.457485 0.000000
0.234386 0.454252 0.000000
0.552669 0.449160 0.000000
0.760319 0.445837 0.000000
0.910186 0.443440 0.000000
0.990567 0.442153 0.000000
0.990567 0.442153 0.000000
0.000000 0.634804 0.000000
0.000000 0.634804 0.000000
0.022490 0.633875 0.000000
0.224518 0.630643 0.000000
0.542801 0.625550 0.000000
0.750451 0.622228 0.000000
0.900319 0.619830 0.000000
0.980699 0.618544 0.000000
0.980699 0.618544 0.000000
0.000000 0.763307 0.000000
0.000000 0.763307 0.000000
0.015301 0.762379 0.000000
0.217330 0.759146 0.000000
0.535613 0.754054 0.000000
0.743262 0.750731 0.000000
0.893130 0.748333 0.000000
0.973510 0.747047 0.000000
0.973510 0.747047 0.000000
0.000000 0.864268 0.000000
0.000000 0.864268 0.000000
0.009653 0.863340 0.000000
0.211682 0.860108 0.000000
0.529965 0.855015 0.000000
0.737614 0.851693 0.000000
0.887482 0.849295 0.000000
0.967863 0.848009 0.000000
0.967863 0.848009 0.000000
0.000000 0.927679 0.000000
0.000000 0.927679 0.000000
0.006106 0.926751 0.000000
0.208135 0.923519 0.000000
0.526417 0.918426 0.000000
0.734067 0.915104 0.000000
0.883935 0.912706 0.000000
0.964315 0.911420 0.000000
0.964315 0.911420 0.000000
0.000000 0.000000 0.045463
0.000000 0.000000 0.045463
0.057767 0.000000 0.044535
0.259795 0.000000 0.041303
0.578078 0.000000 0.036210
0.785728 0.000000 0.032888
0.935596 0.000000 0.030490
1.000000 0.000000 0.029204
1.000000 0.000000 0.029204
0.000000 0.000000 0.045463
0.000000 0.000000 0.045463
0.057767 0.000000 0.044535
0.259795 0.000000 0.041303
0.578078 0.000000 0.036210
0.785728 0.000000 0.032888
0.935596 0.000000 0.030490
1.000000 0.000000 0.029204
1.000000 0.000000 0.029204
0.000000 0.031379 0.043694
0.000000 0.031379 0.043694
0.055998 0.030451 0.042766
0.258026 0.027218 0.039534
0.576309 0.022126 0.034441
0.783959 0.018803 0.031119
0.933827 0.016405 0.028721
1.000000 0.015119 0.027435
1.000000 0.015119 0.027435
0.000000 0.193164 0.034644
0.000000 0.193164 0.034644
0.046947 0.192236 0.033716
0.248976 0.189003 0.030483
0.567259 0.183911 0.025390
0.774908 0.180588 0.022068
0.924776 0.178190 0.019670
1.000000 0.176904 0.018384
1.000000 0.176904 0.018384
0.000000 0.458178 0.019818
0.000000 0.458178 0.019818
0.032122 0.457249 0.018890
0.234150 0.454017 0.015658
0.552433 0.448924 0.010565
0.760083 0.445602 0.007243
0.909951 0.443204 0.004845
0.990331 0.441918 0.003559
0.990331 0.441918 0.003559
0.000000 0.634568 0.009951
0.000000 0.634568 0.009951
0.022254 0.633640 0.009023
0.224283 0.630407 0.005790
0.542566 0.625315 0.000698
0.750215 0.621992 0.000000
0.900083 0.619594 0.000000
0.980464 0.618308 0.000000
0.980464 0.618308 0.000000
0.000000 0.763071 0.002762
0.000000 0.763071 0.002762
0.015066 0.762143 0.001834
0.217094 0.758911 0.000000
0.535377 0.753818 0.000000
0.743027 0.750496 0.000000
0.892895 0.748098 0.000000
0.973275 0.746812 0.000000
0.973275 0.746812 0.000000
0.000000 0.864033 0.000000
0.000000 0.864033 0.000000
0.009418 0.863104 0.000000
0.211446 0.859872 0.000000
0.529729 0.854779 0.000000
0.737379 0.851457 0.000000
0.887247 0.849059 0.000000
0.967627 0.847773 0.000000
0.967627 0.847773 0.000000
0.000000 0.927444 0.000000
0.000000 0.927444 0.000000
0.005870 0.926516 0.000000
0.207899 0.923283 0.000000
0.526182 0.918191 0.000000
0.733832 0.914868 0.000000
0.883699 0.912470 0.000000
0.964080 0.911184 0.000000
0.964080 0.911184 0.000000
0.000000 0.000000 0.203187
0.000000 0.000000 0.203187
0.056919 0.000000 0.202259
0.258947 0.000000 0.199026
0.577230 0.000000 0.193934
0.784880 0.000000 0.190611
0.934748 0.000000 0.188213
1.000000 0.000000 0.186927
1.000000 0.000000 0.186927
0.000000 0.000000 0.203187
0.000000 0.000000 0.203187
0.056919 0.000000 0.202259
0.258947 0.000000 0.199026
0.577230 0.000000 0.193934
0.784880 0.000000 0.190611
0.934748 0.000000 0.188213
1.000000 0.000000 0.186927
1.000000 0.000000 0.186927
0.000000 0.030531 0.201418
0.000000 0.030531 0.201418
0.055149 0.029603 0.200490
0.257178 0.026370 0.197257
0.575461 0.021277 0.192165
0.783111 0.017955 0.188842
0.932978 0.015557 0.186444
1.000000 0.014271 0.185158
1.000000 0.014271 0.185158
0.000000 0.192316 0.192368
0.000000 0.192316 0.192368
0.046099 0.191388 0.191439
0.248128 0.188155 0.188207
0.566411 0.183063 0.183114
0.774060 0.179740 0.179792
0.923928 0.177342 0.177394
1.000000 0.176056 0.176108
1.000000 0.176056 0.176108
0.000000 0.457329 0.177542
0.000000 0.457329 0.177542
0.031274 0.456401 0.176614
0.233302 0.453169 0.173382
0.551585 0.448076 0.168289
0.759235 0.444754 0.164967
0.909103 0.442356 0.162569
0.989483 0.441070 0.161283
0.989483 0.441070 0.161283
0.000000 0.633720 0.167675
0.000000 0.633720 0.167675
0.021406 0.632792 0.166747
0.223435 0.629559 0.163514
0.541718 0.624467 0.158421
0.749367 0.621144 0.155099
0.899235 0.618746 0.152701
0.979616 0.617460 0.151415
0.979616 0.617460 0.151415
0.000000 0.762223 0.160486
0.000000 0.762223 0.160486
0.014218 0.761295 0.159558
0.216246 0.758063 0.156325
0.534529 0.752970 0.151233
0.742179 0.749648 0.147910
0.892047 0.747250 0.145513
0.972427 0.745964 0.144226
0.972427 0.745964 0.144226
0.000000 0.863185 0.154838
0.000000 0.863185 0.154838
0.008570 0.862256 0.153910
0.210598 0.859024 0.150677
0.528881 0.853931 0.145585
0.736531 0.850609 0.142262
0.886399 0.848211 0.139865
0.966779 0.846925 0.138578
0.966779 0.846925 0.138578
0.000000 0.926596 0.151291
0.000000 0.926596 0.151291
0.005022 0.925668 0.150363
0.207051 0.922435 0.147130
0.525334 0.917343 0.142038
0.732984 0.914020 0.138715
0.882851 0.911622 0.136317
0.963232 0.910336 0.135031
0.963232 0.910336 0.135031
0.000000 0.000000 0.466319
0.000000 0.000000 0.466319
0.055504 0.000000 0.465390
0.257532 0.000000 0.462158
0.575815 0.000000 0.457065
0.783465 0.000000 0.453743
0.933333 0.000000 0.451345
1.000000 0.000000 0.450059
1.000000 0.000000 0.450059
0.000000 0.000000 0.466319
0.000000 0.000000 0.466319
0.055504 0.000000 0.465390
0.257532 0.000000 0.462158
0.575815 0.000000 0.457065
0.783465 0.000000 0.453743
0.933333 0.000000 0.451345
1.000000 0.000000 0.450059
1.000000 0.000000 0.450059
0.000000 0.029116 0.464550
0.000000 0.029116 0.464550
0.053735 0.028188 0.463621
0.255763 0.024955 0.460389
0.574046 0.019863 0.455296
0.781696 0.016540 0.451974
0.931564 0.014142 0.449576
1.000000 0.012856 0.448290
1.000000 0.012856 0.448290
0.000000 0.190901 0.455499
0.000000 0.190901 0.455499
0.044684 0.189973 0.454571
0.246713 0.186740 0.451338
0.564996 0.181648 0.446246
0.772645 0.178325 0.442923
0.922513 0.175927 0.440526
1.000000 0.174641 0.439239
1.000000 0.174641 0.439239
0.000000 0.455915 0.440674
0.000000 0.455915 0.440674
0.029859 0.454986 0.439746
0.231888 0.451754 0.436513
0.550170 0.446661 0.431421
0.757820 0.443339 0.428098
0.907688 0.440941 0.425700
0.988068 0.439655 0.424414
0.988068 0.439655 0.424414
0.000000 0.632305 0.430806
0.000000 0.632305 0.430806
0.019991 0.631377 0.429878
0.222020 0.628144 0.426646
0.540303 0.623052 0.421553
0.747953 0.619729 0.418231
0.897820 0.617332 0.415833
0.978201 0.616045 0.414547
0.978201 0.616045 0.414547
0.000000 0.760808 0.423618
0.000000 0.760808 0.423618
0.012803 0.759880 0.422690
0.214831 0.756648 0.419457
0.533114 0.751555 0.414364
0.740764 0.748233 0.411042
0.890632 0.745835 0.408644
0.971012 0.744549 0.407358
0.971012 0.744549 0.407358
0.000000 0.861770 0.417970
0.000000 0.861770 0.417970
0.007155 0.860842 0.417042
0.209183 0.857609 0.413809
0.527466 0.852516 0.408717
0.735116 0.849194 0.405394
0.884984 0.846796 0.402996
0.965364 0.845510 0.401710
0.965364 0.845510 0.401710
0.000000 0.925181 0.414422
0.000000 0.925181 0.414422
0.003607 0.924253 0.413494
0.205636 0.921020 0.410262
0.523919 0.915928 0.405169
0.731569 0.912605 0.401847
0.881436 0.910207 0.399449
0.961817 0.908921 0.398163
0.961817 0.908921 0.398163
0.000000 0.000000 0.643225
0.000000 0.000000 0.643225
0.054552 0.000000 0.642297
0.256581 0.000000 0.639065
0.574864 0.000000 0.633972
0.782514 0.000000 0.630650
0.932381 0.000000 0.628252
1.000000 0.000000 0.626966
1.000000 0.000000 0.626966
0.000000 0.000000 0.643225
0.000000 0.000000 0.643225
0.054552 0.000000 0.642297
0.256581 0.000000 0.639065
0.574864 0.000000 0.633972
0.782514 0.000000 0.630650
0.932381 0.000000 0.628252
1.000000 0.000000 0.626966
1.000000 0.000000 0.626966
0.000000 0.028165 0.641456
0.000000 0.028165 0.641456
0.052783 0.027236 0.640528
0.254812 0.024004 0.637296
0.573095 0.018911 0.632203
0.780745 0.015589 0.628881
0.930612 0.013191 0.626483
1.000000 0.011905 0.625197
1.000000 0.011905 0.625197
0.000000 0.189950 0.632406
0.000000 0.189950 0.632406
0.043733 0.189022 0.631478
0.245762 0.185789 0.628245
0.564044 0.180696 0.623153
0.771694 0.177374 0.619830
0.921562 0.174976 0.617432
1.000000 0.173690 0.616146
1.000000 0.173690 0.616146
0.000000 0.454963 0.617581
0.000000 0.454963 0.617581
0.028908 0.454035 0.616653
0.230936 0.450803 0.613420
0.549219 0.445710 0.608327
0.756869 0.442388 0.605005
0.906737 0.439990 0.602607
0.987117 0.438704 0.601321
0.987117 0.438704 0.601321
0.000000 0.631354 0.607713
0.000000 0.631354 0.607713
0.019040 0.630426 0.606785
0.221069 0.627193 0.603553
0.539352 0.622101 0.598460
0.747001 0.618778 0.595138
0.896869 0.616380 0.592740
0.977249 0.615094 0.591454
0.977249 0.615094 0.591454
0.000000 0.759857 0.600525
0.000000 0.759857 0.600525
0.011852 0.758929 0.599596
0.213880 0.755697 0.596364
0.532163 0.750604 0.591271
0.739813 0.747282 0.587949
0.889680 0.744884 0.585551
0.970061 0.743598 0.584265
0.970061 0.743598 0.584265
0.000000 0.860819 0.594877
0.000000 0.860819 0.594877
0.006204 0.859890 0.593948
0.208232 0.856658 0.590716
0.526515 0.851565 0.585623
0.734165 0.848243 0.582301
0.884033 0.845845 0.579903
0.964413 0.844559 0.578617
0.964413 0.844559 0.578617
0.000000 0.924230 0.591329
0.000000 0.924230 0.591329
0.002656 0.923302 0.590401
0.204685 0.920069 0.587169
0.522968 0.914976 0.582076
0.730617 0.911654 0.578754
0.880485 0.909256 0.576356
0.960866 0.907970 0.575070
0.960866 0.907970 0.575070
0.000000 0.000000 0.772724
0.000000 0.000000 0.772724
0.053856 0.000000 0.771796
0.255885 0.000000 0.768564
0.574168 0.000000 0.763471
0.781817 0.000000 0.760149
0.931685 0.000000 0.757751
1.000000 0.000000 0.756465
1.000000 0.000000 0.756465
0.000000 0.000000 0.772724
0.000000 0.000000 0.772724
0.053856 0.000000 0.771796
0.255885 0.000000 0.768564
0.574168 0.000000 0.763471
0.781817 0.000000 0.760149
0.931685 0.000000 0.757751
1.000000 0.000000 0.756465
1.000000 0.000000 0.756465
0.000000 0.027468 0.770955
0.000000 0.027468 0.770955
0.052087 0.026540 0.770027
0.254116 0.023308 0.766795
0.572399 0.018215 0.761702
0.780048 0.014893 0.758380
0.929916 0.012495 0.755982
1.000000 0.011209 0.754696
1.000000 0.011209 0.754696
0.000000 0.189253 0.761905
0.000000 0.189253 0.761905
0.043037 0.188325 0.760977
0.245065 0.185093 0.757744
0.563348 0.180000 0.752652
0.770998 0.176678 0.749329
0.920866 0.174280 0.746931
1.000000 0.172994 0.745645
1.000000 0.172994 0.745645
0.000000 0.454267 0.747080
0.000000 0.454267 0.747080
0.028211 0.453339 0.746151
0.230240 0.450106 0.742919
0.548523 0.445014 0.737826
0.756173 0.441691 0.734504
0.906040 0.439294 0.732106
0.986421 0.438008 0.730820
0.986421 0.438008 0.730820
0.000000 0.630658 0.737212
0.000000 0.630658 0.737212
0.018344 0.629729 0.736284
0.220372 0.626497 0.733051
0.538655 0.621404 0.727959
0.746305 0.618082 0.724636
0.896173 0.615684 0.722239
0.976553 0.614398 0.720952
0.976553 0.614398 0.720952
0.000000 0.759161 0.730023
0.000000 0.759161 0.730023
0.011155 0.758233 0.729095
0.213184 0.755000 0.725863
0.531467 0.749908 0.720770
0.739116 0.746585 0.717448
0.888984 0.744187 0.715050
0.969365 0.742901 0.713764
0.969365 0.742901 0.713764
0.000000 0.860122 0.724376
0.000000 0.860122 0.724376
0.005507 0.859194 0.723447
0.207536 0.855962 0.720215
0.525819 0.850869 0.715122
0.733468 0.847547 0.711800
0.883336 0.845149 0.709402
0.963717 0.843863 0.708116
0.963717 0.843863 0.708116
0.000000 0.923533 0.720828
0.000000 0.923533 0.720828
0.001960 0.922605 0.719900
0.203989 0.919373 0.716668
0.522271 0.914280 0.711575
0.729921 0.910958 0.708253
0.879789 0.908560 0.705855
0.960169 0.907274 0.704569
0.960169 0.907274 0.704569
0.000000 0.000000 0.874772
0.000000 0.000000 0.874772
0.053307 0.000000 0.873843
0.255336 0.000000 0.870611
0.573619 0.000000 0.865518
0.781269 0.000000 0.862196
0.931136 0.000000 0.859798
1.000000 0.000000 0.858512
1.000000 0.000000 0.858512
0.000000 0.000000 0.874772
0.000000 0.000000 0.874772
0.053307 0.000000 0.873843
0.255336 0.000000 0.870611
0.573619 0.000000 0.865518
0.781269 0.000000 0.862196
0.931136 0.000000 0.859798
1.000000 0.000000 0.858512
1.000000 0.000000 0.858512
0.000000 0.026920 0.873003
0.000000 0.026920 0.873003
0.051538 0.025991 0.872074
0.253567 0.022759 0.868842
0.571850 0.017666 0.863749
0.779500 0.014344 0.860427
0.929367 0.011946 0.858029
1.000000 0.010660 0.856743
1.000000 0.010660 0.856743
0.000000 0.188705 0.863952
0.000000 0.188705 0.863952
0.042488 0.187777 0.863024
0.244517 0.184544 0.859791
0.562799 0.179451 0.854699
0.770449 0.176129 0.851376
0.920317 0.173731 0.848979
1.000000 0.172445 0.847692
1.000000 0.172445 0.847692
0.000000 0.453718 0.849127
0.000000 0.453718 0.849127
0.027663 0.452790 0.848199
0.229691 0.449558 0.844966
0.547974 0.444465 0.839874
0.755624 0.441143 0.836551
0.905492 0.438745 0.834153
0.985872 0.437459 0.832867
0.985872 0.437459 0.832867
0.000000 0.630109 0.839259
0.000000 0.630109 0.839259
0.017795 0.629181 0.838331
0.219824 0.625948 0.835099
0.538107 0.620856 0.830006
0.745756 0.617533 0.826684
0.895624 0.615135 0.824286
0.976004 0.613849 0.823000
0.976004 0.613849 0.823000
0.000000 0.758612 0.832071
0.000000 0.758612 0.832071
0.010607 0.757684 0.831142
0.212635 0.754452 0.827910
0.530918 0.749359 0.822817
0.738568 0.746037 0.819495
0.888435 0.743639 0.817097
0.968816 0.742353 0.815811
0.968816 0.742353 0.815811
0.000000 0.859574 0.826423
0.000000 0.859574 0.826423
0.004959 0.858645 0.825495
0.206987 0.855413 0.822262
0.525270 0.850320 0.817169
0.732920 0.846998 0.813847
0.882788 0.844600 0.811449
0.963168 0.843314 0.810163
0.963168 0.843314 0.810163
0.000000 0.922985 0.822875
0.000000 0.922985 0.822875
0.001411 0.922057 0.821947
0.203440 0.918824 0.818715
0.521723 0.913731 0.813622
0.729372 0.910409 0.810300
0.879240 0.908011 0.807902
0.959621 0.906725 0.806616
0.959621 0.906725 0.806616
0.000000 0.000000 0.938987
0.000000 0.000000 0.938987
0.052962 0.000000 0.938058
0.254991 0.000000 0.934826
0.573274 0.000000 0.929733
0.780923 0.000000 0.926411
0.930791 0.000000 0.924013
1.000000 0.000000 0.922727
1.000000 0.000000 0.922727
0.000000 0.000000 0.938987
0.000000 0.000000 0.938987
0.052962 0.000000 0.938058
0.254991 0.000000 0.934826
0.573274 0.000000 0.929733
0.780923 0.000000 0.926411
0.930791 0.000000 0.924013
1.000000 0.000000 0.922727
1.000000 0.000000 0.922727
0.000000 0.026574 0.937218
0.000000 0.026574 0.937218
0.051193 0.025646 0.936289
0.253222 0.022414 0.933057
0.571505 0.017321 0.927964
0.779154 0.013999 0.924642
0.929022 0.011601 0.922244
1.000000 0.010315 0.920958
1.000000 0.010315 0.920958
0.000000 0.188359 0.928167
0.000000 0.188359 0.928167
0.042143 0.187431 0.927239
0.244171 0.184199 0.924006
0.562454 0.179106 0.918914
0.770104 0.175784 0.915591
0.919972 0.173386 0.913193
1.000000 0.172100 0.911907
1.000000 0.172100 0.911907
0.000000 0.453373 0.913342
0.000000 0.453373 0.913342
0.027317 0.452445 0.912414
0.229346 0.449213 0.909181
0.547629 0.444120 0.904089
0.755279 0.440798 0.900766
0.905146 0.438400 0.898368
0.985527 0.437114 0.897082
0.985527 0.437114 0.897082
0.000000 0.629764 0.903474
0.000000 0.629764 0.903474
0.017450 0.628835 0.902546
0.219479 0.625603 0.899314
0.537761 0.620510 0.894221
0.745411 0.617188 0.890899
0.895279 0.614790 0.888501
0.975659 0.613504 0.887215
0.975659 0.613504 0.887215
0.000000 0.758267 0.896286
0.000000 0.758267 0.896286
0.010261 0.757339 0.895357
0.212290 0.754106 0.892125
0.530573 0.749014 0.887032
0.738222 0.745691 0.883710
0.888090 0.743293 0.881312
0.968471 0.742007 0.880026
0.968471 0.742007 0.880026
0.000000 0.859228 0.890638
0.000000 0.859228 0.890638
0.004613 0.858300 0.889709
0.206642 0.855068 0.886477
0.524925 0.849975 0.881384
0.732575 0.846653 0.878062
0.882442 0.844255 0.875664
0.962823 0.842969 0.874378
0.962823 0.842969 0.874378
0.000000 0.922639 0.887090
0.000000 0.922639 0.887090
0.001066 0.921711 0.886162
0.203095 0.918479 0.882930
0.521378 0.913386 0.877837
0.729027 0.910064 0.874515
0.878895 0.907666 0.872117
0.959275 0.906380 0.870831
0.959275 0.906380 0.870831
