public/luts/dji/lk-dji-warm-film.cube
TITLE "LK DJI Warm Film"
LUT_3D_SIZE 17
DOMAIN_MIN 0.0 0.0 0.0
DOMAIN_MAX 1.0 1.0 1.0
0.025528 0.022832 0.018704
0.025528 0.022832 0.018704
0.025702 0.022836 0.018707
0.040164 0.023098 0.018969
0.080678 0.023833 0.019705
0.150925 0.025109 0.020980
0.254757 0.026993 0.022865
0.396109 0.029559 0.025430
0.519716 0.031803 0.027674
0.612028 0.033478 0.029350
0.689426 0.034883 0.030754
0.754804 0.036070 0.031941
0.810854 0.037087 0.032958
0.860152 0.037982 0.033853
0.905199 0.038800 0.034671
0.925028 0.039160 0.035031
0.925028 0.039160 0.035031
0.025528 0.022832 0.018704
0.025528 0.022832 0.018704
0.025702 0.022836 0.018707
0.040164 0.023098 0.018969
0.080678 0.023833 0.019705
0.150925 0.025109 0.020980
0.254757 0.026993 0.022865
0.396109 0.029559 0.025430
0.519716 0.031803 0.027674
0.612028 0.033478 0.029350
0.689426 0.034883 0.030754
0.754804 0.036070 0.031941
0.810854 0.037087 0.032958
0.860152 0.037982 0.033853
0.905199 0.038800 0.034671
0.925028 0.039160 0.035031
0.925028 0.039160 0.035031
0.025537 0.022993 0.018713
0.025537 0.022993 0.018713
0.025711 0.022996 0.018716
0.040174 0.023258 0.018979
0.080688 0.023994 0.019714
0.150934 0.025269 0.020989
0.254766 0.027154 0.022874
0.396118 0.029719 0.025440
0.519725 0.031963 0.027683
0.612037 0.033639 0.029359
0.689436 0.035043 0.030764
0.754813 0.036230 0.031950
0.810863 0.037247 0.032968
0.860161 0.038142 0.033863
0.905208 0.038960 0.034680
0.925038 0.039320 0.035040
0.925038 0.039320 0.035040
0.026328 0.036504 0.019504
0.026328 0.036504 0.019504
0.026502 0.036507 0.019507
0.040965 0.036770 0.019770
0.081479 0.037505 0.020505
0.151725 0.038780 0.021780
0.255557 0.040665 0.023665
0.396909 0.043231 0.026231
0.520516 0.045474 0.028474
0.612829 0.047150 0.030150
0.690227 0.048555 0.031555
0.755604 0.049742 0.032742
0.811654 0.050759 0.033759
0.860953 0.051654 0.034654
0.905999 0.052472 0.035471
0.925829 0.052831 0.035831
0.925829 0.052831 0.035831
0.028592 0.075170 0.021768
0.028592 0.075170 0.021768
0.028766 0.075174 0.021771
0.043229 0.075436 0.022034
0.083743 0.076172 0.022769
0.153989 0.077447 0.024044
0.257821 0.079331 0.025929
0.399173 0.081897 0.028495
0.522780 0.084141 0.030738
0.615092 0.085816 0.032414
0.692491 0.087221 0.033819
0.757868 0.088408 0.035005
0.813918 0.089425 0.036023
0.863216 0.090320 0.036918
0.908263 0.091138 0.037735
0.928093 0.091498 0.038095
0.928093 0.091498 0.038095
0.032585 0.143362 0.025761
0.032585 0.143362 0.025761
0.032759 0.143366 0.025764
0.047221 0.143628 0.026026
0.087735 0.144363 0.026762
0.157982 0.145639 0.028037
0.261814 0.147523 0.029922
0.403166 0.150089 0.032487
0.526773 0.152333 0.034731
0.619085 0.154008 0.036407
0.696483 0.155413 0.037811
0.761861 0.156600 0.038998
0.817911 0.157617 0.040016
0.867209 0.158512 0.040910
0.912256 0.159330 0.041728
0.932085 0.159690 0.042088
0.932085 0.159690 0.042088
0.038562 0.245455 0.031738
0.038562 0.245455 0.031738
0.038736 0.245458 0.031741
0.053199 0.245720 0.032004
0.093713 0.246456 0.032739
0.163959 0.247731 0.034014
0.267791 0.249615 0.035899
0.409144 0.252181 0.038465
0.532750 0.254425 0.040708
0.625063 0.256100 0.042384
0.702461 0.257505 0.043789
0.767838 0.258692 0.044976
0.823888 0.259709 0.045993
0.873187 0.260604 0.046888
0.918233 0.261422 0.047705
0.938063 0.261782 0.048065
0.938063 0.261782 0.048065
0.046783 0.385858 0.039959
0.046783 0.385858 0.039959
0.046957 0.385861 0.039962
0.061420 0.386124 0.040225
0.101934 0.386859 0.040960
0.172180 0.388134 0.042235
0.276012 0.390019 0.044120
0.417364 0.392585 0.046685
0.540971 0.394828 0.048929
0.633283 0.396504 0.050605
0.710681 0.397909 0.052010
0.776059 0.399096 0.053196
0.832109 0.400113 0.054214
0.881407 0.401008 0.055108
0.926454 0.401825 0.055926
0.946283 0.402185 0.056286
0.946283 0.402185 0.056286
0.054024 0.509525 0.047200
0.054024 0.509525 0.047200
0.054197 0.509528 0.047203
0.068660 0.509791 0.047465
0.109174 0.510526 0.048201
0.179421 0.511801 0.049476
0.283253 0.513686 0.051360
0.424605 0.516252 0.053926
0.548211 0.518495 0.056170
0.640524 0.520171 0.057845
0.717922 0.521576 0.059250
0.783300 0.522763 0.060437
0.839350 0.523780 0.061454
0.888648 0.524675 0.062349
0.933694 0.525492 0.063167
0.953524 0.525852 0.063527
0.953524 0.525852 0.063527
0.059455 0.602290 0.052631
0.059455 0.602290 0.052631
0.059629 0.602293 0.052634
0.074092 0.602556 0.052897
0.114606 0.603291 0.053632
0.184852 0.604566 0.054907
0.288684 0.606451 0.056792
0.430036 0.609017 0.059358
0.553643 0.611260 0.061601
0.645955 0.612936 0.063277
0.723353 0.614341 0.064682
0.788731 0.615527 0.065868
0.844781 0.616545 0.066886
0.894079 0.617440 0.067781
0.939126 0.618257 0.068598
0.958955 0.618617 0.068958
0.958955 0.618617 0.068958
0.064022 0.680291 0.057198
0.064022 0.680291 0.057198
0.064196 0.680295 0.057201
0.078659 0.680557 0.057464
0.119173 0.681292 0.058199
0.189419 0.682568 0.059474
0.293251 0.684452 0.061359
0.434603 0.687018 0.063925
0.558210 0.689262 0.066168
0.650522 0.690937 0.067844
0.727920 0.692342 0.069249
0.793298 0.693529 0.070435
0.849348 0.694546 0.071453
0.898646 0.695441 0.072348
0.943693 0.696259 0.073165
0.963522 0.696619 0.073525
0.963522 0.696619 0.073525
0.067888 0.746319 0.061064
0.067888 0.746319 0.061064
0.068062 0.746322 0.061067
0.082525 0.746585 0.061330
0.123038 0.747320 0.062065
0.193285 0.748595 0.063340
0.297117 0.750480 0.065225
0.438469 0.753046 0.067790
0.562076 0.755289 0.070034
0.654388 0.756965 0.071710
0.731786 0.758370 0.073115
0.797164 0.759556 0.074301
0.853214 0.760574 0.075319
0.902512 0.761469 0.076213
0.947559 0.762286 0.077031
0.967388 0.762646 0.077391
0.967388 0.762646 0.077391
0.071208 0.803020 0.064384
0.071208 0.803020 0.064384
0.071382 0.803023 0.064387
0.085844 0.803286 0.064649
0.126358 0.804021 0.065385
0.196605 0.805296 0.066660
0.300437 0.807181 0.068545
0.441789 0.809747 0.071110
0.565396 0.811990 0.073354
0.657708 0.813666 0.075029
0.735106 0.815071 0.076434
0.800484 0.816257 0.077621
0.856534 0.817275 0.078638
0.905832 0.818170 0.079533
0.950879 0.818987 0.080351
0.970708 0.819347 0.080711
0.970708 0.819347 0.080711
0.074131 0.852957 0.067307
0.074131 0.852957 0.067307
0.074305 0.852960 0.067311
0.088768 0.853222 0.067573
0.129282 0.853958 0.068309
0.199528 0.855233 0.069584
0.303361 0.857118 0.071468
0.444713 0.859683 0.074034
0.568319 0.861927 0.076278
0.660632 0.863602 0.077953
0.738030 0.865007 0.079358
0.803407 0.866194 0.080545
0.859458 0.867211 0.081562
0.908756 0.868106 0.082457
0.953802 0.868924 0.083275
0.973632 0.869284 0.083635
0.973632 0.869284 0.083635
0.076806 0.898638 0.069982
0.076806 0.898638 0.069982
0.076980 0.898641 0.069985
0.091443 0.898903 0.070248
0.131957 0.899639 0.070983
0.202203 0.900914 0.072258
0.306035 0.902799 0.074143
0.447387 0.905364 0.076709
0.570994 0.907608 0.078952
0.663306 0.909284 0.080628
0.740705 0.910688 0.082033
0.806082 0.911875 0.083219
0.862132 0.912893 0.084237
0.911430 0.913787 0.085132
0.956477 0.914605 0.085949
0.976307 0.914965 0.086309
0.976307 0.914965 0.086309
0.079376 0.942535 0.072552
0.079376 0.942535 0.072552
0.079550 0.942538 0.072555
0.094013 0.942801 0.072818
0.134527 0.943536 0.073553
0.204773 0.944811 0.074828
0.308606 0.946696 0.076713
0.449958 0.949262 0.079279
0.573564 0.951505 0.081523
0.665877 0.953181 0.083198
0.743275 0.954586 0.084603
0.808652 0.955773 0.085790
0.864702 0.956790 0.086807
0.914001 0.957685 0.087702
0.959047 0.958502 0.088520
0.978877 0.958862 0.088879
0.978877 0.958862 0.088879
0.080304 0.958373 0.073480
0.080304 0.958373 0.073480
0.080477 0.958376 0.073483
0.094940 0.958639 0.073745
0.135454 0.959374 0.074481
0.205701 0.960649 0.075756
0.309533 0.962534 0.077640
0.450885 0.965100 0.080206
0.574492 0.967343 0.082450
0.666804 0.969019 0.084125
0.744202 0.970424 0.085530
0.809580 0.971610 0.086717
0.865630 0.972628 0.087734
0.914928 0.973523 0.088629
0.959975 0.974340 0.089447
0.979804 0.974700 0.089807
0.979804 0.974700 0.089807
0.025528 0.022832 0.018704
0.025528 0.022832 0.018704
0.025702 0.022836 0.018707
0.040164 0.023098 0.018969
0.080678 0.023833 0.019705
0.150925 0.025109 0.020980
0.254757 0.026993 0.022865
0.396109 0.029559 0.025430
0.519716 0.031803 0.027674
0.612028 0.033478 0.029350
0.689426 0.034883 0.030754
0.754804 0.036070 0.031941
0.810854 0.037087 0.032958
0.860152 0.037982 0.033853
0.905199 0.038800 0.034671
0.925028 0.039160 0.035031
0.925028 0.039160 0.035031
0.025528 0.022832 0.018704
0.025528 0.022832 0.018704
0.025702 0.022836 0.018707
0.040164 0.023098 0.018969
0.080678 0.023833 0.019705
0.150925 0.025109 0.020980
0.254757 0.026993 0.022865
0.396109 0.029559 0.025430
0.519716 0.031803 0.027674
0.612028 0.033478 0.029350
0.689426 0.034883 0.030754
0.754804 0.036070 0.031941
0.810854 0.037087 0.032958
0.860152 0.037982 0.033853
0.905199 0.038800 0.034671
0.925028 0.039160 0.035031
0.925028 0.039160 0.035031
0.025537 0.022993 0.018713
0.025537 0.022993 0.018713
0.025711 0.022996 0.018716
0.040174 0.023258 0.018979
0.080688 0.023994 0.019714
0.150934 0.025269 0.020989
0.254766 0.027154 0.022874
0.396118 0.029719 0.025440
0.519725 0.031963 0.027683
0.612037 0.033639 0.029359
0.689436 0.035043 0.030764
0.754813 0.036230 0.031950
0.810863 0.037247 0.032968
0.860161 0.038142 0.033863
0.905208 0.038960 0.034680
0.925038 0.039320 0.035040
0.925038 0.039320 0.035040
0.026328 0.036504 0.019504
0.026328 0.036504 0.019504
0.026502 0.036507 0.019507
0.040965 0.036770 0.019770
0.081479 0.037505 0.020505
0.151725 0.038780 0.021780
0.255557 0.040665 0.023665
0.396909 0.043231 0.026231
0.520516 0.045474 0.028474
0.612829 0.047150 0.030150
0.690227 0.048555 0.031555
0.755604 0.049742 0.032742
0.811654 0.050759 0.033759
0.860953 0.051654 0.034654
0.905999 0.052472 0.035471
0.925829 0.052831 0.035831
0.925829 0.052831 0.035831
0.028592 0.075170 0.021768
0.028592 0.075170 0.021768
0.028766 0.075174 0.021771
0.043229 0.075436 0.022034
0.083743 0.076172 0.022769
0.153989 0.077447 0.024044
0.257821 0.079331 0.025929
0.399173 0.081897 0.028495
0.522780 0.084141 0.030738
0.615092 0.085816 0.032414
0.692491 0.087221 0.033819
0.757868 0.088408 0.035005
0.813918 0.089425 0.036023
0.863216 0.090320 0.036918
0.908263 0.091138 0.037735
0.928093 0.091498 0.038095
0.928093 0.091498 0.038095
0.032585 0.143362 0.025761
0.032585 0.143362 0.025761
0.032759 0.143366 0.025764
0.047221 0.143628 0.026026
0.087735 0.144363 0.026762
0.157982 0.145639 0.028037
0.261814 0.147523 0.029922
0.403166 0.150089 0.032487
0.526773 0.152333 0.034731
0.619085 0.154008 0.036407
0.696483 0.155413 0.037811
0.761861 0.156600 0.038998
0.817911 0.157617 0.040016
0.867209 0.158512 0.040910
0.912256 0.159330 0.041728
0.932085 0.159690 0.042088
0.932085 0.159690 0.042088
0.038562 0.245455 0.031738
0.038562 0.245455 0.031738
0.038736 0.245458 0.031741
0.053199 0.245720 0.032004
0.093713 0.246456 0.032739
0.163959 0.247731 0.034014
0.267791 0.249615 0.035899
0.409144 0.252181 0.038465
0.532750 0.254425 0.040708
0.625063 0.256100 0.042384
0.702461 0.257505 0.043789
0.767838 0.258692 0.044976
0.823888 0.259709 0.045993
0.873187 0.260604 0.046888
0.918233 0.261422 0.047705
0.938063 0.261782 0.048065
0.938063 0.261782 0.048065
0.046783 0.385858 0.039959
0.046783 0.385858 0.039959
0.046957 0.385861 0.039962
0.061420 0.386124 0.040225
0.101934 0.386859 0.040960
0.172180 0.388134 0.042235
0.276012 0.390019 0.044120
0.417364 0.392585 0.046685
0.540971 0.394828 0.048929
0.633283 0.396504 0.050605
0.710681 0.397909 0.052010
0.776059 0.399096 0.053196
0.832109 0.400113 0.054214
0.881407 0.401008 0.055108
0.926454 0.401825 0.055926
0.946283 0.402185 0.056286
0.946283 0.402185 0.056286
0.054024 0.509525 0.047200
0.054024 0.509525 0.047200
0.054197 0.509528 0.047203
0.068660 0.509791 0.047465
0.109174 0.510526 0.048201
0.179421 0.511801 0.049476
0.283253 0.513686 0.051360
0.424605 0.516252 0.053926
0.548211 0.518495 0.056170
0.640524 0.520171 0.057845
0.717922 0.521576 0.059250
0.783300 0.522763 0.060437
0.839350 0.523780 0.061454
0.888648 0.524675 0.062349
0.933694 0.525492 0.063167
0.953524 0.525852 0.063527
0.953524 0.525852 0.063527
0.059455 0.602290 0.052631
0.059455 0.602290 0.052631
0.059629 0.602293 0.052634
0.074092 0.602556 0.052897
0.114606 0.603291 0.053632
0.184852 0.604566 0.054907
0.288684 0.606451 0.056792
0.430036 0.609017 0.059358
0.553643 0.611260 0.061601
0.645955 0.612936 0.063277
0.723353 0.614341 0.064682
0.788731 0.615527 0.065868
0.844781 0.616545 0.066886
0.894079 0.617440 0.067781
0.939126 0.618257 0.068598
0.958955 0.618617 0.068958
0.958955 0.618617 0.068958
0.064022 0.680291 0.057198
0.064022 0.680291 0.057198
0.064196 0.680295 0.057201
0.078659 0.680557 0.057464
0.119173 0.681292 0.058199
0.189419 0.682568 0.059474
0.293251 0.684452 0.061359
0.434603 0.687018 0.063925
0.558210 0.689262 0.066168
0.650522 0.690937 0.067844
0.727920 0.692342 0.069249
0.793298 0.693529 0.070435
0.849348 0.694546 0.071453
0.898646 0.695441 0.072348
0.943693 0.696259 0.073165
0.963522 0.696619 0.073525
0.963522 0.696619 0.073525
0.067888 0.746319 0.061064
0.067888 0.746319 0.061064
0.068062 0.746322 0.061067
0.082525 0.746585 0.061330
0.123038 0.747320 0.062065
0.193285 0.748595 0.063340
0.297117 0.750480 0.065225
0.438469 0.753046 0.067790
0.562076 0.755289 0.070034
0.654388 0.756965 0.071710
0.731786 0.758370 0.073115
0.797164 0.759556 0.074301
0.853214 0.760574 0.075319
0.902512 0.761469 0.076213
0.947559 0.762286 0.077031
0.967388 0.762646 0.077391
0.967388 0.762646 0.077391
0.071208 0.803020 0.064384
0.071208 0.803020 0.064384
0.071382 0.803023 0.064387
0.085844 0.803286 0.064649
0.126358 0.804021 0.065385
0.196605 0.805296 0.066660
0.300437 0.807181 0.068545
0.441789 0.809747 0.071110
0.565396 0.811990 0.073354
0.657708 0.813666 0.075029
0.735106 0.815071 0.076434
0.800484 0.816257 0.077621
0.856534 0.817275 0.078638
0.905832 0.818170 0.079533
0.950879 0.818987 0.080351
0.970708 0.819347 0.080711
0.970708 0.819347 0.080711
0.074131 0.852957 0.067307
0.074131 0.852957 0.067307
0.074305 0.852960 0.067311
0.088768 0.853222 0.067573
0.129282 0.853958 0.068309
0.199528 0.855233 0.069584
0.303361 0.857118 0.071468
0.444713 0.859683 0.074034
0.568319 0.861927 0.076278
0.660632 0.863602 0.077953
0.738030 0.865007 0.079358
0.803407 0.866194 0.080545
0.859458 0.867211 0.081562
0.908756 0.868106 0.082457
0.953802 0.868924 0.083275
0.973632 0.869284 0.083635
0.973632 0.869284 0.083635
0.076806 0.898638 0.069982
0.076806 0.898638 0.069982
0.076980 0.898641 0.069985
0.091443 0.898903 0.070248
0.131957 0.899639 0.070983
0.202203 0.900914 0.072258
0.306035 0.902799 0.074143
0.447387 0.905364 0.076709
0.570994 0.907608 0.078952
0.663306 0.909284 0.080628
0.740705 0.910688 0.082033
0.806082 0.911875 0.083219
0.862132 0.912893 0.084237
0.911430 0.913787 0.085132
0.956477 0.914605 0.085949
0.976307 0.914965 0.086309
0.976307 0.914965 0.086309
0.079376 0.942535 0.072552
0.079376 0.942535 0.072552
0.079550 0.942538 0.072555
0.094013 0.942801 0.072818
0.134527 0.943536 0.073553
0.204773 0.944811 0.074828
0.308606 0.946696 0.076713
0.449958 0.949262 0.079279
0.573564 0.951505 0.081523
0.665877 0.953181 0.083198
0.743275 0.954586 0.084603
0.808652 0.955773 0.085790
0.864702 0.956790 0.086807
0.914001 0.957685 0.087702
0.959047 0.958502 0.088520
0.978877 0.958862 0.088879
0.978877 0.958862 0.088879
0.080304 0.958373 0.073480
0.080304 0.958373 0.073480
0.080477 0.958376 0.073483
0.094940 0.958639 0.073745
0.135454 0.959374 0.074481
0.205701 0.960649 0.075756
0.309533 0.962534 0.077640
0.450885 0.965100 0.080206
0.574492 0.967343 0.082450
0.666804 0.969019 0.084125
0.744202 0.970424 0.085530
0.809580 0.971610 0.086717
0.865630 0.972628 0.087734
0.914928 0.973523 0.088629
0.959975 0.974340 0.089447
0.979804 0.974700 0.089807
0.979804 0.974700 0.089807
0.025528 0.022832 0.018704
0.025528 0.022832 0.018704
0.025702 0.022836 0.018707
0.040164 0.023098 0.018969
0.080678 0.023833 0.019705
0.150925 0.025109 0.020980
0.254757 0.026993 0.022865
0.396109 0.029559 0.025430
0.519716 0.031803 0.027674
0.612028 0.033478 0.029350
0.689426 0.034883 0.030754
0.754804 0.036070 0.031941
0.810854 0.037087 0.032958
0.860152 0.037982 0.033853
0.905199 0.038800 0.034671
0.925028 0.039160 0.035031
0.925028 0.039160 0.035031
0.025528 0.022832 0.018704
0.025528 0.022832 0.018704
0.025702 0.022836 0.018707
0.040164 0.023098 0.018969
0.080678 0.023833 0.019705
0.150925 0.025109 0.020980
0.254757 0.026993 0.022865
0.396109 0.029559 0.025430
0.519716 0.031803 0.027674
0.612028 0.033478 0.029350
0.689426 0.034883 0.030754
0.754804 0.036070 0.031941
0.810854 0.037087 0.032958
0.860152 0.037982 0.033853
0.905199 0.038800 0.034671
0.925028 0.039160 0.035031
0.925028 0.039160 0.035031
0.025537 0.022993 0.018713
0.025537 0.022993 0.018713
0.025711 0.022996 0.018716
0.040174 0.023258 0.018979
0.080688 0.023994 0.019714
0.150934 0.025269 0.020989
0.254766 0.027154 0.022874
0.396118 0.029719 0.025440
0.519725 0.031963 0.027683
0.612037 0.033639 0.029359
0.689436 0.035043 0.030764
0.754813 0.036230 0.031950
0.810863 0.037247 0.032968
0.860161 0.038142 0.033863
0.905208 0.038960 0.034680
0.925038 0.039320 0.035040
0.925038 0.039320 0.035040
0.026328 0.036504 0.019504
0.026328 0.036504 0.019504
0.026502 0.036507 0.019507
0.040965 0.036770 0.019770
0.081479 0.037505 0.020505
0.151725 0.038780 0.021780
0.255557 0.040665 0.023665
0.396909 0.043231 0.026231
0.520516 0.045474 0.028474
0.612829 0.047150 0.030150
0.690227 0.048555 0.031555
0.755604 0.049742 0.032742
0.811654 0.050759 0.033759
0.860953 0.051654 0.034654
0.905999 0.052472 0.035471
0.925829 0.052831 0.035831
0.925829 0.052831 0.035831
0.028592 0.075170 0.021768
0.028592 0.075170 0.021768
0.028766 0.075174 0.021771
0.043229 0.075436 0.022034
0.083743 0.076172 0.022769
0.153989 0.077447 0.024044
0.257821 0.079331 0.025929
0.399173 0.081897 0.028495
0.522780 0.084141 0.030738
0.615092 0.085816 0.032414
0.692491 0.087221 0.033819
0.757868 0.088408 0.035005
0.813918 0.089425 0.036023
0.863216 0.090320 0.036918
0.908263 0.091138 0.037735
0.928093 0.091498 0.038095
0.928093 0.091498 0.038095
0.032585 0.143362 0.025761
0.032585 0.143362 0.025761
0.032759 0.143366 0.025764
0.047221 0.143628 0.026026
0.087735 0.144363 0.026762
0.157982 0.145639 0.028037
0.261814 0.147523 0.029922
0.403166 0.150089 0.032487
0.526773 0.152333 0.034731
0.619085 0.154008 0.036407
0.696483 0.155413 0.037811
0.761861 0.156600 0.038998
0.817911 0.157617 0.040016
0.867209 0.158512 0.040910
0.912256 0.159330 0.041728
0.932085 0.159690 0.042088
0.932085 0.159690 0.042088
0.038562 0.245455 0.031738
0.038562 0.245455 0.031738
0.038736 0.245458 0.031741
0.053199 0.245720 0.032004
0.093713 0.246456 0.032739
0.163959 0.247731 0.034014
0.267791 0.249615 0.035899
0.409144 0.252181 0.038465
0.532750 0.254425 0.040708
0.625063 0.256100 0.042384
0.702461 0.257505 0.043789
0.767838 0.258692 0.044976
0.823888 0.259709 0.045993
0.873187 0.260604 0.046888
0.918233 0.261422 0.047705
0.938063 0.261782 0.048065
0.938063 0.261782 0.048065
0.046783 0.385858 0.039959
0.046783 0.385858 0.039959
0.046957 0.385861 0.039962
0.061420 0.386124 0.040225
0.101934 0.386859 0.040960
0.172180 0.388134 0.042235
0.276012 0.390019 0.044120
0.417364 0.392585 0.046685
0.540971 0.394828 0.048929
0.633283 0.396504 0.050605
0.710681 0.397909 0.052010
0.776059 0.399096 0.053196
0.832109 0.400113 0.054214
0.881407 0.401008 0.055108
0.926454 0.401825 0.055926
0.946283 0.402185 0.056286
0.946283 0.402185 0.056286
0.054024 0.509525 0.047200
0.054024 0.509525 0.047200
0.054197 0.509528 0.047203
0.068660 0.509791 0.047465
0.109174 0.510526 0.048201
0.179421 0.511801 0.049476
0.283253 0.513686 0.051360
0.424605 0.516252 0.053926
0.548211 0.518495 0.056170
0.640524 0.520171 0.057845
0.717922 0.521576 0.059250
0.783300 0.522763 0.060437
0.839350 0.523780 0.061454
0.888648 0.524675 0.062349
0.933694 0.525492 0.063167
0.953524 0.525852 0.063527
0.953524 0.525852 0.063527
0.059455 0.602290 0.052631
0.059455 0.602290 0.052631
0.059629 0.602293 0.052634
0.074092 0.602556 0.052897
0.114606 0.603291 0.053632
0.184852 0.604566 0.054907
0.288684 0.606451 0.056792
0.430036 0.609017 0.059358
0.553643 0.611260 0.061601
0.645955 0.612936 0.063277
0.723353 0.614341 0.064682
0.788731 0.615527 0.065868
0.844781 0.616545 0.066886
0.894079 0.617440 0.067781
0.939126 0.618257 0.068598
0.958955 0.618617 0.068958
0.958955 0.618617 0.068958
0.064022 0.680291 0.057198
0.064022 0.680291 0.057198
0.064196 0.680295 0.057201
0.078659 0.680557 0.057464
0.119173 0.681292 0.058199
0.189419 0.682568 0.059474
0.293251 0.684452 0.061359
0.434603 0.687018 0.063925
0.558210 0.689262 0.066168
0.650522 0.690937 0.067844
0.727920 0.692342 0.069249
0.793298 0.693529 0.070435
0.849348 0.694546 0.071453
0.898646 0.695441 0.072348
0.943693 0.696259 0.073165
0.963522 0.696619 0.073525
0.963522 0.696619 0.073525
0.067888 0.746319 0.061064
0.067888 0.746319 0.061064
0.068062 0.746322 0.061067
0.082525 0.746585 0.061330
0.123038 0.747320 0.062065
0.193285 0.748595 0.063340
0.297117 0.750480 0.065225
0.438469 0.753046 0.067790
0.562076 0.755289 0.070034
0.654388 0.756965 0.071710
0.731786 0.758370 0.073115
0.797164 0.759556 0.074301
0.853214 0.760574 0.075319
0.902512 0.761469 0.076213
0.947559 0.762286 0.077031
0.967388 0.762646 0.077391
0.967388 0.762646 0.077391
0.071208 0.803020 0.064384
0.071208 0.803020 0.064384
0.071382 0.803023 0.064387
0.085844 0.803286 0.064649
0.126358 0.804021 0.065385
0.196605 0.805296 0.066660
0.300437 0.807181 0.068545
0.441789 0.809747 0.071110
0.565396 0.811990 0.073354
0.657708 0.813666 0.075029
0.735106 0.815071 0.076434
0.800484 0.816257 0.077621
0.856534 0.817275 0.078638
0.905832 0.818170 0.079533
0.950879 0.818987 0.080351
0.970708 0.819347 0.080711
0.970708 0.819347 0.080711
0.074131 0.852957 0.067307
0.074131 0.852957 0.067307
0.074305 0.852960 0.067311
0.088768 0.853222 0.067573
0.129282 0.853958 0.068309
0.199528 0.855233 0.069584
0.303361 0.857118 0.071468
0.444713 0.859683 0.074034
0.568319 0.861927 0.076278
0.660632 0.863602 0.077953
0.738030 0.865007 0.079358
0.803407 0.866194 0.080545
0.859458 0.867211 0.081562
0.908756 0.868106 0.082457
0.953802 0.868924 0.083275
0.973632 0.869284 0.083635
0.973632 0.869284 0.083635
0.076806 0.898638 0.069982
0.076806 0.898638 0.069982
0.076980 0.898641 0.069985
0.091443 0.898903 0.070248
0.131957 0.899639 0.070983
0.202203 0.900914 0.072258
0.306035 0.902799 0.074143
0.447387 0.905364 0.076709
0.570994 0.907608 0.078952
0.663306 0.909284 0.080628
0.740705 0.910688 0.082033
0.806082 0.911875 0.083219
0.862132 0.912893 0.084237
0.911430 0.913787 0.085132
0.956477 0.914605 0.085949
0.976307 0.914965 0.086309
0.976307 0.914965 0.086309
0.079376 0.942535 0.072552
0.079376 0.942535 0.072552
0.079550 0.942538 0.072555
0.094013 0.942801 0.072818
0.134527 0.943536 0.073553
0.204773 0.944811 0.074828
0.308606 0.946696 0.076713
0.449958 0.949262 0.079279
0.573564 0.951505 0.081523
0.665877 0.953181 0.083198
0.743275 0.954586 0.084603
0.808652 0.955773 0.085790
0.864702 0.956790 0.086807
0.914001 0.957685 0.087702
0.959047 0.958502 0.088520
0.978877 0.958862 0.088879
0.978877 0.958862 0.088879
0.080304 0.958373 0.073480
0.080304 0.958373 0.073480
0.080477 0.958376 0.073483
0.094940 0.958639 0.073745
0.135454 0.959374 0.074481
0.205701 0.960649 0.075756
0.309533 0.962534 0.077640
0.450885 0.965100 0.080206
0.574492 0.967343 0.082450
0.666804 0.969019 0.084125
0.744202 0.970424 0.085530
0.809580 0.971610 0.086717
0.865630 0.972628 0.087734
0.914928 0.973523 0.088629
0.959975 0.974340 0.089447
0.979804 0.974700 0.089807
0.979804 0.974700 0.089807
0.025547 0.022852 0.021800
0.025547 0.022852 0.021800
0.025721 0.022855 0.021803
0.040184 0.023117 0.022066
0.080698 0.023853 0.022801
0.150944 0.025128 0.024076
0.254776 0.027013 0.025961
0.396128 0.029578 0.028527
0.519735 0.031822 0.030770
0.612047 0.033498 0.032446
0.689445 0.034902 0.033851
0.754823 0.036089 0.035038
0.810873 0.037107 0.036055
0.860171 0.038001 0.036950
0.905218 0.038819 0.037767
0.925048 0.039179 0.038127
0.925048 0.039179 0.038127
0.025547 0.022852 0.021800
