public/luts/dji/lk-dji-sunset.cube
TITLE "LK DJI Sunset"
LUT_3D_SIZE 5
DOMAIN_MIN 0.0 0.0 0.0
DOMAIN_MAX 1.0 1.0 1.0
0.000000 0.000000 0.001525
0.058003 0.000000 0.000597
0.578314 0.000000 0.000000
0.935832 0.000000 0.000000
1.000000 0.000000 0.000000
0.000000 0.031615 0.000000
0.056234 0.030687 0.000000
0.576545 0.022362 0.000000
0.934063 0.016641 0.000000
1.000000 0.015355 0.000000
0.000000 0.458414 0.000000
0.032358 0.457486 0.000000
0.552670 0.449161 0.000000
0.910187 0.443440 0.000000
0.990567 0.442154 0.000000
0.000000 0.763308 0.000000
0.015302 0.762379 0.000000
0.535613 0.754054 0.000000
0.893131 0.748334 0.000000
0.973511 0.747048 0.000000
0.000000 0.927680 0.000000
0.006107 0.926752 0.000000
0.526418 0.918427 0.000000
0.883936 0.912707 0.000000
0.964316 0.911420 0.000000
0.000000 0.000000 0.045463
0.057767 0.000000 0.044535
0.578078 0.000000 0.036210
0.935596 0.000000 0.030490
1.000000 0.000000 0.029204
0.000000 0.031379 0.043694
0.055998 0.030451 0.042766
0.576309 0.022126 0.034441
0.933827 0.016405 0.028721
1.000000 0.015119 0.027435
0.000000 0.458178 0.019818
0.032122 0.457249 0.018890
0.552433 0.448924 0.010565
0.909951 0.443204 0.004845
0.990331 0.441918 0.003559
0.000000 0.763071 0.002762
0.015066 0.762143 0.001834
0.535377 0.753818 0.000000
0.892895 0.748098 0.000000
0.973275 0.746812 0.000000
0.000000 0.927444 0.000000
0.005870 0.926516 0.000000
0.526182 0.918191 0.000000
0.883699 0.912470 0.000000
0.964080 0.911184 0.000000
0.000000 0.000000 0.466319
0.055504 0.000000 0.465390
0.575815 0.000000 0.457065
0.933333 0.000000 0.451345
1.000000 0.000000 0.450059
0.000000 0.029116 0.464550
0.053735 0.028188 0.463621
0.574046 0.019863 0.455296
0.931564 0.014142 0.449576
1.000000 0.012856 0.448290
0.000000 0.455915 0.440674
0.029859 0.454986 0.439746
0.550170 0.446661 0.431421
0.907688 0.440941 0.425700
0.988068 0.439655 0.424414
0.000000 0.760808 0.423618
0.012803 0.759880 0.422690
0.533114 0.751555 0.414364
0.890632 0.745835 0.408644
0.971012 0.744549 0.407358
0.000000 0.925181 0.414422
0.003607 0.924253 0.413494
0.523919 0.915928 0.405169
0.881436 0.910207 0.399449
0.961817 0.908921 0.398163
0.000000 0.000000 0.772724
0.053856 0.000000 0.771796
0.574168 0.000000 0.763471
0.931685 0.000000 0.757751
1.000000 0.000000 0.756465
0.000000 0.027468 0.770955
0.052087 0.026540 0.770027
0.572399 0.018215 0.761702
0.929916 0.012495 0.755982
1.000000 0.011209 0.754696
0.000000 0.454267 0.747080
0.028211 0.453339 0.746151
0.548523 0.445014 0.737826
0.906040 0.439294 0.732106
0.986421 0.438008 0.730820
0.000000 0.759161 0.730023
0.011155 0.758233 0.729095
0.531467 0.749908 0.720770
0.888984 0.744187 0.715050
0.969365 0.742901 0.713764
0.000000 0.923533 0.720828
0.001960 0.922605 0.719900
0.522271 0.914280 0.711575
0.879789 0.908560 0.705855
0.960169 0.907274 0.704569
0.000000 0.000000 0.938987
0.052962 0.000000 0.938058
0.573274 0.000000 0.929733
0.930791 0.000000 0.924013
1.000000 0.000000 0.922727
0.000000 0.026574 0.937218
0.051193 0.025646 0.936289
0.571505 0.017321 0.927964
0.929022 0.011601 0.922244
1.000000 0.010315 0.920958
0.000000 0.453373 0.913342
0.027317 0.452445 0.912414
0.547629 0.444120 0.904089
0.905146 0.438400 0.898368
0.985527 0.437114 0.897082
0.000000 0.758267 0.896286
0.010261 0.757339 0.895357
0.530573 0.749014 0.887032
0.888090 0.743293 0.881312
0.968471 0.742007 0.880026
0.000000 0.922639 0.887090
0.001066 0.921711 0.886162
0.521378 0.913386 0.877837
0.878895 0.907666 0.872117
0.959275 0.906380 0.870831
