public/luts/dji/lk-dji-pastel.cube
TITLE "LK DJI Pastel"
LUT_3D_SIZE 17
DOMAIN_MIN 0.0 0.0 0.0
DOMAIN_MAX 1.0 1.0 1.0
0.073460 0.074174 0.077025
0.073460 0.074174 0.077025
0.073576 0.074183 0.077034
0.083422 0.074935 0.077786
0.111887 0.077109 0.079959
0.162215 0.080952 0.083803
0.237236 0.086681 0.089532
0.339669 0.094503 0.097354
0.429289 0.101347 0.104198
0.496205 0.106457 0.109308
0.552293 0.110740 0.113591
0.599656 0.114357 0.117208
0.640250 0.117457 0.120308
0.675945 0.120183 0.123033
0.708555 0.122673 0.125524
0.739854 0.125063 0.127914
0.741668 0.125201 0.128052
0.073460 0.074174 0.077025
0.073460 0.074174 0.077025
0.073576 0.074183 0.077034
0.083422 0.074935 0.077786
0.111887 0.077109 0.079959
0.162215 0.080952 0.083803
0.237236 0.086681 0.089532
0.339669 0.094503 0.097354
0.429289 0.101347 0.104198
0.496205 0.106457 0.109308
0.552293 0.110740 0.113591
0.599656 0.114357 0.117208
0.640250 0.117457 0.120308
0.675945 0.120183 0.123033
0.708555 0.122673 0.125524
0.739854 0.125063 0.127914
0.741668 0.125201 0.128052
0.073489 0.074308 0.077054
0.073489 0.074308 0.077054
0.073605 0.074317 0.077063
0.083451 0.075069 0.077815
0.111916 0.077243 0.079989
0.162244 0.081086 0.083832
0.237265 0.086815 0.089561
0.339698 0.094637 0.097383
0.429318 0.101481 0.104227
0.496234 0.106591 0.109337
0.552323 0.110874 0.113620
0.599685 0.114491 0.117237
0.640279 0.117591 0.120337
0.675975 0.120317 0.123063
0.708584 0.122807 0.125553
0.739883 0.125197 0.127943
0.741697 0.125336 0.128081
0.075966 0.085692 0.079532
0.075966 0.085692 0.079532
0.076082 0.085701 0.079540
0.085929 0.086453 0.080292
0.114393 0.088627 0.082466
0.164721 0.092470 0.086309
0.239743 0.098199 0.092038
0.342175 0.106021 0.099860
0.431795 0.112865 0.106704
0.498712 0.117975 0.111814
0.554800 0.122258 0.116097
0.602162 0.125875 0.119714
0.642757 0.128975 0.122814
0.678452 0.131701 0.125540
0.711061 0.134191 0.128030
0.742360 0.136581 0.130420
0.744175 0.136720 0.130559
0.083132 0.118621 0.086697
0.083132 0.118621 0.086697
0.083248 0.118630 0.086706
0.093094 0.119381 0.087458
0.121559 0.121555 0.089631
0.171887 0.125398 0.093475
0.246908 0.131127 0.099204
0.349341 0.138950 0.107026
0.438961 0.145793 0.113870
0.505877 0.150903 0.118980
0.561965 0.155186 0.123263
0.609328 0.158803 0.126880
0.649922 0.161903 0.129979
0.685617 0.164629 0.132705
0.718227 0.167119 0.135196
0.749526 0.169509 0.137586
0.751340 0.169648 0.137724
0.095808 0.176876 0.099374
0.095808 0.176876 0.099374
0.095925 0.176885 0.099383
0.105771 0.177637 0.100135
0.134236 0.179810 0.102308
0.184564 0.183654 0.106152
0.259585 0.189383 0.111881
0.362018 0.197205 0.119703
0.451637 0.204049 0.126546
0.518554 0.209159 0.131656
0.574642 0.213442 0.135940
0.622005 0.217059 0.139556
0.662599 0.220158 0.142656
0.698294 0.222884 0.145382
0.730904 0.225374 0.147872
0.762202 0.227765 0.150262
0.764017 0.227903 0.150401
0.114713 0.263751 0.118279
0.114713 0.263751 0.118279
0.114829 0.263760 0.118288
0.124676 0.264512 0.119039
0.153140 0.266685 0.121213
0.203468 0.270529 0.125056
0.278490 0.276258 0.130785
0.380922 0.284080 0.138607
0.470542 0.290924 0.145451
0.537459 0.296034 0.150561
0.593547 0.300317 0.154844
0.640910 0.303934 0.158461
0.681504 0.307033 0.161561
0.717199 0.309759 0.164287
0.749809 0.312249 0.166777
0.781107 0.314640 0.169167
0.782922 0.314778 0.169306
0.140532 0.382399 0.144098
0.140532 0.382399 0.144098
0.140648 0.382408 0.144106
0.150495 0.383160 0.144858
0.178959 0.385334 0.147032
0.229287 0.389177 0.150875
0.304309 0.394906 0.156604
0.406741 0.402728 0.164426
0.496361 0.409572 0.171270
0.563278 0.414682 0.176380
0.619366 0.418965 0.180663
0.666728 0.422582 0.184280
0.707323 0.425682 0.187380
0.743018 0.428407 0.190106
0.775627 0.430898 0.192596
0.806926 0.433288 0.194986
0.808741 0.433426 0.195125
0.163125 0.486221 0.166690
0.163125 0.486221 0.166690
0.163241 0.486229 0.166699
0.173087 0.486981 0.167451
0.201552 0.489155 0.169624
0.251880 0.492998 0.173468
0.326901 0.498727 0.179197
0.429334 0.506549 0.187019
0.518954 0.513393 0.193863
0.585870 0.518503 0.198973
0.641958 0.522786 0.203256
0.689321 0.526403 0.206873
0.729915 0.529503 0.209973
0.765610 0.532229 0.212698
0.798220 0.534719 0.215189
0.829519 0.537109 0.217579
0.831333 0.537248 0.217717
0.179995 0.563746 0.183560
0.179995 0.563746 0.183560
0.180111 0.563755 0.183569
0.189958 0.564507 0.184321
0.218422 0.566681 0.186495
0.268750 0.570524 0.190338
0.343771 0.576253 0.196067
0.446204 0.584075 0.203889
0.535824 0.590919 0.210733
0.602741 0.596029 0.215843
0.658829 0.600312 0.220126
0.706191 0.603929 0.223743
0.746785 0.607029 0.226843
0.782481 0.609755 0.229569
0.815090 0.612245 0.232059
0.846389 0.614635 0.234449
0.848204 0.614774 0.234588
0.194136 0.628729 0.197701
0.194136 0.628729 0.197701
0.194252 0.628738 0.197710
0.204098 0.629490 0.198462
0.232563 0.631664 0.200636
0.282891 0.635507 0.204479
0.357912 0.641236 0.210208
0.460345 0.649058 0.218030
0.549965 0.655902 0.224874
0.616881 0.661012 0.229984
0.672969 0.665295 0.234267
0.720332 0.668912 0.237884
0.760926 0.672012 0.240984
0.796622 0.674737 0.243709
0.829231 0.677228 0.246200
0.860530 0.679618 0.248590
0.862344 0.679756 0.248728
0.206077 0.683604 0.209642
0.206077 0.683604 0.209642
0.206193 0.683613 0.209651
0.216040 0.684365 0.210403
0.244504 0.686538 0.212577
0.294832 0.690382 0.216420
0.369854 0.696111 0.222149
0.472286 0.703933 0.229971
0.561906 0.710777 0.236815
0.628823 0.715887 0.241925
0.684911 0.720170 0.246208
0.732273 0.723787 0.249825
0.772868 0.726886 0.252925
0.808563 0.729612 0.255651
0.841172 0.732102 0.258141
0.872471 0.734493 0.260531
0.874286 0.734631 0.260670
0.216312 0.730638 0.219877
0.216312 0.730638 0.219877
0.216428 0.730647 0.219886
0.226275 0.731399 0.220638
0.254739 0.733572 0.222812
0.305067 0.737415 0.226655
0.380088 0.743144 0.232384
0.482521 0.750967 0.240206
0.572141 0.757810 0.247050
0.639058 0.762920 0.252160
0.695146 0.767204 0.256443
0.742508 0.770820 0.260060
0.783103 0.773920 0.263160
0.818798 0.776646 0.265886
0.851407 0.779136 0.268376
0.882706 0.781526 0.270766
0.884521 0.781665 0.270905
0.225312 0.771996 0.228877
0.225312 0.771996 0.228877
0.225428 0.772005 0.228886
0.235275 0.772757 0.229638
0.263739 0.774930 0.231812
0.314067 0.778774 0.235655
0.389088 0.784503 0.241384
0.491521 0.792325 0.249206
0.581141 0.799169 0.256050
0.648058 0.804279 0.261160
0.704146 0.808562 0.265443
0.751508 0.812179 0.269060
0.792102 0.815278 0.272160
0.827798 0.818004 0.274886
0.860407 0.820495 0.277376
0.891706 0.822885 0.279766
0.893521 0.823023 0.279905
0.233534 0.809779 0.237099
0.233534 0.809779 0.237099
0.233650 0.809788 0.237108
0.243497 0.810540 0.237860
0.271961 0.812714 0.240034
0.322289 0.816557 0.243877
0.397310 0.822286 0.249606
0.499743 0.830108 0.257428
0.589363 0.836952 0.264272
0.656280 0.842062 0.269382
0.712368 0.846345 0.273665
0.759730 0.849962 0.277282
0.800324 0.853062 0.280382
0.836020 0.855788 0.283108
0.868629 0.858278 0.285598
0.899928 0.860668 0.287988
0.901743 0.860807 0.288127
0.241426 0.846044 0.244991
0.241426 0.846044 0.244991
0.241542 0.846053 0.245000
0.251388 0.846805 0.245752
0.279853 0.848979 0.247925
0.330181 0.852822 0.251769
0.405202 0.858551 0.257498
0.507635 0.866373 0.265320
0.597254 0.873217 0.272163
0.664171 0.878327 0.277273
0.720259 0.882610 0.281557
0.767622 0.886227 0.285173
0.808216 0.889327 0.288273
0.843911 0.892052 0.290999
0.876521 0.894543 0.293489
0.907819 0.896933 0.295879
0.909634 0.897071 0.296018
0.244271 0.859118 0.247836
0.244271 0.859118 0.247836
0.244387 0.859127 0.247845
0.254233 0.859879 0.248597
0.282698 0.862053 0.250770
0.333026 0.865896 0.254614
0.408047 0.871625 0.260343
0.510480 0.879447 0.268165
0.600099 0.886291 0.275008
0.667016 0.891401 0.280119
0.723104 0.895684 0.284402
0.770467 0.899301 0.288018
0.811061 0.902401 0.291118
0.846756 0.905127 0.293844
0.879366 0.907617 0.296334
0.910664 0.910007 0.298725
0.912479 0.910145 0.298863
0.073460 0.074174 0.077025
0.073460 0.074174 0.077025
0.073576 0.074183 0.077034
0.083422 0.074935 0.077786
0.111887 0.077109 0.079959
0.162215 0.080952 0.083803
0.237236 0.086681 0.089532
0.339669 0.094503 0.097354
0.429289 0.101347 0.104198
0.496205 0.106457 0.109308
0.552293 0.110740 0.113591
0.599656 0.114357 0.117208
0.640250 0.117457 0.120308
0.675945 0.120183 0.123033
0.708555 0.122673 0.125524
0.739854 0.125063 0.127914
0.741668 0.125201 0.128052
0.073460 0.074174 0.077025
0.073460 0.074174 0.077025
0.073576 0.074183 0.077034
0.083422 0.074935 0.077786
0.111887 0.077109 0.079959
0.162215 0.080952 0.083803
0.237236 0.086681 0.089532
0.339669 0.094503 0.097354
0.429289 0.101347 0.104198
0.496205 0.106457 0.109308
0.552293 0.110740 0.113591
0.599656 0.114357 0.117208
0.640250 0.117457 0.120308
0.675945 0.120183 0.123033
0.708555 0.122673 0.125524
0.739854 0.125063 0.127914
0.741668 0.125201 0.128052
0.073489 0.074308 0.077054
0.073489 0.074308 0.077054
0.073605 0.074317 0.077063
0.083451 0.075069 0.077815
0.111916 0.077243 0.079989
0.162244 0.081086 0.083832
0.237265 0.086815 0.089561
0.339698 0.094637 0.097383
0.429318 0.101481 0.104227
0.496234 0.106591 0.109337
0.552323 0.110874 0.113620
0.599685 0.114491 0.117237
0.640279 0.117591 0.120337
0.675975 0.120317 0.123063
0.708584 0.122807 0.125553
0.739883 0.125197 0.127943
0.741697 0.125336 0.128081
0.075966 0.085692 0.079532
0.075966 0.085692 0.079532
0.076082 0.085701 0.079540
0.085929 0.086453 0.080292
0.114393 0.088627 0.082466
0.164721 0.092470 0.086309
0.239743 0.098199 0.092038
0.342175 0.106021 0.099860
0.431795 0.112865 0.106704
0.498712 0.117975 0.111814
0.554800 0.122258 0.116097
0.602162 0.125875 0.119714
0.642757 0.128975 0.122814
0.678452 0.131701 0.125540
0.711061 0.134191 0.128030
0.742360 0.136581 0.130420
0.744175 0.136720 0.130559
0.083132 0.118621 0.086697
0.083132 0.118621 0.086697
0.083248 0.118630 0.086706
0.093094 0.119381 0.087458
0.121559 0.121555 0.089631
0.171887 0.125398 0.093475
0.246908 0.131127 0.099204
0.349341 0.138950 0.107026
0.438961 0.145793 0.113870
0.505877 0.150903 0.118980
0.561965 0.155186 0.123263
0.609328 0.158803 0.126880
0.649922 0.161903 0.129979
0.685617 0.164629 0.132705
0.718227 0.167119 0.135196
0.749526 0.169509 0.137586
0.751340 0.169648 0.137724
0.095808 0.176876 0.099374
0.095808 0.176876 0.099374
0.095925 0.176885 0.099383
0.105771 0.177637 0.100135
0.134236 0.179810 0.102308
0.184564 0.183654 0.106152
0.259585 0.189383 0.111881
0.362018 0.197205 0.119703
0.451637 0.204049 0.126546
0.518554 0.209159 0.131656
0.574642 0.213442 0.135940
0.622005 0.217059 0.139556
0.662599 0.220158 0.142656
0.698294 0.222884 0.145382
0.730904 0.225374 0.147872
0.762202 0.227765 0.150262
0.764017 0.227903 0.150401
0.114713 0.263751 0.118279
0.114713 0.263751 0.118279
0.114829 0.263760 0.118288
0.124676 0.264512 0.119039
0.153140 0.266685 0.121213
0.203468 0.270529 0.125056
0.278490 0.276258 0.130785
0.380922 0.284080 0.138607
0.470542 0.290924 0.145451
0.537459 0.296034 0.150561
0.593547 0.300317 0.154844
0.640910 0.303934 0.158461
0.681504 0.307033 0.161561
0.717199 0.309759 0.164287
0.749809 0.312249 0.166777
0.781107 0.314640 0.169167
0.782922 0.314778 0.169306
0.140532 0.382399 0.144098
0.140532 0.382399 0.144098
0.140648 0.382408 0.144106
0.150495 0.383160 0.144858
0.178959 0.385334 0.147032
0.229287 0.389177 0.150875
0.304309 0.394906 0.156604
0.406741 0.402728 0.164426
0.496361 0.409572 0.171270
0.563278 0.414682 0.176380
0.619366 0.418965 0.180663
0.666728 0.422582 0.184280
0.707323 0.425682 0.187380
0.743018 0.428407 0.190106
0.775627 0.430898 0.192596
0.806926 0.433288 0.194986
0.808741 0.433426 0.195125
0.163125 0.486221 0.166690
0.163125 0.486221 0.166690
0.163241 0.486229 0.166699
0.173087 0.486981 0.167451
0.201552 0.489155 0.169624
0.251880 0.492998 0.173468
0.326901 0.498727 0.179197
0.429334 0.506549 0.187019
0.518954 0.513393 0.193863
0.585870 0.518503 0.198973
0.641958 0.522786 0.203256
0.689321 0.526403 0.206873
0.729915 0.529503 0.209973
0.765610 0.532229 0.212698
0.798220 0.534719 0.215189
0.829519 0.537109 0.217579
0.831333 0.537248 0.217717
0.179995 0.563746 0.183560
0.179995 0.563746 0.183560
0.180111 0.563755 0.183569
0.189958 0.564507 0.184321
0.218422 0.566681 0.186495
0.268750 0.570524 0.190338
0.343771 0.576253 0.196067
0.446204 0.584075 0.203889
0.535824 0.590919 0.210733
0.602741 0.596029 0.215843
0.658829 0.600312 0.220126
0.706191 0.603929 0.223743
0.746785 0.607029 0.226843
0.782481 0.609755 0.229569
0.815090 0.612245 0.232059
0.846389 0.614635 0.234449
0.848204 0.614774 0.234588
0.194136 0.628729 0.197701
0.194136 0.628729 0.197701
0.194252 0.628738 0.197710
0.204098 0.629490 0.198462
0.232563 0.631664 0.200636
0.282891 0.635507 0.204479
0.357912 0.641236 0.210208
0.460345 0.649058 0.218030
0.549965 0.655902 0.224874
0.616881 0.661012 0.229984
0.672969 0.665295 0.234267
0.720332 0.668912 0.237884
0.760926 0.672012 0.240984
0.796622 0.674737 0.243709
0.829231 0.677228 0.246200
0.860530 0.679618 0.248590
0.862344 0.679756 0.248728
0.206077 0.683604 0.209642
0.206077 0.683604 0.209642
0.206193 0.683613 0.209651
0.216040 0.684365 0.210403
0.244504 0.686538 0.212577
0.294832 0.690382 0.216420
0.369854 0.696111 0.222149
0.472286 0.703933 0.229971
0.561906 0.710777 0.236815
0.628823 0.715887 0.241925
0.684911 0.720170 0.246208
0.732273 0.723787 0.249825
0.772868 0.726886 0.252925
0.808563 0.729612 0.255651
0.841172 0.732102 0.258141
0.872471 0.734493 0.260531
0.874286 0.734631 0.260670
0.216312 0.730638 0.219877
0.216312 0.730638 0.219877
0.216428 0.730647 0.219886
0.226275 0.731399 0.220638
0.254739 0.733572 0.222812
0.305067 0.737415 0.226655
0.380088 0.743144 0.232384
0.482521 0.750967 0.240206
0.572141 0.757810 0.247050
0.639058 0.762920 0.252160
0.695146 0.767204 0.256443
0.742508 0.770820 0.260060
0.783103 0.773920 0.263160
0.818798 0.776646 0.265886
0.851407 0.779136 0.268376
0.882706 0.781526 0.270766
0.884521 0.781665 0.270905
0.225312 0.771996 0.228877
0.225312 0.771996 0.228877
0.225428 0.772005 0.228886
0.235275 0.772757 0.229638
0.263739 0.774930 0.231812
0.314067 0.778774 0.235655
0.389088 0.784503 0.241384
0.491521 0.792325 0.249206
0.581141 0.799169 0.256050
0.648058 0.804279 0.261160
0.704146 0.808562 0.265443
0.751508 0.812179 0.269060
0.792102 0.815278 0.272160
0.827798 0.818004 0.274886
0.860407 0.820495 0.277376
0.891706 0.822885 0.279766
0.893521 0.823023 0.279905
0.233534 0.809779 0.237099
0.233534 0.809779 0.237099
0.233650 0.809788 0.237108
0.243497 0.810540 0.237860
0.271961 0.812714 0.240034
0.322289 0.816557 0.243877
0.397310 0.822286 0.249606
0.499743 0.830108 0.257428
0.589363 0.836952 0.264272
0.656280 0.842062 0.269382
0.712368 0.846345 0.273665
0.759730 0.849962 0.277282
0.800324 0.853062 0.280382
0.836020 0.855788 0.283108
0.868629 0.858278 0.285598
0.899928 0.860668 0.287988
0.901743 0.860807 0.288127
0.241426 0.846044 0.244991
0.241426 0.846044 0.244991
0.241542 0.846053 0.245000
0.251388 0.846805 0.245752
0.279853 0.848979 0.247925
0.330181 0.852822 0.251769
0.405202 0.858551 0.257498
0.507635 0.866373 0.265320
0.597254 0.873217 0.272163
0.664171 0.878327 0.277273
0.720259 0.882610 0.281557
0.767622 0.886227 0.285173
0.808216 0.889327 0.288273
0.843911 0.892052 0.290999
0.876521 0.894543 0.293489
0.907819 0.896933 0.295879
0.909634 0.897071 0.296018
0.244271 0.859118 0.247836
0.244271 0.859118 0.247836
0.244387 0.859127 0.247845
0.254233 0.859879 0.248597
0.282698 0.862053 0.250770
0.333026 0.865896 0.254614
0.408047 0.871625 0.260343
0.510480 0.879447 0.268165
0.600099 0.886291 0.275008
0.667016 0.891401 0.280119
0.723104 0.895684 0.284402
0.770467 0.899301 0.288018
0.811061 0.902401 0.291118
0.846756 0.905127 0.293844
0.879366 0.907617 0.296334
0.910664 0.910007 0.298725
0.912479 0.910145 0.298863
0.073463 0.074177 0.077135
0.073463 0.074177 0.077135
0.073579 0.074186 0.077144
0.083425 0.074938 0.077895
0.111890 0.077112 0.080069
0.162218 0.080955 0.083912
0.237239 0.086684 0.089641
0.339672 0.094506 0.097464
0.429292 0.101350 0.104307
0.496208 0.106460 0.109417
0.552296 0.110743 0.113700
0.599659 0.114360 0.117317
0.640253 0.117460 0.120417
0.675948 0.120186 0.123143
0.708558 0.122676 0.125633
0.739857 0.125066 0.128023
0.741671 0.125204 0.128162
0.073463 0.074177 0.077135
0.073463 0.074177 0.077135
0.073579 0.074186 0.077144
0.083425 0.074938 0.077895
0.111890 0.077112 0.080069
0.162218 0.080955 0.083912
0.237239 0.086684 0.089641
0.339672 0.094506 0.097464
0.429292 0.101350 0.104307
0.496208 0.106460 0.109417
0.552296 0.110743 0.113700
0.599659 0.114360 0.117317
0.640253 0.117460 0.120417
0.675948 0.120186 0.123143
0.708558 0.122676 0.125633
0.739857 0.125066 0.128023
0.741671 0.125204 0.128162
0.073492 0.074311 0.077164
0.073492 0.074311 0.077164
0.073608 0.074320 0.077173
0.083454 0.075072 0.077925
0.111919 0.077246 0.080098
0.162247 0.081089 0.083942
0.237268 0.086818 0.089671
0.339701 0.094640 0.097493
0.429321 0.101484 0.104336
0.496237 0.106594 0.109446
0.552326 0.110877 0.113730
0.599688 0.114494 0.117346
0.640282 0.117594 0.120446
0.675978 0.120320 0.123172
0.708587 0.122810 0.125662
0.739886 0.125200 0.128052
0.741700 0.125339 0.128191
0.075969 0.085695 0.079641
0.075969 0.085695 0.079641
0.076085 0.085704 0.079650
0.085932 0.086456 0.080402
0.114396 0.088630 0.082576
0.164724 0.092473 0.086419
0.239746 0.098202 0.092148
0.342178 0.106024 0.099970
0.431798 0.112868 0.106814
0.498715 0.117978 0.111924
0.554803 0.122261 0.116207
0.602165 0.125878 0.119824
0.642760 0.128978 0.122924
0.678455 0.131704 0.125649
0.711064 0.134194 0.128140
0.742363 0.136584 0.130530
0.744178 0.136723 0.130668
0.083135 0.118624 0.086807
0.083135 0.118624 0.086807
0.083251 0.118633 0.086815
0.093097 0.119384 0.087567
0.121562 0.121558 0.089741
0.171890 0.125401 0.093584
0.246911 0.131130 0.099313
0.349344 0.138953 0.107135
0.438964 0.145796 0.113979
0.505880 0.150906 0.119089
0.561968 0.155189 0.123372
0.609331 0.158806 0.126989
0.649925 0.161906 0.130089
0.685620 0.164632 0.132815
0.718230 0.167122 0.135305
0.749529 0.169512 0.137695
0.751343 0.169651 0.137834
0.095811 0.176879 0.099484
0.095811 0.176879 0.099484
0.095928 0.176888 0.099492
0.105774 0.177640 0.100244
0.134239 0.179813 0.102418
0.184567 0.183657 0.106261
0.259588 0.189386 0.111990
0.362021 0.197208 0.119812
0.451640 0.204052 0.126656
0.518557 0.209162 0.131766
0.574645 0.213445 0.136049
0.622008 0.217062 0.139666
0.662602 0.220161 0.142766
0.698297 0.222887 0.145492
0.730907 0.225377 0.147982
0.762205 0.227768 0.150372
0.764020 0.227906 0.150511
0.114716 0.263754 0.118388
0.114716 0.263754 0.118388
0.114832 0.263763 0.118397
0.124679 0.264515 0.119149
0.153143 0.266688 0.121323
0.203471 0.270532 0.125166
0.278493 0.276261 0.130895
0.380925 0.284083 0.138717
0.470545 0.290927 0.145561
0.537462 0.296037 0.150671
0.593550 0.300320 0.154954
0.640913 0.303937 0.158571
0.681507 0.307036 0.161671
0.717202 0.309762 0.164397
0.749812 0.312252 0.166887
0.781110 0.314643 0.169277
0.782925 0.314781 0.169415
0.140535 0.382402 0.144207
0.140535 0.382402 0.144207
0.140651 0.382411 0.144216
0.150498 0.383163 0.144968
0.178962 0.385337 0.147142
0.229290 0.389180 0.150985
0.304312 0.394909 0.156714
0.406744 0.402731 0.164536
0.496364 0.409575 0.171380
0.563281 0.414685 0.176490
0.619369 0.418968 0.180773
0.666731 0.422585 0.184390
0.707326 0.425685 0.187490
0.743021 0.428410 0.190216
0.775630 0.430901 0.192706
0.806929 0.433291 0.195096
0.808744 0.433429 0.195234
0.163128 0.486224 0.166800
0.163128 0.486224 0.166800
0.163244 0.486232 0.166809
0.173090 0.486984 0.167560
0.201555 0.489158 0.169734
0.251883 0.493001 0.173577
0.326904 0.498730 0.179306
0.429337 0.506552 0.187129
0.518957 0.513396 0.193972
0.585873 0.518506 0.199082
0.641961 0.522789 0.203365
0.689324 0.526406 0.206982
0.729918 0.529506 0.210082
0.765613 0.532232 0.212808
0.798223 0.534722 0.215298
0.829522 0.537112 0.217688
0.831336 0.537251 0.217827
0.179998 0.563749 0.183670
0.179998 0.563749 0.183670
0.180114 0.563758 0.183679
0.189961 0.564510 0.184431
0.218425 0.566684 0.186604
0.268753 0.570527 0.190448
0.343774 0.576256 0.196177
0.446207 0.584078 0.203999
0.535827 0.590922 0.210843
0.602744 0.596032 0.215953
0.658832 0.600315 0.220236
0.706194 0.603932 0.223853
0.746788 0.607032 0.226952
0.782484 0.609758 0.229678
0.815093 0.612248 0.232169
0.846392 0.614638 0.234559
0.848207 0.614777 0.234697
0.194139 0.628732 0.197811
0.194139 0.628732 0.197811
0.194255 0.628741 0.197820
0.204101 0.629493 0.198572
0.232566 0.631667 0.200745
0.282894 0.635510 0.204589
0.357915 0.641239 0.210317
0.460348 0.649061 0.218140
0.549968 0.655905 0.224983
0.616884 0.661015 0.230093
0.672972 0.665298 0.234377
0.720335 0.668915 0.237993
0.760929 0.672015 0.241093
0.796625 0.674740 0.243819
0.829234 0.677231 0.246309
0.860533 0.679621 0.248699
0.862347 0.679759 0.248838
0.206080 0.683607 0.209752
0.206080 0.683607 0.209752
0.206196 0.683616 0.209761
0.216043 0.684368 0.210513
0.244507 0.686541 0.212687
0.294835 0.690385 0.216530
0.369856 0.696114 0.222259
0.472289 0.703936 0.230081
0.561909 0.710780 0.236925
0.628826 0.715890 0.242035
0.684914 0.720173 0.246318
0.732276 0.723789 0.249935
0.772871 0.726889 0.253035
0.808566 0.729615 0.255760
0.841175 0.732105 0.258251
0.872474 0.734496 0.260641
0.874289 0.734634 0.260779
0.216315 0.730641 0.219987
0.216315 0.730641 0.219987
0.216431 0.730650 0.219996
0.226278 0.731402 0.220748
0.254742 0.733575 0.222922
0.305070 0.737418 0.226765
0.380091 0.743147 0.232494
0.482524 0.750970 0.240316
0.572144 0.757813 0.247160
0.639061 0.762923 0.252270
0.695149 0.767206 0.256553
0.742511 0.770823 0.260170
0.783106 0.773923 0.263270
0.818801 0.776649 0.265995
0.851410 0.779139 0.268486
0.882709 0.781529 0.270876
0.884524 0.781668 0.271014
0.225315 0.771999 0.228987
0.225315 0.771999 0.228987
0.225431 0.772008 0.228996
0.235278 0.772760 0.229748
0.263742 0.774933 0.231921
0.314070 0.778777 0.235765
0.389091 0.784506 0.241494
0.491524 0.792328 0.249316
0.581144 0.799172 0.256160
0.648061 0.804282 0.261270
0.704149 0.808565 0.265553
0.751511 0.812182 0.269170
0.792105 0.815281 0.272269
0.827801 0.818007 0.274995
0.860410 0.820498 0.277485
0.891709 0.822888 0.279876
0.893524 0.823026 0.280014
0.233537 0.809782 0.237209
0.233537 0.809782 0.237209
0.233653 0.809791 0.237218
0.243500 0.810543 0.237970
0.271964 0.812717 0.240143
0.322292 0.816560 0.243987
0.397313 0.822289 0.249716
0.499746 0.830111 0.257538
0.589366 0.836955 0.264382
0.656283 0.842065 0.269492
0.712371 0.846348 0.273775
0.759733 0.849965 0.277392
0.800327 0.853065 0.280491
0.836023 0.855791 0.283217
0.868632 0.858281 0.285707
0.899931 0.860671 0.288098
0.901746 0.860810 0.288236
0.241429 0.846047 0.245101
0.241429 0.846047 0.245101
0.241545 0.846056 0.245109
0.251391 0.846808 0.245861
0.279856 0.848982 0.248035
0.330184 0.852825 0.251878
0.405205 0.858554 0.257607
0.507638 0.866376 0.265429
0.597257 0.873220 0.272273
0.664174 0.878330 0.277383
0.720262 0.882613 0.281666
0.767625 0.886230 0.285283
0.808219 0.889330 0.288383
0.843914 0.892055 0.291109
0.876524 0.894546 0.293599
0.907822 0.896936 0.295989
0.909637 0.897074 0.296128
0.244274 0.859121 0.247946
0.244274 0.859121 0.247946
0.244390 0.859130 0.247954
0.254236 0.859882 0.248706
0.282701 0.862056 0.250880
0.333029 0.865899 0.254723
0.408050 0.871628 0.260452
0.510483 0.879450 0.268274
0.600102 0.886294 0.275118
0.667019 0.891404 0.280228
0.723107 0.895687 0.284511
0.770470 0.899304 0.288128
0.811064 0.902404 0.291228
0.846759 0.905130 0.293954
0.879369 0.907620 0.296444
0.910667 0.910010 0.298834
0.912482 0.910148 0.298973
0.073717 0.074431 0.086440
0.073717 0.074431 0.086440
0.073833 0.074440 0.086449
0.083679 0.075192 0.087201
0.112144 0.077366 0.089374
0.162472 0.081209 0.093217
0.237493 0.086938 0.098946
0.339926 0.094760 0.106769
0.429546 0.101604 0.113612
0.496462 0.106714 0.118722
0.552550 0.110997 0.123006
0.599913 0.114614 0.126622
0.640507 0.117714 0.129722
0.676203 0.120440 0.132448
0.708812 0.122930 0.134938
0.740111 0.125320 0.137328
0.741925 0.125459 0.137467
0.073717 0.074431 0.086440
