public/luts/dji/lk-dji-fuji.cube
TITLE "LK DJI Fuji"
LUT_3D_SIZE 17
DOMAIN_MIN 0.0 0.0 0.0
DOMAIN_MAX 1.0 1.0 1.0
0.015243 0.019591 0.021638
0.015243 0.019591 0.021638
0.015387 0.019593 0.021640
0.027622 0.019700 0.021747
0.063209 0.020013 0.022059
0.127170 0.020574 0.022621
0.224540 0.021429 0.023476
0.360359 0.022622 0.024669
0.481233 0.023683 0.025730
0.572483 0.024484 0.026531
0.649534 0.025161 0.027208
0.714961 0.025735 0.027782
0.771282 0.026230 0.028277
0.820981 0.026666 0.028713
0.866520 0.027066 0.029113
0.910345 0.027451 0.029498
0.926172 0.027590 0.029637
0.015243 0.019591 0.021638
0.015243 0.019591 0.021638
0.015387 0.019593 0.021640
0.027622 0.019700 0.021747
0.063209 0.020013 0.022059
0.127170 0.020574 0.022621
0.224540 0.021429 0.023476
0.360359 0.022622 0.024669
0.481233 0.023683 0.025730
0.572483 0.024484 0.026531
0.649534 0.025161 0.027208
0.714961 0.025735 0.027782
0.771282 0.026230 0.028277
0.820981 0.026666 0.028713
0.866520 0.027066 0.029113
0.910345 0.027451 0.029498
0.926172 0.027590 0.029637
0.015248 0.019751 0.021643
0.015248 0.019751 0.021643
0.015392 0.019753 0.021644
0.027626 0.019860 0.021752
0.063214 0.020172 0.022064
0.127175 0.020734 0.022626
0.224544 0.021589 0.023481
0.360364 0.022782 0.024673
0.481237 0.023843 0.025735
0.572488 0.024644 0.026536
0.649538 0.025321 0.027212
0.714965 0.025895 0.027787
0.771287 0.026390 0.028281
0.820986 0.026826 0.028718
0.866525 0.027226 0.029118
0.910350 0.027611 0.029502
0.926177 0.027750 0.029641
0.015639 0.033256 0.022034
0.015639 0.033256 0.022034
0.015783 0.033257 0.022035
0.028017 0.033364 0.022142
0.063605 0.033677 0.022455
0.127565 0.034238 0.023016
0.224935 0.035093 0.023871
0.360755 0.036286 0.025064
0.481628 0.037347 0.026125
0.572878 0.038148 0.026927
0.649929 0.038825 0.027603
0.715356 0.039399 0.028178
0.771677 0.039894 0.028672
0.821377 0.040330 0.029109
0.866916 0.040730 0.029508
0.910741 0.041115 0.029893
0.926567 0.041254 0.030032
0.016766 0.072204 0.023161
0.016766 0.072204 0.023161
0.016910 0.072205 0.023162
0.029144 0.072312 0.023269
0.064732 0.072625 0.023582
0.128693 0.073187 0.024144
0.226062 0.074042 0.024999
0.361882 0.075234 0.026191
0.482755 0.076295 0.027252
0.574006 0.077097 0.028054
0.651056 0.077773 0.028730
0.716483 0.078348 0.029305
0.772805 0.078842 0.029799
0.822504 0.079279 0.030236
0.868043 0.079678 0.030635
0.911868 0.080063 0.031020
0.927694 0.080202 0.031159
0.018776 0.141662 0.025171
0.018776 0.141662 0.025171
0.018920 0.141663 0.025172
0.031154 0.141770 0.025279
0.066742 0.142083 0.025592
0.130703 0.142645 0.026153
0.228072 0.143500 0.027008
0.363892 0.144692 0.028201
0.484765 0.145753 0.029262
0.576015 0.146555 0.030064
0.653066 0.147231 0.030740
0.718493 0.147806 0.031315
0.774814 0.148300 0.031809
0.824514 0.148737 0.032246
0.870053 0.149136 0.032645
0.913878 0.149521 0.033030
0.929704 0.149660 0.033169
0.021816 0.246741 0.028211
0.021816 0.246741 0.028211
0.021961 0.246742 0.028213
0.034195 0.246849 0.028320
0.069783 0.247162 0.028633
0.133743 0.247724 0.029194
0.231113 0.248579 0.030049
0.366933 0.249771 0.031242
0.487806 0.250832 0.032303
0.579056 0.251634 0.033104
0.656107 0.252310 0.033781
0.721534 0.252885 0.034355
0.777855 0.253379 0.034850
0.827555 0.253816 0.035286
0.873094 0.254215 0.035686
0.916918 0.254600 0.036071
0.932745 0.254739 0.036210
0.026036 0.392566 0.032431
0.026036 0.392566 0.032431
0.026180 0.392568 0.032433
0.038415 0.392675 0.032540
0.074002 0.392988 0.032852
0.137963 0.393549 0.033414
0.235333 0.394404 0.034269
0.371152 0.395597 0.035462
0.492026 0.396658 0.036523
0.583276 0.397459 0.037324
0.660327 0.398136 0.038001
0.725754 0.398710 0.038575
0.782075 0.399205 0.039070
0.831774 0.399641 0.039506
0.877313 0.400041 0.039906
0.921138 0.400426 0.040291
0.936965 0.400565 0.040430
0.029778 0.521868 0.036173
0.029778 0.521868 0.036173
0.029922 0.521869 0.036174
0.042156 0.521977 0.036282
0.077744 0.522289 0.036594
0.141705 0.522851 0.037156
0.239074 0.523706 0.038011
0.374894 0.524898 0.039203
0.495767 0.525960 0.040265
0.587018 0.526761 0.041066
0.664068 0.527437 0.041742
0.729495 0.528012 0.042317
0.785817 0.528506 0.042811
0.835516 0.528943 0.043248
0.881055 0.529343 0.043648
0.924880 0.529727 0.044032
0.940707 0.529866 0.044171
0.032596 0.619261 0.038991
0.032596 0.619261 0.038991
0.032740 0.619263 0.038993
0.044975 0.619370 0.039100
0.080562 0.619683 0.039413
0.144523 0.620244 0.039974
0.241893 0.621099 0.040829
0.377712 0.622292 0.042022
0.498586 0.623353 0.043083
0.589836 0.624154 0.043884
0.666887 0.624831 0.044561
0.732314 0.625405 0.045135
0.788635 0.625900 0.045630
0.838334 0.626336 0.046066
0.883873 0.626736 0.046466
0.927698 0.627121 0.046851
0.943525 0.627260 0.046990
0.034972 0.701378 0.041368
0.034972 0.701378 0.041368
0.035117 0.701379 0.041369
0.047351 0.701486 0.041476
0.082939 0.701799 0.041789
0.146899 0.702360 0.042350
0.244269 0.703215 0.043205
0.380089 0.704408 0.044398
0.500962 0.705469 0.045459
0.592212 0.706271 0.046260
0.669263 0.706947 0.046937
0.734690 0.707522 0.047511
0.791011 0.708016 0.048006
0.840711 0.708452 0.048442
0.886250 0.708852 0.048842
0.930075 0.709237 0.049227
0.945901 0.709376 0.049366
0.036988 0.771030 0.043383
0.036988 0.771030 0.043383
0.037132 0.771031 0.043384
0.049367 0.771138 0.043492
0.084954 0.771451 0.043804
0.148915 0.772012 0.044366
0.246284 0.772867 0.045221
0.382104 0.774060 0.046413
0.502977 0.775121 0.047475
0.594228 0.775922 0.048276
0.671278 0.776599 0.048953
0.736705 0.777174 0.049527
0.793027 0.777668 0.050022
0.842726 0.778104 0.050458
0.888265 0.778504 0.050858
0.932090 0.778889 0.051243
0.947917 0.779028 0.051382
0.038722 0.830937 0.045117
0.038722 0.830937 0.045117
0.038866 0.830938 0.045118
0.051100 0.831046 0.045225
0.086688 0.831358 0.045538
0.150649 0.831920 0.046100
0.248018 0.832775 0.046954
0.383838 0.833967 0.048147
0.504711 0.835029 0.049208
0.595961 0.835830 0.050010
0.673012 0.836507 0.050686
0.738439 0.837081 0.051261
0.794760 0.837576 0.051755
0.844460 0.838012 0.052192
0.889999 0.838412 0.052591
0.933824 0.838797 0.052976
0.949650 0.838936 0.053115
0.040250 0.883765 0.046645
0.040250 0.883765 0.046645
0.040395 0.883766 0.046647
0.052629 0.883874 0.046754
0.088217 0.884186 0.047067
0.152177 0.884748 0.047628
0.249547 0.885603 0.048483
0.385367 0.886795 0.049676
0.506240 0.887857 0.050737
0.597490 0.888658 0.051538
0.674541 0.889334 0.052215
0.739968 0.889909 0.052789
0.796289 0.890403 0.053284
0.845989 0.890840 0.053720
0.891528 0.891240 0.054120
0.935352 0.891624 0.054505
0.951179 0.891763 0.054644
0.041650 0.932142 0.048045
0.041650 0.932142 0.048045
0.041794 0.932144 0.048047
0.054029 0.932251 0.048154
0.089616 0.932564 0.048467
0.153577 0.933125 0.049028
0.250947 0.933980 0.049883
0.386766 0.935173 0.051076
0.507640 0.936234 0.052137
0.598890 0.937035 0.052938
0.675941 0.937712 0.053615
0.741368 0.938286 0.054189
0.797689 0.938781 0.054684
0.847389 0.939217 0.055120
0.892927 0.939617 0.055520
0.936752 0.940002 0.055905
0.952579 0.940141 0.056044
0.042729 0.969411 0.049124
0.042729 0.969411 0.049124
0.042873 0.969412 0.049125
0.055107 0.969520 0.049233
0.090695 0.969832 0.049545
0.154656 0.970394 0.050107
0.252025 0.971249 0.050962
0.387845 0.972441 0.052154
0.508718 0.973503 0.053215
0.599969 0.974304 0.054017
0.677019 0.974980 0.054693
0.742446 0.975555 0.055268
0.798768 0.976049 0.055762
0.848467 0.976486 0.056199
0.894006 0.976886 0.056599
0.937831 0.977270 0.056983
0.953657 0.977409 0.057122
0.042729 0.969411 0.049124
0.042729 0.969411 0.049124
0.042873 0.969412 0.049125
0.055107 0.969520 0.049233
0.090695 0.969832 0.049545
0.154656 0.970394 0.050107
0.252025 0.971249 0.050962
0.387845 0.972441 0.052154
0.508718 0.973503 0.053215
0.599969 0.974304 0.054017
0.677019 0.974980 0.054693
0.742446 0.975555 0.055268
0.798768 0.976049 0.055762
0.848467 0.976486 0.056199
0.894006 0.976886 0.056599
0.937831 0.977270 0.056983
0.953657 0.977409 0.057122
0.015243 0.019591 0.021638
0.015243 0.019591 0.021638
0.015387 0.019593 0.021640
0.027622 0.019700 0.021747
0.063209 0.020013 0.022059
0.127170 0.020574 0.022621
0.224540 0.021429 0.023476
0.360359 0.022622 0.024669
0.481233 0.023683 0.025730
0.572483 0.024484 0.026531
0.649534 0.025161 0.027208
0.714961 0.025735 0.027782
0.771282 0.026230 0.028277
0.820981 0.026666 0.028713
0.866520 0.027066 0.029113
0.910345 0.027451 0.029498
0.926172 0.027590 0.029637
0.015243 0.019591 0.021638
0.015243 0.019591 0.021638
0.015387 0.019593 0.021640
0.027622 0.019700 0.021747
0.063209 0.020013 0.022059
0.127170 0.020574 0.022621
0.224540 0.021429 0.023476
0.360359 0.022622 0.024669
0.481233 0.023683 0.025730
0.572483 0.024484 0.026531
0.649534 0.025161 0.027208
0.714961 0.025735 0.027782
0.771282 0.026230 0.028277
0.820981 0.026666 0.028713
0.866520 0.027066 0.029113
0.910345 0.027451 0.029498
0.926172 0.027590 0.029637
0.015248 0.019751 0.021643
0.015248 0.019751 0.021643
0.015392 0.019753 0.021644
0.027626 0.019860 0.021752
0.063214 0.020172 0.022064
0.127175 0.020734 0.022626
0.224544 0.021589 0.023481
0.360364 0.022782 0.024673
0.481237 0.023843 0.025735
0.572488 0.024644 0.026536
0.649538 0.025321 0.027212
0.714965 0.025895 0.027787
0.771287 0.026390 0.028281
0.820986 0.026826 0.028718
0.866525 0.027226 0.029118
0.910350 0.027611 0.029502
0.926177 0.027750 0.029641
0.015639 0.033256 0.022034
0.015639 0.033256 0.022034
0.015783 0.033257 0.022035
0.028017 0.033364 0.022142
0.063605 0.033677 0.022455
0.127565 0.034238 0.023016
0.224935 0.035093 0.023871
0.360755 0.036286 0.025064
0.481628 0.037347 0.026125
0.572878 0.038148 0.026927
0.649929 0.038825 0.027603
0.715356 0.039399 0.028178
0.771677 0.039894 0.028672
0.821377 0.040330 0.029109
0.866916 0.040730 0.029508
0.910741 0.041115 0.029893
0.926567 0.041254 0.030032
0.016766 0.072204 0.023161
0.016766 0.072204 0.023161
0.016910 0.072205 0.023162
0.029144 0.072312 0.023269
0.064732 0.072625 0.023582
0.128693 0.073187 0.024144
0.226062 0.074042 0.024999
0.361882 0.075234 0.026191
0.482755 0.076295 0.027252
0.574006 0.077097 0.028054
0.651056 0.077773 0.028730
0.716483 0.078348 0.029305
0.772805 0.078842 0.029799
0.822504 0.079279 0.030236
0.868043 0.079678 0.030635
0.911868 0.080063 0.031020
0.927694 0.080202 0.031159
0.018776 0.141662 0.025171
0.018776 0.141662 0.025171
0.018920 0.141663 0.025172
0.031154 0.141770 0.025279
0.066742 0.142083 0.025592
0.130703 0.142645 0.026153
0.228072 0.143500 0.027008
0.363892 0.144692 0.028201
0.484765 0.145753 0.029262
0.576015 0.146555 0.030064
0.653066 0.147231 0.030740
0.718493 0.147806 0.031315
0.774814 0.148300 0.031809
0.824514 0.148737 0.032246
0.870053 0.149136 0.032645
0.913878 0.149521 0.033030
0.929704 0.149660 0.033169
0.021816 0.246741 0.028211
0.021816 0.246741 0.028211
0.021961 0.246742 0.028213
0.034195 0.246849 0.028320
0.069783 0.247162 0.028633
0.133743 0.247724 0.029194
0.231113 0.248579 0.030049
0.366933 0.249771 0.031242
0.487806 0.250832 0.032303
0.579056 0.251634 0.033104
0.656107 0.252310 0.033781
0.721534 0.252885 0.034355
0.777855 0.253379 0.034850
0.827555 0.253816 0.035286
0.873094 0.254215 0.035686
0.916918 0.254600 0.036071
0.932745 0.254739 0.036210
0.026036 0.392566 0.032431
0.026036 0.392566 0.032431
0.026180 0.392568 0.032433
0.038415 0.392675 0.032540
0.074002 0.392988 0.032852
0.137963 0.393549 0.033414
0.235333 0.394404 0.034269
0.371152 0.395597 0.035462
0.492026 0.396658 0.036523
0.583276 0.397459 0.037324
0.660327 0.398136 0.038001
0.725754 0.398710 0.038575
0.782075 0.399205 0.039070
0.831774 0.399641 0.039506
0.877313 0.400041 0.039906
0.921138 0.400426 0.040291
0.936965 0.400565 0.040430
0.029778 0.521868 0.036173
0.029778 0.521868 0.036173
0.029922 0.521869 0.036174
0.042156 0.521977 0.036282
0.077744 0.522289 0.036594
0.141705 0.522851 0.037156
0.239074 0.523706 0.038011
0.374894 0.524898 0.039203
0.495767 0.525960 0.040265
0.587018 0.526761 0.041066
0.664068 0.527437 0.041742
0.729495 0.528012 0.042317
0.785817 0.528506 0.042811
0.835516 0.528943 0.043248
0.881055 0.529343 0.043648
0.924880 0.529727 0.044032
0.940707 0.529866 0.044171
0.032596 0.619261 0.038991
0.032596 0.619261 0.038991
0.032740 0.619263 0.038993
0.044975 0.619370 0.039100
0.080562 0.619683 0.039413
0.144523 0.620244 0.039974
0.241893 0.621099 0.040829
0.377712 0.622292 0.042022
0.498586 0.623353 0.043083
0.589836 0.624154 0.043884
0.666887 0.624831 0.044561
0.732314 0.625405 0.045135
0.788635 0.625900 0.045630
0.838334 0.626336 0.046066
0.883873 0.626736 0.046466
0.927698 0.627121 0.046851
0.943525 0.627260 0.046990
0.034972 0.701378 0.041368
0.034972 0.701378 0.041368
0.035117 0.701379 0.041369
0.047351 0.701486 0.041476
0.082939 0.701799 0.041789
0.146899 0.702360 0.042350
0.244269 0.703215 0.043205
0.380089 0.704408 0.044398
0.500962 0.705469 0.045459
0.592212 0.706271 0.046260
0.669263 0.706947 0.046937
0.734690 0.707522 0.047511
0.791011 0.708016 0.048006
0.840711 0.708452 0.048442
0.886250 0.708852 0.048842
0.930075 0.709237 0.049227
0.945901 0.709376 0.049366
0.036988 0.771030 0.043383
0.036988 0.771030 0.043383
0.037132 0.771031 0.043384
0.049367 0.771138 0.043492
0.084954 0.771451 0.043804
0.148915 0.772012 0.044366
0.246284 0.772867 0.045221
0.382104 0.774060 0.046413
0.502977 0.775121 0.047475
0.594228 0.775922 0.048276
0.671278 0.776599 0.048953
0.736705 0.777174 0.049527
0.793027 0.777668 0.050022
0.842726 0.778104 0.050458
0.888265 0.778504 0.050858
0.932090 0.778889 0.051243
0.947917 0.779028 0.051382
0.038722 0.830937 0.045117
0.038722 0.830937 0.045117
0.038866 0.830938 0.045118
0.051100 0.831046 0.045225
0.086688 0.831358 0.045538
0.150649 0.831920 0.046100
0.248018 0.832775 0.046954
0.383838 0.833967 0.048147
0.504711 0.835029 0.049208
0.595961 0.835830 0.050010
0.673012 0.836507 0.050686
0.738439 0.837081 0.051261
0.794760 0.837576 0.051755
0.844460 0.838012 0.052192
0.889999 0.838412 0.052591
0.933824 0.838797 0.052976
0.949650 0.838936 0.053115
0.040250 0.883765 0.046645
0.040250 0.883765 0.046645
0.040395 0.883766 0.046647
0.052629 0.883874 0.046754
0.088217 0.884186 0.047067
0.152177 0.884748 0.047628
0.249547 0.885603 0.048483
0.385367 0.886795 0.049676
0.506240 0.887857 0.050737
0.597490 0.888658 0.051538
0.674541 0.889334 0.052215
0.739968 0.889909 0.052789
0.796289 0.890403 0.053284
0.845989 0.890840 0.053720
0.891528 0.891240 0.054120
0.935352 0.891624 0.054505
0.951179 0.891763 0.054644
0.041650 0.932142 0.048045
0.041650 0.932142 0.048045
0.041794 0.932144 0.048047
0.054029 0.932251 0.048154
0.089616 0.932564 0.048467
0.153577 0.933125 0.049028
0.250947 0.933980 0.049883
0.386766 0.935173 0.051076
0.507640 0.936234 0.052137
0.598890 0.937035 0.052938
0.675941 0.937712 0.053615
0.741368 0.938286 0.054189
0.797689 0.938781 0.054684
0.847389 0.939217 0.055120
0.892927 0.939617 0.055520
0.936752 0.940002 0.055905
0.952579 0.940141 0.056044
0.042729 0.969411 0.049124
0.042729 0.969411 0.049124
0.042873 0.969412 0.049125
0.055107 0.969520 0.049233
0.090695 0.969832 0.049545
0.154656 0.970394 0.050107
0.252025 0.971249 0.050962
0.387845 0.972441 0.052154
0.508718 0.973503 0.053215
0.599969 0.974304 0.054017
0.677019 0.974980 0.054693
0.742446 0.975555 0.055268
0.798768 0.976049 0.055762
0.848467 0.976486 0.056199
0.894006 0.976886 0.056599
0.937831 0.977270 0.056983
0.953657 0.977409 0.057122
0.042729 0.969411 0.049124
0.042729 0.969411 0.049124
0.042873 0.969412 0.049125
0.055107 0.969520 0.049233
0.090695 0.969832 0.049545
0.154656 0.970394 0.050107
0.252025 0.971249 0.050962
0.387845 0.972441 0.052154
0.508718 0.973503 0.053215
0.599969 0.974304 0.054017
0.677019 0.974980 0.054693
0.742446 0.975555 0.055268
0.798768 0.976049 0.055762
0.848467 0.976486 0.056199
0.894006 0.976886 0.056599
0.937831 0.977270 0.056983
0.953657 0.977409 0.057122
0.015244 0.019592 0.021796
0.015244 0.019592 0.021796
0.015388 0.019593 0.021798
0.027622 0.019701 0.021905
0.063210 0.020013 0.022218
0.127171 0.020575 0.022779
0.224540 0.021430 0.023634
0.360360 0.022622 0.024827
0.481233 0.023683 0.025888
0.572484 0.024485 0.026689
0.649534 0.025161 0.027366
0.714961 0.025736 0.027940
0.771282 0.026230 0.028435
0.820982 0.026667 0.028871
0.866521 0.027067 0.029271
0.910346 0.027451 0.029656
0.926172 0.027590 0.029795
0.015244 0.019592 0.021796
0.015244 0.019592 0.021796
0.015388 0.019593 0.021798
0.027622 0.019701 0.021905
0.063210 0.020013 0.022218
0.127171 0.020575 0.022779
0.224540 0.021430 0.023634
0.360360 0.022622 0.024827
0.481233 0.023683 0.025888
0.572484 0.024485 0.026689
0.649534 0.025161 0.027366
0.714961 0.025736 0.027940
0.771282 0.026230 0.028435
0.820982 0.026667 0.028871
0.866521 0.027067 0.029271
0.910346 0.027451 0.029656
0.926172 0.027590 0.029795
0.015248 0.019752 0.021801
0.015248 0.019752 0.021801
0.015392 0.019753 0.021802
0.027627 0.019860 0.021910
0.063214 0.020173 0.022222
0.127175 0.020735 0.022784
0.224545 0.021590 0.023639
0.360364 0.022782 0.024831
0.481238 0.023843 0.025893
0.572488 0.024645 0.026694
0.649539 0.025321 0.027371
0.714966 0.025896 0.027945
0.771287 0.026390 0.028440
0.820987 0.026827 0.028876
0.866525 0.027226 0.029276
0.910350 0.027611 0.029661
0.926177 0.027750 0.029800
0.015639 0.033256 0.022192
0.015639 0.033256 0.022192
0.015783 0.033257 0.022193
0.028018 0.033365 0.022301
0.063605 0.033677 0.022613
0.127566 0.034239 0.023175
0.224935 0.035094 0.024030
0.360755 0.036286 0.025222
0.481628 0.037348 0.026284
0.572879 0.038149 0.027085
0.649930 0.038825 0.027761
0.715356 0.039400 0.028336
0.771678 0.039894 0.028830
0.821377 0.040331 0.029267
0.866916 0.040731 0.029667
0.910741 0.041116 0.030051
0.926568 0.041255 0.030190
0.016766 0.072204 0.023319
0.016766 0.072204 0.023319
0.016910 0.072206 0.023320
0.029145 0.072313 0.023428
0.064732 0.072625 0.023740
0.128693 0.073187 0.024302
0.226062 0.074042 0.025157
0.361882 0.075235 0.026349
0.482756 0.076296 0.027411
0.574006 0.077097 0.028212
0.651057 0.077774 0.028888
0.716484 0.078348 0.029463
0.772805 0.078843 0.029957
0.822504 0.079279 0.030394
0.868043 0.079679 0.030794
0.911868 0.080064 0.031178
0.927695 0.080203 0.031317
0.018776 0.141662 0.025329
0.018776 0.141662 0.025329
0.018920 0.141664 0.025330
0.031155 0.141771 0.025438
0.066742 0.142083 0.025750
0.130703 0.142645 0.026312
0.228072 0.143500 0.027167
0.363892 0.144693 0.028359
0.484766 0.145754 0.029421
0.576016 0.146555 0.030222
0.653067 0.147232 0.030898
0.718494 0.147806 0.031473
0.774815 0.148301 0.031967
0.824514 0.148737 0.032404
0.870053 0.149137 0.032804
0.913878 0.149522 0.033188
0.929705 0.149661 0.033327
0.021817 0.246741 0.028370
0.021817 0.246741 0.028370
0.021961 0.246743 0.028371
0.034195 0.246850 0.028478
0.069783 0.247162 0.028791
0.133744 0.247724 0.029352
0.231113 0.248579 0.030207
0.366933 0.249772 0.031400
0.487806 0.250833 0.032461
0.579057 0.251634 0.033262
0.656107 0.252311 0.033939
0.721534 0.252885 0.034514
0.777856 0.253380 0.035008
0.827555 0.253816 0.035444
0.873094 0.254216 0.035844
0.916919 0.254601 0.036229
0.932746 0.254740 0.036368
0.026037 0.392567 0.032589
0.026037 0.392567 0.032589
0.026181 0.392568 0.032591
0.038415 0.392676 0.032698
0.074003 0.392988 0.033011
0.137964 0.393550 0.033572
0.235333 0.394405 0.034427
0.371153 0.395597 0.035620
0.492026 0.396658 0.036681
0.583277 0.397460 0.037482
0.660327 0.398136 0.038159
0.725754 0.398711 0.038733
0.782076 0.399205 0.039228
0.831775 0.399642 0.039664
0.877314 0.400042 0.040064
0.921139 0.400426 0.040449
0.936965 0.400565 0.040588
0.029778 0.521868 0.036331
0.029778 0.521868 0.036331
0.029923 0.521870 0.036332
0.042157 0.521977 0.036440
0.077745 0.522290 0.036752
0.141705 0.522851 0.037314
0.239075 0.523706 0.038169
0.374895 0.524899 0.039361
0.495768 0.525960 0.040423
0.587018 0.526761 0.041224
0.664069 0.527438 0.041901
0.729496 0.528012 0.042475
0.785817 0.528507 0.042970
0.835517 0.528943 0.043406
0.881056 0.529343 0.043806
0.924880 0.529728 0.044191
0.940707 0.529867 0.044330
0.032597 0.619262 0.039149
0.032597 0.619262 0.039149
0.032741 0.619263 0.039151
0.044975 0.619371 0.039258
0.080563 0.619683 0.039571
0.144524 0.620245 0.040132
0.241893 0.621100 0.040987
0.377713 0.622292 0.042180
0.498586 0.623353 0.043241
0.589837 0.624155 0.044042
0.666887 0.624831 0.044719
0.732314 0.625406 0.045293
0.788636 0.625900 0.045788
0.838335 0.626337 0.046224
0.883874 0.626737 0.046624
0.927699 0.627121 0.047009
0.943525 0.627260 0.047148
0.034973 0.701378 0.041526
0.034973 0.701378 0.041526
0.035117 0.701379 0.041527
0.047351 0.701487 0.041634
0.082939 0.701799 0.041947
0.146900 0.702361 0.042509
0.244269 0.703216 0.043363
0.380089 0.704408 0.044556
0.500962 0.705470 0.045617
0.592213 0.706271 0.046419
0.669263 0.706948 0.047095
0.734690 0.707522 0.047670
0.791012 0.708017 0.048164
0.840711 0.708453 0.048601
0.886250 0.708853 0.049000
0.930075 0.709238 0.049385
0.945902 0.709377 0.049524
0.036988 0.771030 0.043541
0.036988 0.771030 0.043541
0.037133 0.771031 0.043543
0.049367 0.771139 0.043650
0.084955 0.771451 0.043962
0.148915 0.772013 0.044524
0.246285 0.772868 0.045379
0.382105 0.774060 0.046572
0.502978 0.775122 0.047633
0.594228 0.775923 0.048434
0.671279 0.776600 0.049111
0.736706 0.777174 0.049685
0.793027 0.777669 0.050180
0.842727 0.778105 0.050616
0.888266 0.778505 0.051016
0.932091 0.778890 0.051401
0.947917 0.779029 0.051540
0.038722 0.830938 0.045275
0.038722 0.830938 0.045275
0.038866 0.830939 0.045276
0.051101 0.831046 0.045384
0.086688 0.831359 0.045696
0.150649 0.831920 0.046258
0.248018 0.832775 0.047113
0.383838 0.833968 0.048305
0.504712 0.835029 0.049367
0.595962 0.835831 0.050168
0.673013 0.836507 0.050844
0.738440 0.837082 0.051419
0.794761 0.837576 0.051913
0.844460 0.838012 0.052350
0.889999 0.838412 0.052750
0.933824 0.838797 0.053134
0.949651 0.838936 0.053273
0.040251 0.883765 0.046804
0.040251 0.883765 0.046804
0.040395 0.883767 0.046805
0.052629 0.883874 0.046912
0.088217 0.884187 0.047225
0.152178 0.884748 0.047786
0.249547 0.885603 0.048641
0.385367 0.886796 0.049834
0.506240 0.887857 0.050895
0.597491 0.888658 0.051696
0.674541 0.889335 0.052373
0.739968 0.889909 0.052948
0.796290 0.890404 0.053442
0.845989 0.890840 0.053878
0.891528 0.891240 0.054278
0.935353 0.891625 0.054663
0.951180 0.891764 0.054802
0.041651 0.932143 0.048204
0.041651 0.932143 0.048204
0.041795 0.932144 0.048205
0.054029 0.932252 0.048312
0.089617 0.932564 0.048625
0.153578 0.933126 0.049186
0.250947 0.933981 0.050041
0.386767 0.935173 0.051234
0.507640 0.936235 0.052295
0.598891 0.937036 0.053096
0.675941 0.937712 0.053773
0.741368 0.938287 0.054347
0.797690 0.938781 0.054842
0.847389 0.939218 0.055278
0.892928 0.939618 0.055678
0.936753 0.940002 0.056063
0.952579 0.940141 0.056202
0.042729 0.969411 0.049282
0.042729 0.969411 0.049282
0.042873 0.969413 0.049283
0.055108 0.969520 0.049391
0.090695 0.969833 0.049703
0.154656 0.970394 0.050265
0.252026 0.971249 0.051120
0.387845 0.972442 0.052312
0.508719 0.973503 0.053374
0.599969 0.974304 0.054175
0.677020 0.974981 0.054851
0.742447 0.975555 0.055426
0.798768 0.976050 0.055920
0.848467 0.976486 0.056357
0.894006 0.976886 0.056757
0.937831 0.977271 0.057141
0.953658 0.977410 0.057280
0.042729 0.969411 0.049282
0.042729 0.969411 0.049282
0.042873 0.969413 0.049283
0.055108 0.969520 0.049391
0.090695 0.969833 0.049703
0.154656 0.970394 0.050265
0.252026 0.971249 0.051120
0.387845 0.972442 0.052312
0.508719 0.973503 0.053374
0.599969 0.974304 0.054175
0.677020 0.974981 0.054851
0.742447 0.975555 0.055426
0.798768 0.976050 0.055920
0.848467 0.976486 0.056357
0.894006 0.976886 0.056757
0.937831 0.977271 0.057141
0.953658 0.977410 0.057280
0.015284 0.019632 0.035166
0.015284 0.019632 0.035166
0.015428 0.019633 0.035167
0.027662 0.019741 0.035275
0.063250 0.020053 0.035587
0.127211 0.020615 0.036149
0.224580 0.021470 0.037004
0.360400 0.022662 0.038196
0.481273 0.023724 0.039258
0.572524 0.024525 0.040059
0.649574 0.025201 0.040736
0.715001 0.025776 0.041310
0.771323 0.026270 0.041805
0.821022 0.026707 0.042241
0.866561 0.027107 0.042641
0.910386 0.027491 0.043026
0.926212 0.027630 0.043165
0.015284 0.019632 0.035166
