public/luts/dji/lk-dji-golden-hour.cube
TITLE "LK DJI Golden Hour"
LUT_3D_SIZE 17
DOMAIN_MIN 0.0 0.0 0.0
DOMAIN_MAX 1.0 1.0 1.0
0.000000 0.000000 0.000000
0.000000 0.000000 0.000000
0.000000 0.000000 0.000000
0.014314 0.000000 0.000000
0.061162 0.000000 0.000000
0.142632 0.000000 0.000000
0.263983 0.000000 0.000000
0.430480 0.000000 0.000000
0.576964 0.000000 0.000000
0.686785 0.000000 0.000000
0.779100 0.000000 0.000000
0.857228 0.000000 0.000000
0.924311 0.000000 0.000000
0.983384 0.000000 0.000000
0.994333 0.000000 0.000000
0.994333 0.000000 0.000000
0.994333 0.000000 0.000000
0.000000 0.000000 0.000000
0.000000 0.000000 0.000000
0.000000 0.000000 0.000000
0.014314 0.000000 0.000000
0.061162 0.000000 0.000000
0.142632 0.000000 0.000000
0.263983 0.000000 0.000000
0.430480 0.000000 0.000000
0.576964 0.000000 0.000000
0.686785 0.000000 0.000000
0.779100 0.000000 0.000000
0.857228 0.000000 0.000000
0.924311 0.000000 0.000000
0.983384 0.000000 0.000000
0.994333 0.000000 0.000000
0.994333 0.000000 0.000000
0.994333 0.000000 0.000000
0.000000 0.000000 0.000000
0.000000 0.000000 0.000000
0.000000 0.000000 0.000000
0.014314 0.000000 0.000000
0.061162 0.000000 0.000000
0.142632 0.000000 0.000000
0.263983 0.000000 0.000000
0.430480 0.000000 0.000000
0.576964 0.000000 0.000000
0.686785 0.000000 0.000000
0.779100 0.000000 0.000000
0.857228 0.000000 0.000000
0.924311 0.000000 0.000000
0.983384 0.000000 0.000000
0.994333 0.000000 0.000000
0.994333 0.000000 0.000000
0.994333 0.000000 0.000000
0.000000 0.003427 0.000000
0.000000 0.003427 0.000000
0.000000 0.003427 0.000000
0.014169 0.003253 0.000000
0.061018 0.002682 0.000000
0.142487 0.001690 0.000000
0.263838 0.000212 0.000000
0.430336 0.000000 0.000000
0.576820 0.000000 0.000000
0.686641 0.000000 0.000000
0.778956 0.000000 0.000000
0.857084 0.000000 0.000000
0.924166 0.000000 0.000000
0.983239 0.000000 0.000000
0.994188 0.000000 0.000000
0.994188 0.000000 0.000000
0.994188 0.000000 0.000000
0.000000 0.044317 0.000000
0.000000 0.044317 0.000000
0.000000 0.044317 0.000000
0.012444 0.044143 0.000000
0.059292 0.043572 0.000000
0.140762 0.042580 0.000000
0.262113 0.041102 0.000000
0.428611 0.039074 0.000000
0.575095 0.037289 0.000000
0.684916 0.035952 0.000000
0.777231 0.034827 0.000000
0.855359 0.033876 0.000000
0.922441 0.033059 0.000000
0.981514 0.032339 0.000000
0.992463 0.032206 0.000000
0.992463 0.032206 0.000000
0.992463 0.032206 0.000000
0.000000 0.115310 0.000000
0.000000 0.115310 0.000000
0.000000 0.115310 0.000000
0.009449 0.115135 0.000000
0.056297 0.114565 0.000000
0.137767 0.113573 0.000000
0.259118 0.112094 0.000000
0.425615 0.110066 0.000000
0.572099 0.108282 0.000000
0.681920 0.106944 0.000000
0.774235 0.105820 0.000000
0.852363 0.104868 0.000000
0.919446 0.104051 0.000000
0.978519 0.103332 0.000000
0.989468 0.103198 0.000000
0.989468 0.103198 0.000000
0.989468 0.103198 0.000000
0.000000 0.221514 0.000000
0.000000 0.221514 0.000000
0.000000 0.221514 0.000000
0.004968 0.221339 0.000000
0.051816 0.220769 0.000000
0.133286 0.219776 0.000000
0.254637 0.218298 0.000000
0.421135 0.216270 0.000000
0.567618 0.214486 0.000000
0.677440 0.213148 0.000000
0.769754 0.212024 0.000000
0.847883 0.211072 0.000000
0.914965 0.210255 0.000000
0.974038 0.209535 0.000000
0.984987 0.209402 0.000000
0.984987 0.209402 0.000000
0.984987 0.209402 0.000000
0.000000 0.367861 0.000000
0.000000 0.367861 0.000000
0.000000 0.367861 0.000000
0.000000 0.367687 0.000000
0.045642 0.367116 0.000000
0.127111 0.366124 0.000000
0.248462 0.364646 0.000000
0.414960 0.362618 0.000000
0.561444 0.360833 0.000000
0.671265 0.359496 0.000000
0.763580 0.358371 0.000000
0.841708 0.357420 0.000000
0.908790 0.356602 0.000000
0.967863 0.355883 0.000000
0.978812 0.355750 0.000000
0.978812 0.355750 0.000000
0.978812 0.355750 0.000000
0.000000 0.497043 0.000000
0.000000 0.497043 0.000000
0.000000 0.497043 0.000000
0.000000 0.496869 0.000000
0.040191 0.496298 0.000000
0.121661 0.495306 0.000000
0.243012 0.493828 0.000000
0.409510 0.491800 0.000000
0.555994 0.490016 0.000000
0.665815 0.488678 0.000000
0.758130 0.487553 0.000000
0.836258 0.486602 0.000000
0.903340 0.485785 0.000000
0.962413 0.485065 0.000000
0.973362 0.484932 0.000000
0.973362 0.484932 0.000000
0.973362 0.484932 0.000000
0.000000 0.594094 0.000000
0.000000 0.594094 0.000000
0.000000 0.594094 0.000000
0.000000 0.593920 0.000000
0.036097 0.593349 0.000000
0.117566 0.592357 0.000000
0.238917 0.590879 0.000000
0.405415 0.588851 0.000000
0.551899 0.587067 0.000000
0.661720 0.585729 0.000000
0.754035 0.584605 0.000000
0.832163 0.583653 0.000000
0.899245 0.582836 0.000000
0.958318 0.582116 0.000000
0.969267 0.581983 0.000000
0.969267 0.581983 0.000000
0.969267 0.581983 0.000000
0.000000 0.675787 0.000000
0.000000 0.675787 0.000000
0.000000 0.675787 0.000000
0.000000 0.675613 0.000000
0.032650 0.675042 0.000000
0.114119 0.674050 0.000000
0.235471 0.672572 0.000000
0.401968 0.670544 0.000000
0.548452 0.668759 0.000000
0.658273 0.667422 0.000000
0.750588 0.666297 0.000000
0.828716 0.665346 0.000000
0.895799 0.664529 0.000000
0.954871 0.663809 0.000000
0.965820 0.663676 0.000000
0.965820 0.663676 0.000000
0.965820 0.663676 0.000000
0.000000 0.744996 0.000000
0.000000 0.744996 0.000000
0.000000 0.744996 0.000000
0.000000 0.744822 0.000000
0.029730 0.744251 0.000000
0.111199 0.743259 0.000000
0.232551 0.741781 0.000000
0.399048 0.739753 0.000000
0.545532 0.737969 0.000000
0.655353 0.736631 0.000000
0.747668 0.735507 0.000000
0.825796 0.734555 0.000000
0.892878 0.733738 0.000000
0.951951 0.733018 0.000000
0.962900 0.732885 0.000000
0.962900 0.732885 0.000000
0.962900 0.732885 0.000000
0.000000 0.804468 0.000000
0.000000 0.804468 0.000000
0.000000 0.804468 0.000000
0.000000 0.804294 0.000000
0.027221 0.803723 0.000000
0.108690 0.802731 0.000000
0.230041 0.801253 0.000000
0.396539 0.799225 0.000000
0.543023 0.797441 0.000000
0.652844 0.796103 0.000000
0.745159 0.794979 0.000000
0.823287 0.794027 0.000000
0.890369 0.793210 0.000000
0.949442 0.792490 0.000000
0.960391 0.792357 0.000000
0.960391 0.792357 0.000000
0.960391 0.792357 0.000000
0.000000 0.856873 0.000000
0.000000 0.856873 0.000000
0.000000 0.856873 0.000000
0.000000 0.856699 0.000000
0.025010 0.856128 0.000000
0.106479 0.855136 0.000000
0.227830 0.853658 0.000000
0.394328 0.851630 0.000000
0.540812 0.849846 0.000000
0.650633 0.848508 0.000000
0.742948 0.847383 0.000000
0.821076 0.846432 0.000000
0.888158 0.845615 0.000000
0.947231 0.844895 0.000000
0.958180 0.844762 0.000000
0.958180 0.844762 0.000000
0.958180 0.844762 0.000000
0.000000 0.904834 0.000000
0.000000 0.904834 0.000000
0.000000 0.904834 0.000000
0.000000 0.904660 0.000000
0.022986 0.904089 0.000000
0.104456 0.903097 0.000000
0.225807 0.901619 0.000000
0.392305 0.899591 0.000000
0.538788 0.897806 0.000000
0.648610 0.896469 0.000000
0.740924 0.895344 0.000000
0.819053 0.894393 0.000000
0.886135 0.893575 0.000000
0.945208 0.892856 0.000000
0.956157 0.892723 0.000000
0.956157 0.892723 0.000000
0.956157 0.892723 0.000000
0.000000 0.950941 0.000000
0.000000 0.950941 0.000000
0.000000 0.950941 0.000000
0.000000 0.950766 0.000000
0.021041 0.950196 0.000000
0.102510 0.949204 0.000000
0.223861 0.947725 0.000000
0.390359 0.945697 0.000000
0.536843 0.943913 0.000000
0.646664 0.942575 0.000000
0.738979 0.941451 0.000000
0.817107 0.940499 0.000000
0.884189 0.939682 0.000000
0.943262 0.938963 0.000000
0.954211 0.938829 0.000000
0.954211 0.938829 0.000000
0.954211 0.938829 0.000000
0.000000 0.965700 0.000000
0.000000 0.965700 0.000000
0.000000 0.965700 0.000000
0.000000 0.965526 0.000000
0.020418 0.964955 0.000000
0.101888 0.963963 0.000000
0.223239 0.962485 0.000000
0.389736 0.960457 0.000000
0.536220 0.958673 0.000000
0.646042 0.957335 0.000000
0.738356 0.956210 0.000000
0.816484 0.955259 0.000000
0.883567 0.954442 0.000000
0.942640 0.953722 0.000000
0.953589 0.953589 0.000000
0.953589 0.953589 0.000000
0.953589 0.953589 0.000000
0.000000 0.000000 0.000000
0.000000 0.000000 0.000000
0.000000 0.000000 0.000000
0.014314 0.000000 0.000000
0.061162 0.000000 0.000000
0.142632 0.000000 0.000000
0.263983 0.000000 0.000000
0.430480 0.000000 0.000000
0.576964 0.000000 0.000000
0.686785 0.000000 0.000000
0.779100 0.000000 0.000000
0.857228 0.000000 0.000000
0.924311 0.000000 0.000000
0.983384 0.000000 0.000000
0.994333 0.000000 0.000000
0.994333 0.000000 0.000000
0.994333 0.000000 0.000000
0.000000 0.000000 0.000000
0.000000 0.000000 0.000000
0.000000 0.000000 0.000000
0.014314 0.000000 0.000000
0.061162 0.000000 0.000000
0.142632 0.000000 0.000000
0.263983 0.000000 0.000000
0.430480 0.000000 0.000000
0.576964 0.000000 0.000000
0.686785 0.000000 0.000000
0.779100 0.000000 0.000000
0.857228 0.000000 0.000000
0.924311 0.000000 0.000000
0.983384 0.000000 0.000000
0.994333 0.000000 0.000000
0.994333 0.000000 0.000000
0.994333 0.000000 0.000000
0.000000 0.000000 0.000000
0.000000 0.000000 0.000000
0.000000 0.000000 0.000000
0.014314 0.000000 0.000000
0.061162 0.000000 0.000000
0.142632 0.000000 0.000000
0.263983 0.000000 0.000000
0.430480 0.000000 0.000000
0.576964 0.000000 0.000000
0.686785 0.000000 0.000000
0.779100 0.000000 0.000000
0.857228 0.000000 0.000000
0.924311 0.000000 0.000000
0.983384 0.000000 0.000000
0.994333 0.000000 0.000000
0.994333 0.000000 0.000000
0.994333 0.000000 0.000000
0.000000 0.003427 0.000000
0.000000 0.003427 0.000000
0.000000 0.003427 0.000000
0.014169 0.003253 0.000000
0.061018 0.002682 0.000000
0.142487 0.001690 0.000000
0.263838 0.000212 0.000000
0.430336 0.000000 0.000000
0.576820 0.000000 0.000000
0.686641 0.000000 0.000000
0.778956 0.000000 0.000000
0.857084 0.000000 0.000000
0.924166 0.000000 0.000000
0.983239 0.000000 0.000000
0.994188 0.000000 0.000000
0.994188 0.000000 0.000000
0.994188 0.000000 0.000000
0.000000 0.044317 0.000000
0.000000 0.044317 0.000000
0.000000 0.044317 0.000000
0.012444 0.044143 0.000000
0.059292 0.043572 0.000000
0.140762 0.042580 0.000000
0.262113 0.041102 0.000000
0.428611 0.039074 0.000000
0.575095 0.037289 0.000000
0.684916 0.035952 0.000000
0.777231 0.034827 0.000000
0.855359 0.033876 0.000000
0.922441 0.033059 0.000000
0.981514 0.032339 0.000000
0.992463 0.032206 0.000000
0.992463 0.032206 0.000000
0.992463 0.032206 0.000000
0.000000 0.115310 0.000000
0.000000 0.115310 0.000000
0.000000 0.115310 0.000000
0.009449 0.115135 0.000000
0.056297 0.114565 0.000000
0.137767 0.113573 0.000000
0.259118 0.112094 0.000000
0.425615 0.110066 0.000000
0.572099 0.108282 0.000000
0.681920 0.106944 0.000000
0.774235 0.105820 0.000000
0.852363 0.104868 0.000000
0.919446 0.104051 0.000000
0.978519 0.103332 0.000000
0.989468 0.103198 0.000000
0.989468 0.103198 0.000000
0.989468 0.103198 0.000000
0.000000 0.221514 0.000000
0.000000 0.221514 0.000000
0.000000 0.221514 0.000000
0.004968 0.221339 0.000000
0.051816 0.220769 0.000000
0.133286 0.219776 0.000000
0.254637 0.218298 0.000000
0.421135 0.216270 0.000000
0.567618 0.214486 0.000000
0.677440 0.213148 0.000000
0.769754 0.212024 0.000000
0.847883 0.211072 0.000000
0.914965 0.210255 0.000000
0.974038 0.209535 0.000000
0.984987 0.209402 0.000000
0.984987 0.209402 0.000000
0.984987 0.209402 0.000000
0.000000 0.367861 0.000000
0.000000 0.367861 0.000000
0.000000 0.367861 0.000000
0.000000 0.367687 0.000000
0.045642 0.367116 0.000000
0.127111 0.366124 0.000000
0.248462 0.364646 0.000000
0.414960 0.362618 0.000000
0.561444 0.360833 0.000000
0.671265 0.359496 0.000000
0.763580 0.358371 0.000000
0.841708 0.357420 0.000000
0.908790 0.356602 0.000000
0.967863 0.355883 0.000000
0.978812 0.355750 0.000000
0.978812 0.355750 0.000000
0.978812 0.355750 0.000000
0.000000 0.497043 0.000000
0.000000 0.497043 0.000000
0.000000 0.497043 0.000000
0.000000 0.496869 0.000000
0.040191 0.496298 0.000000
0.121661 0.495306 0.000000
0.243012 0.493828 0.000000
0.409510 0.491800 0.000000
0.555994 0.490016 0.000000
0.665815 0.488678 0.000000
0.758130 0.487553 0.000000
0.836258 0.486602 0.000000
0.903340 0.485785 0.000000
0.962413 0.485065 0.000000
0.973362 0.484932 0.000000
0.973362 0.484932 0.000000
0.973362 0.484932 0.000000
0.000000 0.594094 0.000000
0.000000 0.594094 0.000000
0.000000 0.594094 0.000000
0.000000 0.593920 0.000000
0.036097 0.593349 0.000000
0.117566 0.592357 0.000000
0.238917 0.590879 0.000000
0.405415 0.588851 0.000000
0.551899 0.587067 0.000000
0.661720 0.585729 0.000000
0.754035 0.584605 0.000000
0.832163 0.583653 0.000000
0.899245 0.582836 0.000000
0.958318 0.582116 0.000000
0.969267 0.581983 0.000000
0.969267 0.581983 0.000000
0.969267 0.581983 0.000000
0.000000 0.675787 0.000000
0.000000 0.675787 0.000000
0.000000 0.675787 0.000000
0.000000 0.675613 0.000000
0.032650 0.675042 0.000000
0.114119 0.674050 0.000000
0.235471 0.672572 0.000000
0.401968 0.670544 0.000000
0.548452 0.668759 0.000000
0.658273 0.667422 0.000000
0.750588 0.666297 0.000000
0.828716 0.665346 0.000000
0.895799 0.664529 0.000000
0.954871 0.663809 0.000000
0.965820 0.663676 0.000000
0.965820 0.663676 0.000000
0.965820 0.663676 0.000000
0.000000 0.744996 0.000000
0.000000 0.744996 0.000000
0.000000 0.744996 0.000000
0.000000 0.744822 0.000000
0.029730 0.744251 0.000000
0.111199 0.743259 0.000000
0.232551 0.741781 0.000000
0.399048 0.739753 0.000000
0.545532 0.737969 0.000000
0.655353 0.736631 0.000000
0.747668 0.735507 0.000000
0.825796 0.734555 0.000000
0.892878 0.733738 0.000000
0.951951 0.733018 0.000000
0.962900 0.732885 0.000000
0.962900 0.732885 0.000000
0.962900 0.732885 0.000000
0.000000 0.804468 0.000000
0.000000 0.804468 0.000000
0.000000 0.804468 0.000000
0.000000 0.804294 0.000000
0.027221 0.803723 0.000000
0.108690 0.802731 0.000000
0.230041 0.801253 0.000000
0.396539 0.799225 0.000000
0.543023 0.797441 0.000000
0.652844 0.796103 0.000000
0.745159 0.794979 0.000000
0.823287 0.794027 0.000000
0.890369 0.793210 0.000000
0.949442 0.792490 0.000000
0.960391 0.792357 0.000000
0.960391 0.792357 0.000000
0.960391 0.792357 0.000000
0.000000 0.856873 0.000000
0.000000 0.856873 0.000000
0.000000 0.856873 0.000000
0.000000 0.856699 0.000000
0.025010 0.856128 0.000000
0.106479 0.855136 0.000000
0.227830 0.853658 0.000000
0.394328 0.851630 0.000000
0.540812 0.849846 0.000000
0.650633 0.848508 0.000000
0.742948 0.847383 0.000000
0.821076 0.846432 0.000000
0.888158 0.845615 0.000000
0.947231 0.844895 0.000000
0.958180 0.844762 0.000000
0.958180 0.844762 0.000000
0.958180 0.844762 0.000000
0.000000 0.904834 0.000000
0.000000 0.904834 0.000000
0.000000 0.904834 0.000000
0.000000 0.904660 0.000000
0.022986 0.904089 0.000000
0.104456 0.903097 0.000000
0.225807 0.901619 0.000000
0.392305 0.899591 0.000000
0.538788 0.897806 0.000000
0.648610 0.896469 0.000000
0.740924 0.895344 0.000000
0.819053 0.894393 0.000000
0.886135 0.893575 0.000000
0.945208 0.892856 0.000000
0.956157 0.892723 0.000000
0.956157 0.892723 0.000000
0.956157 0.892723 0.000000
0.000000 0.950941 0.000000
0.000000 0.950941 0.000000
0.000000 0.950941 0.000000
0.000000 0.950766 0.000000
0.021041 0.950196 0.000000
0.102510 0.949204 0.000000
0.223861 0.947725 0.000000
0.390359 0.945697 0.000000
0.536843 0.943913 0.000000
0.646664 0.942575 0.000000
0.738979 0.941451 0.000000
0.817107 0.940499 0.000000
0.884189 0.939682 0.000000
0.943262 0.938963 0.000000
0.954211 0.938829 0.000000
0.954211 0.938829 0.000000
0.954211 0.938829 0.000000
0.000000 0.965700 0.000000
0.000000 0.965700 0.000000
0.000000 0.965700 0.000000
0.000000 0.965526 0.000000
0.020418 0.964955 0.000000
0.101888 0.963963 0.000000
0.223239 0.962485 0.000000
0.389736 0.960457 0.000000
0.536220 0.958673 0.000000
0.646042 0.957335 0.000000
0.738356 0.956210 0.000000
0.816484 0.955259 0.000000
0.883567 0.954442 0.000000
0.942640 0.953722 0.000000
0.953589 0.953589 0.000000
0.953589 0.953589 0.000000
0.953589 0.953589 0.000000
0.000000 0.000000 0.000000
0.000000 0.000000 0.000000
0.000000 0.000000 0.000000
0.014314 0.000000 0.000000
0.061162 0.000000 0.000000
0.142632 0.000000 0.000000
0.263983 0.000000 0.000000
0.430480 0.000000 0.000000
0.576964 0.000000 0.000000
0.686785 0.000000 0.000000
0.779100 0.000000 0.000000
0.857228 0.000000 0.000000
0.924311 0.000000 0.000000
0.983384 0.000000 0.000000
0.994333 0.000000 0.000000
0.994333 0.000000 0.000000
0.994333 0.000000 0.000000
0.000000 0.000000 0.000000
0.000000 0.000000 0.000000
0.000000 0.000000 0.000000
0.014314 0.000000 0.000000
0.061162 0.000000 0.000000
0.142632 0.000000 0.000000
0.263983 0.000000 0.000000
0.430480 0.000000 0.000000
0.576964 0.000000 0.000000
0.686785 0.000000 0.000000
0.779100 0.000000 0.000000
0.857228 0.000000 0.000000
0.924311 0.000000 0.000000
0.983384 0.000000 0.000000
0.994333 0.000000 0.000000
0.994333 0.000000 0.000000
0.994333 0.000000 0.000000
0.000000 0.000000 0.000000
0.000000 0.000000 0.000000
0.000000 0.000000 0.000000
0.014314 0.000000 0.000000
0.061162 0.000000 0.000000
0.142632 0.000000 0.000000
0.263983 0.000000 0.000000
0.430480 0.000000 0.000000
0.576964 0.000000 0.000000
0.686785 0.000000 0.000000
0.779100 0.000000 0.000000
0.857228 0.000000 0.000000
0.924311 0.000000 0.000000
0.983384 0.000000 0.000000
0.994333 0.000000 0.000000
0.994333 0.000000 0.000000
0.994333 0.000000 0.000000
0.000000 0.003427 0.000000
0.000000 0.003427 0.000000
0.000000 0.003427 0.000000
0.014169 0.003253 0.000000
0.061018 0.002682 0.000000
0.142487 0.001690 0.000000
0.263838 0.000212 0.000000
0.430336 0.000000 0.000000
0.576820 0.000000 0.000000
0.686641 0.000000 0.000000
0.778956 0.000000 0.000000
0.857084 0.000000 0.000000
0.924166 0.000000 0.000000
0.983239 0.000000 0.000000
0.994188 0.000000 0.000000
0.994188 0.000000 0.000000
0.994188 0.000000 0.000000
0.000000 0.044317 0.000000
0.000000 0.044317 0.000000
0.000000 0.044317 0.000000
0.012444 0.044143 0.000000
0.059292 0.043572 0.000000
0.140762 0.042580 0.000000
0.262113 0.041102 0.000000
0.428611 0.039074 0.000000
0.575095 0.037289 0.000000
0.684916 0.035952 0.000000
0.777231 0.034827 0.000000
0.855359 0.033876 0.000000
0.922441 0.033059 0.000000
0.981514 0.032339 0.000000
0.992463 0.032206 0.000000
0.992463 0.032206 0.000000
0.992463 0.032206 0.000000
0.000000 0.115310 0.000000
0.000000 0.115310 0.000000
0.000000 0.115310 0.000000
0.009449 0.115135 0.000000
0.056297 0.114565 0.000000
0.137767 0.113573 0.000000
0.259118 0.112094 0.000000
0.425615 0.110066 0.000000
0.572099 0.108282 0.000000
0.681920 0.106944 0.000000
0.774235 0.105820 0.000000
0.852363 0.104868 0.000000
0.919446 0.104051 0.000000
0.978519 0.103332 0.000000
0.989468 0.103198 0.000000
0.989468 0.103198 0.000000
0.989468 0.103198 0.000000
0.000000 0.221514 0.000000
0.000000 0.221514 0.000000
0.000000 0.221514 0.000000
0.004968 0.221339 0.000000
0.051816 0.220769 0.000000
0.133286 0.219776 0.000000
0.254637 0.218298 0.000000
0.421135 0.216270 0.000000
0.567618 0.214486 0.000000
0.677440 0.213148 0.000000
0.769754 0.212024 0.000000
0.847883 0.211072 0.000000
0.914965 0.210255 0.000000
0.974038 0.209535 0.000000
0.984987 0.209402 0.000000
0.984987 0.209402 0.000000
0.984987 0.209402 0.000000
0.000000 0.367861 0.000000
0.000000 0.367861 0.000000
0.000000 0.367861 0.000000
0.000000 0.367687 0.000000
0.045642 0.367116 0.000000
0.127111 0.366124 0.000000
0.248462 0.364646 0.000000
0.414960 0.362618 0.000000
0.561444 0.360833 0.000000
0.671265 0.359496 0.000000
0.763580 0.358371 0.000000
0.841708 0.357420 0.000000
0.908790 0.356602 0.000000
0.967863 0.355883 0.000000
0.978812 0.355750 0.000000
0.978812 0.355750 0.000000
0.978812 0.355750 0.000000
0.000000 0.497043 0.000000
0.000000 0.497043 0.000000
0.000000 0.497043 0.000000
0.000000 0.496869 0.000000
0.040191 0.496298 0.000000
0.121661 0.495306 0.000000
0.243012 0.493828 0.000000
0.409510 0.491800 0.000000
0.555994 0.490016 0.000000
0.665815 0.488678 0.000000
0.758130 0.487553 0.000000
0.836258 0.486602 0.000000
0.903340 0.485785 0.000000
0.962413 0.485065 0.000000
0.973362 0.484932 0.000000
0.973362 0.484932 0.000000
0.973362 0.484932 0.000000
0.000000 0.594094 0.000000
0.000000 0.594094 0.000000
0.000000 0.594094 0.000000
0.000000 0.593920 0.000000
0.036097 0.593349 0.000000
0.117566 0.592357 0.000000
0.238917 0.590879 0.000000
0.405415 0.588851 0.000000
0.551899 0.587067 0.000000
0.661720 0.585729 0.000000
0.754035 0.584605 0.000000
0.832163 0.583653 0.000000
0.899245 0.582836 0.000000
0.958318 0.582116 0.000000
0.969267 0.581983 0.000000
0.969267 0.581983 0.000000
0.969267 0.581983 0.000000
0.000000 0.675787 0.000000
0.000000 0.675787 0.000000
0.000000 0.675787 0.000000
0.000000 0.675613 0.000000
0.032650 0.675042 0.000000
0.114119 0.674050 0.000000
0.235471 0.672572 0.000000
0.401968 0.670544 0.000000
0.548452 0.668759 0.000000
0.658273 0.667422 0.000000
0.750588 0.666297 0.000000
0.828716 0.665346 0.000000
0.895799 0.664529 0.000000
0.954871 0.663809 0.000000
0.965820 0.663676 0.000000
0.965820 0.663676 0.000000
0.965820 0.663676 0.000000
0.000000 0.744996 0.000000
0.000000 0.744996 0.000000
0.000000 0.744996 0.000000
0.000000 0.744822 0.000000
0.029730 0.744251 0.000000
0.111199 0.743259 0.000000
0.232551 0.741781 0.000000
0.399048 0.739753 0.000000
0.545532 0.737969 0.000000
0.655353 0.736631 0.000000
0.747668 0.735507 0.000000
0.825796 0.734555 0.000000
0.892878 0.733738 0.000000
0.951951 0.733018 0.000000
0.962900 0.732885 0.000000
0.962900 0.732885 0.000000
0.962900 0.732885 0.000000
0.000000 0.804468 0.000000
0.000000 0.804468 0.000000
0.000000 0.804468 0.000000
0.000000 0.804294 0.000000
0.027221 0.803723 0.000000
0.108690 0.802731 0.000000
0.230041 0.801253 0.000000
0.396539 0.799225 0.000000
0.543023 0.797441 0.000000
0.652844 0.796103 0.000000
0.745159 0.794979 0.000000
0.823287 0.794027 0.000000
0.890369 0.793210 0.000000
0.949442 0.792490 0.000000
0.960391 0.792357 0.000000
0.960391 0.792357 0.000000
0.960391 0.792357 0.000000
0.000000 0.856873 0.000000
0.000000 0.856873 0.000000
0.000000 0.856873 0.000000
0.000000 0.856699 0.000000
0.025010 0.856128 0.000000
0.106479 0.855136 0.000000
0.227830 0.853658 0.000000
0.394328 0.851630 0.000000
0.540812 0.849846 0.000000
0.650633 0.848508 0.000000
0.742948 0.847383 0.000000
0.821076 0.846432 0.000000
0.888158 0.845615 0.000000
0.947231 0.844895 0.000000
0.958180 0.844762 0.000000
0.958180 0.844762 0.000000
0.958180 0.844762 0.000000
0.000000 0.904834 0.000000
0.000000 0.904834 0.000000
0.000000 0.904834 0.000000
0.000000 0.904660 0.000000
0.022986 0.904089 0.000000
0.104456 0.903097 0.000000
0.225807 0.901619 0.000000
0.392305 0.899591 0.000000
0.538788 0.897806 0.000000
0.648610 0.896469 0.000000
0.740924 0.895344 0.000000
0.819053 0.894393 0.000000
0.886135 0.893575 0.000000
0.945208 0.892856 0.000000
0.956157 0.892723 0.000000
0.956157 0.892723 0.000000
0.956157 0.892723 0.000000
0.000000 0.950941 0.000000
0.000000 0.950941 0.000000
0.000000 0.950941 0.000000
0.000000 0.950766 0.000000
0.021041 0.950196 0.000000
0.102510 0.949204 0.000000
0.223861 0.947725 0.000000
0.390359 0.945697 0.000000
0.536843 0.943913 0.000000
0.646664 0.942575 0.000000
0.738979 0.941451 0.000000
0.817107 0.940499 0.000000
0.884189 0.939682 0.000000
0.943262 0.938963 0.000000
0.954211 0.938829 0.000000
0.954211 0.938829 0.000000
0.954211 0.938829 0.000000
0.000000 0.965700 0.000000
0.000000 0.965700 0.000000
0.000000 0.965700 0.000000
0.000000 0.965526 0.000000
0.020418 0.964955 0.000000
0.101888 0.963963 0.000000
0.223239 0.962485 0.000000
0.389736 0.960457 0.000000
0.536220 0.958673 0.000000
0.646042 0.957335 0.000000
0.738356 0.956210 0.000000
0.816484 0.955259 0.000000
0.883567 0.954442 0.000000
0.942640 0.953722 0.000000
0.953589 0.953589 0.000000
0.953589 0.953589 0.000000
0.953589 0.953589 0.000000
0.000000 0.000000 0.000000
0.000000 0.000000 0.000000
0.000000 0.000000 0.000000
0.014314 0.000000 0.000000
0.061162 0.000000 0.000000
0.142632 0.000000 0.000000
0.263983 0.000000 0.000000
0.430480 0.000000 0.000000
0.576964 0.000000 0.000000
0.686785 0.000000 0.000000
0.779100 0.000000 0.000000
0.857228 0.000000 0.000000
0.924311 0.000000 0.000000
0.983384 0.000000 0.000000
0.994333 0.000000 0.000000
0.994333 0.000000 0.000000
0.994333 0.000000 0.000000
0.000000 0.000000 0.000000
