public/luts/dji/lk-dji-street.cube
TITLE "LK DJI Street"
LUT_3D_SIZE 5
DOMAIN_MIN 0.0 0.0 0.0
DOMAIN_MAX 1.0 1.0 1.0
0.000000 0.000000 0.000000
0.003718 0.000145 0.000145
0.390669 0.015205 0.015205
0.693366 0.026985 0.026985
0.860866 0.033504 0.033504
0.000444 0.003706 0.000444
0.004162 0.003850 0.000589
0.391113 0.018910 0.015649
0.693811 0.030691 0.027430
0.861310 0.037210 0.033948
0.050542 0.421551 0.050542
0.054260 0.421696 0.050687
0.441211 0.436755 0.065747
0.743908 0.448536 0.077527
0.911408 0.455055 0.084046
0.089741 0.748493 0.089741
0.093459 0.748637 0.089886
0.480410 0.763697 0.104945
0.783107 0.775478 0.116726
0.950607 0.781997 0.123245
0.111432 0.929411 0.111432
0.115150 0.929555 0.111577
0.502101 0.944615 0.126637
0.804798 0.956396 0.138417
0.972298 0.962915 0.144936
0.000067 0.000067 0.004923
0.003784 0.000211 0.005067
0.390735 0.015271 0.020127
0.693433 0.027052 0.031908
0.860933 0.033571 0.038427
0.000511 0.003772 0.005367
0.004229 0.003917 0.005512
0.391180 0.018977 0.020572
0.693877 0.030758 0.032352
0.861377 0.037277 0.038871
0.050609 0.421618 0.055465
0.054326 0.421762 0.055609
0.441277 0.436822 0.070669
0.743975 0.448603 0.082450
0.911475 0.455122 0.088969
0.089808 0.748559 0.094664
0.093525 0.748704 0.094808
0.480476 0.763764 0.109868
0.783174 0.775545 0.121649
0.950673 0.782064 0.128168
0.111499 0.929477 0.116355
0.115217 0.929622 0.116499
0.502168 0.944682 0.131559
0.804865 0.956463 0.143340
0.972365 0.962982 0.149859
0.005267 0.005267 0.388233
0.008984 0.005411 0.388377
0.395935 0.020471 0.403437
0.698633 0.032252 0.415218
0.866132 0.038771 0.421737
0.005711 0.008972 0.388677
0.009429 0.009117 0.388822
0.396380 0.024177 0.403881
0.699077 0.035958 0.415662
0.866577 0.042476 0.422181
0.055809 0.426818 0.438775
0.059526 0.426962 0.438919
0.446477 0.442022 0.453979
0.749175 0.453803 0.465760
0.916674 0.460322 0.472279
0.095008 0.753759 0.477973
0.098725 0.753904 0.478118
0.485676 0.768964 0.493178
0.788374 0.780745 0.504959
0.955873 0.787264 0.511478
0.116699 0.934677 0.499665
0.120416 0.934822 0.499809
0.507367 0.949882 0.514869
0.810065 0.961663 0.526650
0.977564 0.968181 0.533169
0.009288 0.009288 0.684695
0.013006 0.009433 0.684840
0.399957 0.024493 0.699900
0.702655 0.036274 0.711680
0.870154 0.042793 0.718199
0.009733 0.012994 0.685139
0.013450 0.013139 0.685284
0.400401 0.028199 0.700344
0.703099 0.039979 0.712125
0.870598 0.046498 0.718644
0.059830 0.430839 0.735237
0.063548 0.430984 0.735382
0.450499 0.446044 0.750442
0.753197 0.457825 0.762222
0.920696 0.464343 0.768741
0.099029 0.757781 0.774436
0.102747 0.757926 0.774581
0.489698 0.772986 0.789640
0.792396 0.784766 0.801421
0.959895 0.791285 0.807940
0.120720 0.938699 0.796127
0.124438 0.938844 0.796272
0.511389 0.953904 0.811332
0.814087 0.965684 0.823112
0.981586 0.972203 0.829631
0.011378 0.011378 0.838740
0.015096 0.011523 0.838884
0.402047 0.026583 0.853944
0.704745 0.038363 0.865725
0.872244 0.044882 0.872244
0.011822 0.015084 0.839184
0.015540 0.015228 0.839329
0.402491 0.030288 0.854389
0.705189 0.042069 0.866169
0.872688 0.048588 0.872688
0.061920 0.432929 0.889282
0.065638 0.433074 0.889426
0.452589 0.448134 0.904486
0.755287 0.459914 0.916267
0.922786 0.466433 0.922786
0.101119 0.759871 0.928481
0.104837 0.760016 0.928625
0.491788 0.775075 0.943685
0.794485 0.786856 0.955466
0.961985 0.793375 0.961985
0.122810 0.940789 0.950172
0.126528 0.940933 0.950316
0.513479 0.955993 0.965376
0.816177 0.967774 0.977157
0.983676 0.974293 0.983676
