public/luts/dji/lk-dji-kodak.cube
TITLE "LK DJI Kodak"
LUT_3D_SIZE 17
DOMAIN_MIN 0.0 0.0 0.0
DOMAIN_MAX 1.0 1.0 1.0
0.018218 0.011466 0.009456
0.018218 0.011466 0.009456
0.018389 0.011469 0.009459
0.032738 0.011695 0.009685
0.073366 0.012335 0.010325
0.144651 0.013457 0.011448
0.251137 0.015134 0.013125
0.397419 0.017438 0.015429
0.526188 0.019467 0.017457
0.622752 0.020987 0.018978
0.703933 0.022266 0.020256
0.772644 0.023348 0.021339
0.831644 0.024277 0.022268
0.883602 0.025096 0.023086
0.925309 0.025753 0.023743
0.925309 0.025753 0.023743
0.925309 0.025753 0.023743
0.018218 0.011466 0.009456
0.018218 0.011466 0.009456
0.018389 0.011469 0.009459
0.032738 0.011695 0.009685
0.073366 0.012335 0.010325
0.144651 0.013457 0.011448
0.251137 0.015134 0.013125
0.397419 0.017438 0.015429
0.526188 0.019467 0.017457
0.622752 0.020987 0.018978
0.703933 0.022266 0.020256
0.772644 0.023348 0.021339
0.831644 0.024277 0.022268
0.883602 0.025096 0.023086
0.925309 0.025753 0.023743
0.925309 0.025753 0.023743
0.925309 0.025753 0.023743
0.018226 0.011621 0.009464
0.018226 0.011621 0.009464
0.018397 0.011624 0.009467
0.032746 0.011850 0.009693
0.073374 0.012490 0.010333
0.144659 0.013612 0.011456
0.251145 0.015290 0.013133
0.397427 0.017594 0.015437
0.526196 0.019622 0.017465
0.622760 0.021143 0.018986
0.703941 0.022421 0.020264
0.772652 0.023503 0.021347
0.831652 0.024433 0.022276
0.883610 0.025251 0.023094
0.925317 0.025908 0.023751
0.925317 0.025908 0.023751
0.925317 0.025908 0.023751
0.018893 0.024695 0.010132
0.018893 0.024695 0.010132
0.019065 0.024698 0.010135
0.033414 0.024924 0.010361
0.074042 0.025563 0.011001
0.145327 0.026686 0.012123
0.251813 0.028363 0.013801
0.398095 0.030667 0.016105
0.526864 0.032696 0.018133
0.623428 0.034216 0.019654
0.704609 0.035495 0.020932
0.773320 0.036577 0.022014
0.832320 0.037506 0.022944
0.884278 0.038325 0.023762
0.925985 0.038982 0.024419
0.925985 0.038982 0.024419
0.925985 0.038982 0.024419
0.020814 0.062300 0.012053
0.020814 0.062300 0.012053
0.020986 0.062303 0.012056
0.035335 0.062529 0.012282
0.075963 0.063169 0.012922
0.147248 0.064292 0.014044
0.253734 0.065969 0.015722
0.400016 0.068273 0.018026
0.528785 0.070301 0.020054
0.625349 0.071822 0.021575
0.706530 0.073100 0.022853
0.775241 0.074183 0.023935
0.834241 0.075112 0.024865
0.886199 0.075930 0.025683
0.927906 0.076587 0.026340
0.927906 0.076587 0.026340
0.927906 0.076587 0.026340
0.024236 0.129278 0.015474
0.024236 0.129278 0.015474
0.024407 0.129281 0.015477
0.038756 0.129507 0.015703
0.079384 0.130146 0.016343
0.150669 0.131269 0.017466
0.257155 0.132946 0.019143
0.403438 0.135250 0.021447
0.532207 0.137278 0.023475
0.628770 0.138799 0.024996
0.709951 0.140078 0.026275
0.778662 0.141160 0.027357
0.837662 0.142089 0.028286
0.889620 0.142908 0.029104
0.931327 0.143565 0.029761
0.931327 0.143565 0.029761
0.931327 0.143565 0.029761
0.029409 0.230557 0.020648
0.029409 0.230557 0.020648
0.029581 0.230560 0.020651
0.043930 0.230786 0.020877
0.084558 0.231426 0.021517
0.155842 0.232548 0.022639
0.262329 0.234226 0.024317
0.408611 0.236530 0.026621
0.537380 0.238558 0.028649
0.633944 0.240079 0.030170
0.715125 0.241357 0.031448
0.783836 0.242439 0.032530
0.842836 0.243369 0.033460
0.894794 0.244187 0.034278
0.936501 0.244844 0.034935
0.936501 0.244844 0.034935
0.936501 0.244844 0.034935
0.036588 0.371086 0.027827
0.036588 0.371086 0.027827
0.036759 0.371088 0.027829
0.051109 0.371314 0.028055
0.091736 0.371954 0.028695
0.163021 0.373077 0.029818
0.269508 0.374754 0.031495
0.415790 0.377058 0.033799
0.544559 0.379086 0.035827
0.641122 0.380607 0.037348
0.722303 0.381886 0.038627
0.791014 0.382968 0.039709
0.850015 0.383897 0.040638
0.901973 0.384715 0.041457
0.943679 0.385372 0.042113
0.943679 0.385372 0.042113
0.943679 0.385372 0.042113
0.042953 0.495684 0.034191
0.042953 0.495684 0.034191
0.043124 0.495686 0.034194
0.057473 0.495912 0.034420
0.098101 0.496552 0.035060
0.169386 0.497675 0.036183
0.275872 0.499352 0.037860
0.422154 0.501656 0.040164
0.550923 0.503684 0.042192
0.647487 0.505205 0.043713
0.728668 0.506484 0.044991
0.797379 0.507566 0.046074
0.856379 0.508495 0.047003
0.908337 0.509314 0.047821
0.950044 0.509971 0.048478
0.950044 0.509971 0.048478
0.950044 0.509971 0.048478
0.047747 0.589533 0.038985
0.047747 0.589533 0.038985
0.047918 0.589536 0.038988
0.062267 0.589762 0.039214
0.102895 0.590402 0.039854
0.174180 0.591525 0.040977
0.280666 0.593202 0.042654
0.426949 0.595506 0.044958
0.555718 0.597534 0.046986
0.652281 0.599055 0.048507
0.733462 0.600333 0.049786
0.802173 0.601416 0.050868
0.861173 0.602345 0.051797
0.913131 0.603163 0.052615
0.954838 0.603820 0.053272
0.954838 0.603820 0.053272
0.954838 0.603820 0.053272
0.051789 0.668661 0.043027
0.051789 0.668661 0.043027
0.051960 0.668664 0.043030
0.066309 0.668890 0.043256
0.106937 0.669530 0.043896
0.178222 0.670653 0.045019
0.284708 0.672330 0.046696
0.430991 0.674634 0.049000
0.559760 0.676662 0.051028
0.656323 0.678183 0.052549
0.737504 0.679461 0.053828
0.806215 0.680544 0.054910
0.865215 0.681473 0.055839
0.917173 0.682291 0.056657
0.958880 0.682948 0.057314
0.958880 0.682948 0.057314
0.958880 0.682948 0.057314
0.055217 0.735779 0.046456
0.055217 0.735779 0.046456
0.055389 0.735782 0.046459
0.069738 0.736008 0.046685
0.110366 0.736647 0.047325
0.181650 0.737770 0.048447
0.288137 0.739447 0.050125
0.434419 0.741751 0.052428
0.563188 0.743779 0.054457
0.659752 0.745300 0.055977
0.740933 0.746579 0.057256
0.809644 0.747661 0.058338
0.868644 0.748590 0.059268
0.920602 0.749409 0.060086
0.962309 0.750066 0.060743
0.962309 0.750066 0.060743
0.962309 0.750066 0.060743
0.058166 0.793507 0.049405
0.058166 0.793507 0.049405
0.058338 0.793509 0.049408
0.072687 0.793735 0.049634
0.113315 0.794375 0.050273
0.184599 0.795498 0.051396
0.291086 0.797175 0.053073
0.437368 0.799479 0.055377
0.566137 0.801507 0.057405
0.662700 0.803028 0.058926
0.743882 0.804307 0.060205
0.812593 0.805389 0.061287
0.871593 0.806318 0.062216
0.923551 0.807137 0.063035
0.965258 0.807794 0.063692
0.965258 0.807794 0.063692
0.965258 0.807794 0.063692
0.060767 0.844413 0.052005
0.060767 0.844413 0.052005
0.060938 0.844415 0.052008
0.075287 0.844641 0.052234
0.115915 0.845281 0.052874
0.187200 0.846404 0.053997
0.293686 0.848081 0.055674
0.439968 0.850385 0.057978
0.568737 0.852413 0.060006
0.665301 0.853934 0.061527
0.746482 0.855213 0.062805
0.815193 0.856295 0.063888
0.874193 0.857224 0.064817
0.926151 0.858042 0.065635
0.967858 0.858699 0.066292
0.967858 0.858699 0.066292
0.967858 0.858699 0.066292
0.063148 0.891030 0.054387
0.063148 0.891030 0.054387
0.063319 0.891033 0.054389
0.077669 0.891259 0.054615
0.118296 0.891899 0.055255
0.189581 0.893021 0.056378
0.296068 0.894699 0.058055
0.442350 0.897003 0.060359
0.571119 0.899031 0.062387
0.667682 0.900552 0.063908
0.748863 0.901830 0.065187
0.817574 0.902912 0.066269
0.876575 0.903842 0.067198
0.928533 0.904660 0.068017
0.970239 0.905317 0.068673
0.970239 0.905317 0.068673
0.970239 0.905317 0.068673
0.065438 0.935870 0.056677
0.065438 0.935870 0.056677
0.065610 0.935873 0.056680
0.079959 0.936099 0.056906
0.120587 0.936739 0.057546
0.191872 0.937862 0.058668
0.298358 0.939539 0.060346
0.444640 0.941843 0.062650
0.573409 0.943871 0.064678
0.669973 0.945392 0.066199
0.751154 0.946670 0.067477
0.819865 0.947753 0.068559
0.878865 0.948682 0.069489
0.930823 0.949500 0.070307
0.972530 0.950157 0.070964
0.972530 0.950157 0.070964
0.972530 0.950157 0.070964
0.066265 0.952058 0.057504
0.066265 0.952058 0.057504
0.066437 0.952061 0.057507
0.080786 0.952287 0.057733
0.121414 0.952927 0.058373
0.192698 0.954050 0.059495
0.299185 0.955727 0.061173
0.445467 0.958031 0.063477
0.574236 0.960059 0.065505
0.670800 0.961580 0.067026
0.751981 0.962858 0.068304
0.820692 0.963940 0.069386
0.879692 0.964870 0.070316
0.931650 0.965688 0.071134
0.973357 0.966345 0.071791
0.973357 0.966345 0.071791
0.973357 0.966345 0.071791
0.018218 0.011466 0.009456
0.018218 0.011466 0.009456
0.018389 0.011469 0.009459
0.032738 0.011695 0.009685
0.073366 0.012335 0.010325
0.144651 0.013457 0.011448
0.251137 0.015134 0.013125
0.397419 0.017438 0.015429
0.526188 0.019467 0.017457
0.622752 0.020987 0.018978
0.703933 0.022266 0.020256
0.772644 0.023348 0.021339
0.831644 0.024277 0.022268
0.883602 0.025096 0.023086
0.925309 0.025753 0.023743
0.925309 0.025753 0.023743
0.925309 0.025753 0.023743
0.018218 0.011466 0.009456
0.018218 0.011466 0.009456
0.018389 0.011469 0.009459
0.032738 0.011695 0.009685
0.073366 0.012335 0.010325
0.144651 0.013457 0.011448
0.251137 0.015134 0.013125
0.397419 0.017438 0.015429
0.526188 0.019467 0.017457
0.622752 0.020987 0.018978
0.703933 0.022266 0.020256
0.772644 0.023348 0.021339
0.831644 0.024277 0.022268
0.883602 0.025096 0.023086
0.925309 0.025753 0.023743
0.925309 0.025753 0.023743
0.925309 0.025753 0.023743
0.018226 0.011621 0.009464
0.018226 0.011621 0.009464
0.018397 0.011624 0.009467
0.032746 0.011850 0.009693
0.073374 0.012490 0.010333
0.144659 0.013612 0.011456
0.251145 0.015290 0.013133
0.397427 0.017594 0.015437
0.526196 0.019622 0.017465
0.622760 0.021143 0.018986
0.703941 0.022421 0.020264
0.772652 0.023503 0.021347
0.831652 0.024433 0.022276
0.883610 0.025251 0.023094
0.925317 0.025908 0.023751
0.925317 0.025908 0.023751
0.925317 0.025908 0.023751
0.018893 0.024695 0.010132
0.018893 0.024695 0.010132
0.019065 0.024698 0.010135
0.033414 0.024924 0.010361
0.074042 0.025563 0.011001
0.145327 0.026686 0.012123
0.251813 0.028363 0.013801
0.398095 0.030667 0.016105
0.526864 0.032696 0.018133
0.623428 0.034216 0.019654
0.704609 0.035495 0.020932
0.773320 0.036577 0.022014
0.832320 0.037506 0.022944
0.884278 0.038325 0.023762
0.925985 0.038982 0.024419
0.925985 0.038982 0.024419
0.925985 0.038982 0.024419
0.020814 0.062300 0.012053
0.020814 0.062300 0.012053
0.020986 0.062303 0.012056
0.035335 0.062529 0.012282
0.075963 0.063169 0.012922
0.147248 0.064292 0.014044
0.253734 0.065969 0.015722
0.400016 0.068273 0.018026
0.528785 0.070301 0.020054
0.625349 0.071822 0.021575
0.706530 0.073100 0.022853
0.775241 0.074183 0.023935
0.834241 0.075112 0.024865
0.886199 0.075930 0.025683
0.927906 0.076587 0.026340
0.927906 0.076587 0.026340
0.927906 0.076587 0.026340
0.024236 0.129278 0.015474
0.024236 0.129278 0.015474
0.024407 0.129281 0.015477
0.038756 0.129507 0.015703
0.079384 0.130146 0.016343
0.150669 0.131269 0.017466
0.257155 0.132946 0.019143
0.403438 0.135250 0.021447
0.532207 0.137278 0.023475
0.628770 0.138799 0.024996
0.709951 0.140078 0.026275
0.778662 0.141160 0.027357
0.837662 0.142089 0.028286
0.889620 0.142908 0.029104
0.931327 0.143565 0.029761
0.931327 0.143565 0.029761
0.931327 0.143565 0.029761
0.029409 0.230557 0.020648
0.029409 0.230557 0.020648
0.029581 0.230560 0.020651
0.043930 0.230786 0.020877
0.084558 0.231426 0.021517
0.155842 0.232548 0.022639
0.262329 0.234226 0.024317
0.408611 0.236530 0.026621
0.537380 0.238558 0.028649
0.633944 0.240079 0.030170
0.715125 0.241357 0.031448
0.783836 0.242439 0.032530
0.842836 0.243369 0.033460
0.894794 0.244187 0.034278
0.936501 0.244844 0.034935
0.936501 0.244844 0.034935
0.936501 0.244844 0.034935
0.036588 0.371086 0.027827
0.036588 0.371086 0.027827
0.036759 0.371088 0.027829
0.051109 0.371314 0.028055
0.091736 0.371954 0.028695
0.163021 0.373077 0.029818
0.269508 0.374754 0.031495
0.415790 0.377058 0.033799
0.544559 0.379086 0.035827
0.641122 0.380607 0.037348
0.722303 0.381886 0.038627
0.791014 0.382968 0.039709
0.850015 0.383897 0.040638
0.901973 0.384715 0.041457
0.943679 0.385372 0.042113
0.943679 0.385372 0.042113
0.943679 0.385372 0.042113
0.042953 0.495684 0.034191
0.042953 0.495684 0.034191
0.043124 0.495686 0.034194
0.057473 0.495912 0.034420
0.098101 0.496552 0.035060
0.169386 0.497675 0.036183
0.275872 0.499352 0.037860
0.422154 0.501656 0.040164
0.550923 0.503684 0.042192
0.647487 0.505205 0.043713
0.728668 0.506484 0.044991
0.797379 0.507566 0.046074
0.856379 0.508495 0.047003
0.908337 0.509314 0.047821
0.950044 0.509971 0.048478
0.950044 0.509971 0.048478
0.950044 0.509971 0.048478
0.047747 0.589533 0.038985
0.047747 0.589533 0.038985
0.047918 0.589536 0.038988
0.062267 0.589762 0.039214
0.102895 0.590402 0.039854
0.174180 0.591525 0.040977
0.280666 0.593202 0.042654
0.426949 0.595506 0.044958
0.555718 0.597534 0.046986
0.652281 0.599055 0.048507
0.733462 0.600333 0.049786
0.802173 0.601416 0.050868
0.861173 0.602345 0.051797
0.913131 0.603163 0.052615
0.954838 0.603820 0.053272
0.954838 0.603820 0.053272
0.954838 0.603820 0.053272
0.051789 0.668661 0.043027
0.051789 0.668661 0.043027
0.051960 0.668664 0.043030
0.066309 0.668890 0.043256
0.106937 0.669530 0.043896
0.178222 0.670653 0.045019
0.284708 0.672330 0.046696
0.430991 0.674634 0.049000
0.559760 0.676662 0.051028
0.656323 0.678183 0.052549
0.737504 0.679461 0.053828
0.806215 0.680544 0.054910
0.865215 0.681473 0.055839
0.917173 0.682291 0.056657
0.958880 0.682948 0.057314
0.958880 0.682948 0.057314
0.958880 0.682948 0.057314
0.055217 0.735779 0.046456
0.055217 0.735779 0.046456
0.055389 0.735782 0.046459
0.069738 0.736008 0.046685
0.110366 0.736647 0.047325
0.181650 0.737770 0.048447
0.288137 0.739447 0.050125
0.434419 0.741751 0.052428
0.563188 0.743779 0.054457
0.659752 0.745300 0.055977
0.740933 0.746579 0.057256
0.809644 0.747661 0.058338
0.868644 0.748590 0.059268
0.920602 0.749409 0.060086
0.962309 0.750066 0.060743
0.962309 0.750066 0.060743
0.962309 0.750066 0.060743
0.058166 0.793507 0.049405
0.058166 0.793507 0.049405
0.058338 0.793509 0.049408
0.072687 0.793735 0.049634
0.113315 0.794375 0.050273
0.184599 0.795498 0.051396
0.291086 0.797175 0.053073
0.437368 0.799479 0.055377
0.566137 0.801507 0.057405
0.662700 0.803028 0.058926
0.743882 0.804307 0.060205
0.812593 0.805389 0.061287
0.871593 0.806318 0.062216
0.923551 0.807137 0.063035
0.965258 0.807794 0.063692
0.965258 0.807794 0.063692
0.965258 0.807794 0.063692
0.060767 0.844413 0.052005
0.060767 0.844413 0.052005
0.060938 0.844415 0.052008
0.075287 0.844641 0.052234
0.115915 0.845281 0.052874
0.187200 0.846404 0.053997
0.293686 0.848081 0.055674
0.439968 0.850385 0.057978
0.568737 0.852413 0.060006
0.665301 0.853934 0.061527
0.746482 0.855213 0.062805
0.815193 0.856295 0.063888
0.874193 0.857224 0.064817
0.926151 0.858042 0.065635
0.967858 0.858699 0.066292
0.967858 0.858699 0.066292
0.967858 0.858699 0.066292
0.063148 0.891030 0.054387
0.063148 0.891030 0.054387
0.063319 0.891033 0.054389
0.077669 0.891259 0.054615
0.118296 0.891899 0.055255
0.189581 0.893021 0.056378
0.296068 0.894699 0.058055
0.442350 0.897003 0.060359
0.571119 0.899031 0.062387
0.667682 0.900552 0.063908
0.748863 0.901830 0.065187
0.817574 0.902912 0.066269
0.876575 0.903842 0.067198
0.928533 0.904660 0.068017
0.970239 0.905317 0.068673
0.970239 0.905317 0.068673
0.970239 0.905317 0.068673
0.065438 0.935870 0.056677
0.065438 0.935870 0.056677
0.065610 0.935873 0.056680
0.079959 0.936099 0.056906
0.120587 0.936739 0.057546
0.191872 0.937862 0.058668
0.298358 0.939539 0.060346
0.444640 0.941843 0.062650
0.573409 0.943871 0.064678
0.669973 0.945392 0.066199
0.751154 0.946670 0.067477
0.819865 0.947753 0.068559
0.878865 0.948682 0.069489
0.930823 0.949500 0.070307
0.972530 0.950157 0.070964
0.972530 0.950157 0.070964
0.972530 0.950157 0.070964
0.066265 0.952058 0.057504
0.066265 0.952058 0.057504
0.066437 0.952061 0.057507
0.080786 0.952287 0.057733
0.121414 0.952927 0.058373
0.192698 0.954050 0.059495
0.299185 0.955727 0.061173
0.445467 0.958031 0.063477
0.574236 0.960059 0.065505
0.670800 0.961580 0.067026
0.751981 0.962858 0.068304
0.820692 0.963940 0.069386
0.879692 0.964870 0.070316
0.931650 0.965688 0.071134
0.973357 0.966345 0.071791
0.973357 0.966345 0.071791
0.973357 0.966345 0.071791
0.018218 0.011466 0.009456
0.018218 0.011466 0.009456
0.018389 0.011469 0.009459
0.032738 0.011695 0.009685
0.073366 0.012335 0.010325
0.144651 0.013457 0.011448
0.251137 0.015134 0.013125
0.397419 0.017438 0.015429
0.526188 0.019467 0.017457
0.622752 0.020987 0.018978
0.703933 0.022266 0.020256
0.772644 0.023348 0.021339
0.831644 0.024277 0.022268
0.883602 0.025096 0.023086
0.925309 0.025753 0.023743
0.925309 0.025753 0.023743
0.925309 0.025753 0.023743
0.018218 0.011466 0.009456
0.018218 0.011466 0.009456
0.018389 0.011469 0.009459
0.032738 0.011695 0.009685
0.073366 0.012335 0.010325
0.144651 0.013457 0.011448
0.251137 0.015134 0.013125
0.397419 0.017438 0.015429
0.526188 0.019467 0.017457
0.622752 0.020987 0.018978
0.703933 0.022266 0.020256
0.772644 0.023348 0.021339
0.831644 0.024277 0.022268
0.883602 0.025096 0.023086
0.925309 0.025753 0.023743
0.925309 0.025753 0.023743
0.925309 0.025753 0.023743
0.018226 0.011621 0.009464
0.018226 0.011621 0.009464
0.018397 0.011624 0.009467
0.032746 0.011850 0.009693
0.073374 0.012490 0.010333
0.144659 0.013612 0.011456
0.251145 0.015290 0.013133
0.397427 0.017594 0.015437
0.526196 0.019622 0.017465
0.622760 0.021143 0.018986
0.703941 0.022421 0.020264
0.772652 0.023503 0.021347
0.831652 0.024433 0.022276
0.883610 0.025251 0.023094
0.925317 0.025908 0.023751
0.925317 0.025908 0.023751
0.925317 0.025908 0.023751
0.018893 0.024695 0.010132
0.018893 0.024695 0.010132
0.019065 0.024698 0.010135
0.033414 0.024924 0.010361
0.074042 0.025563 0.011001
0.145327 0.026686 0.012123
0.251813 0.028363 0.013801
0.398095 0.030667 0.016105
0.526864 0.032696 0.018133
0.623428 0.034216 0.019654
0.704609 0.035495 0.020932
0.773320 0.036577 0.022014
0.832320 0.037506 0.022944
0.884278 0.038325 0.023762
0.925985 0.038982 0.024419
0.925985 0.038982 0.024419
0.925985 0.038982 0.024419
0.020814 0.062300 0.012053
0.020814 0.062300 0.012053
0.020986 0.062303 0.012056
0.035335 0.062529 0.012282
0.075963 0.063169 0.012922
0.147248 0.064292 0.014044
0.253734 0.065969 0.015722
0.400016 0.068273 0.018026
0.528785 0.070301 0.020054
0.625349 0.071822 0.021575
0.706530 0.073100 0.022853
0.775241 0.074183 0.023935
0.834241 0.075112 0.024865
0.886199 0.075930 0.025683
0.927906 0.076587 0.026340
0.927906 0.076587 0.026340
0.927906 0.076587 0.026340
0.024236 0.129278 0.015474
0.024236 0.129278 0.015474
0.024407 0.129281 0.015477
0.038756 0.129507 0.015703
0.079384 0.130146 0.016343
0.150669 0.131269 0.017466
0.257155 0.132946 0.019143
0.403438 0.135250 0.021447
0.532207 0.137278 0.023475
0.628770 0.138799 0.024996
0.709951 0.140078 0.026275
0.778662 0.141160 0.027357
0.837662 0.142089 0.028286
0.889620 0.142908 0.029104
0.931327 0.143565 0.029761
0.931327 0.143565 0.029761
0.931327 0.143565 0.029761
0.029409 0.230557 0.020648
0.029409 0.230557 0.020648
0.029581 0.230560 0.020651
0.043930 0.230786 0.020877
0.084558 0.231426 0.021517
0.155842 0.232548 0.022639
0.262329 0.234226 0.024317
0.408611 0.236530 0.026621
0.537380 0.238558 0.028649
0.633944 0.240079 0.030170
0.715125 0.241357 0.031448
0.783836 0.242439 0.032530
0.842836 0.243369 0.033460
0.894794 0.244187 0.034278
0.936501 0.244844 0.034935
0.936501 0.244844 0.034935
0.936501 0.244844 0.034935
0.036588 0.371086 0.027827
0.036588 0.371086 0.027827
0.036759 0.371088 0.027829
0.051109 0.371314 0.028055
0.091736 0.371954 0.028695
0.163021 0.373077 0.029818
0.269508 0.374754 0.031495
0.415790 0.377058 0.033799
0.544559 0.379086 0.035827
0.641122 0.380607 0.037348
0.722303 0.381886 0.038627
0.791014 0.382968 0.039709
0.850015 0.383897 0.040638
0.901973 0.384715 0.041457
0.943679 0.385372 0.042113
0.943679 0.385372 0.042113
0.943679 0.385372 0.042113
0.042953 0.495684 0.034191
0.042953 0.495684 0.034191
0.043124 0.495686 0.034194
0.057473 0.495912 0.034420
0.098101 0.496552 0.035060
0.169386 0.497675 0.036183
0.275872 0.499352 0.037860
0.422154 0.501656 0.040164
0.550923 0.503684 0.042192
0.647487 0.505205 0.043713
0.728668 0.506484 0.044991
0.797379 0.507566 0.046074
0.856379 0.508495 0.047003
0.908337 0.509314 0.047821
0.950044 0.509971 0.048478
0.950044 0.509971 0.048478
0.950044 0.509971 0.048478
0.047747 0.589533 0.038985
0.047747 0.589533 0.038985
0.047918 0.589536 0.038988
0.062267 0.589762 0.039214
0.102895 0.590402 0.039854
0.174180 0.591525 0.040977
0.280666 0.593202 0.042654
0.426949 0.595506 0.044958
0.555718 0.597534 0.046986
0.652281 0.599055 0.048507
0.733462 0.600333 0.049786
0.802173 0.601416 0.050868
0.861173 0.602345 0.051797
0.913131 0.603163 0.052615
0.954838 0.603820 0.053272
0.954838 0.603820 0.053272
0.954838 0.603820 0.053272
0.051789 0.668661 0.043027
0.051789 0.668661 0.043027
0.051960 0.668664 0.043030
0.066309 0.668890 0.043256
0.106937 0.669530 0.043896
0.178222 0.670653 0.045019
0.284708 0.672330 0.046696
0.430991 0.674634 0.049000
0.559760 0.676662 0.051028
0.656323 0.678183 0.052549
0.737504 0.679461 0.053828
0.806215 0.680544 0.054910
0.865215 0.681473 0.055839
0.917173 0.682291 0.056657
0.958880 0.682948 0.057314
0.958880 0.682948 0.057314
0.958880 0.682948 0.057314
0.055217 0.735779 0.046456
0.055217 0.735779 0.046456
0.055389 0.735782 0.046459
0.069738 0.736008 0.046685
0.110366 0.736647 0.047325
0.181650 0.737770 0.048447
0.288137 0.739447 0.050125
0.434419 0.741751 0.052428
0.563188 0.743779 0.054457
0.659752 0.745300 0.055977
0.740933 0.746579 0.057256
0.809644 0.747661 0.058338
0.868644 0.748590 0.059268
0.920602 0.749409 0.060086
0.962309 0.750066 0.060743
0.962309 0.750066 0.060743
0.962309 0.750066 0.060743
0.058166 0.793507 0.049405
0.058166 0.793507 0.049405
0.058338 0.793509 0.049408
0.072687 0.793735 0.049634
0.113315 0.794375 0.050273
0.184599 0.795498 0.051396
0.291086 0.797175 0.053073
0.437368 0.799479 0.055377
0.566137 0.801507 0.057405
0.662700 0.803028 0.058926
0.743882 0.804307 0.060205
0.812593 0.805389 0.061287
0.871593 0.806318 0.062216
0.923551 0.807137 0.063035
0.965258 0.807794 0.063692
0.965258 0.807794 0.063692
0.965258 0.807794 0.063692
0.060767 0.844413 0.052005
0.060767 0.844413 0.052005
0.060938 0.844415 0.052008
0.075287 0.844641 0.052234
0.115915 0.845281 0.052874
0.187200 0.846404 0.053997
0.293686 0.848081 0.055674
0.439968 0.850385 0.057978
0.568737 0.852413 0.060006
0.665301 0.853934 0.061527
0.746482 0.855213 0.062805
0.815193 0.856295 0.063888
0.874193 0.857224 0.064817
0.926151 0.858042 0.065635
0.967858 0.858699 0.066292
0.967858 0.858699 0.066292
0.967858 0.858699 0.066292
0.063148 0.891030 0.054387
0.063148 0.891030 0.054387
0.063319 0.891033 0.054389
0.077669 0.891259 0.054615
0.118296 0.891899 0.055255
0.189581 0.893021 0.056378
0.296068 0.894699 0.058055
0.442350 0.897003 0.060359
0.571119 0.899031 0.062387
0.667682 0.900552 0.063908
0.748863 0.901830 0.065187
0.817574 0.902912 0.066269
0.876575 0.903842 0.067198
0.928533 0.904660 0.068017
0.970239 0.905317 0.068673
0.970239 0.905317 0.068673
0.970239 0.905317 0.068673
0.065438 0.935870 0.056677
0.065438 0.935870 0.056677
0.065610 0.935873 0.056680
0.079959 0.936099 0.056906
0.120587 0.936739 0.057546
0.191872 0.937862 0.058668
0.298358 0.939539 0.060346
0.444640 0.941843 0.062650
0.573409 0.943871 0.064678
0.669973 0.945392 0.066199
0.751154 0.946670 0.067477
0.819865 0.947753 0.068559
0.878865 0.948682 0.069489
0.930823 0.949500 0.070307
0.972530 0.950157 0.070964
0.972530 0.950157 0.070964
0.972530 0.950157 0.070964
0.066265 0.952058 0.057504
0.066265 0.952058 0.057504
0.066437 0.952061 0.057507
0.080786 0.952287 0.057733
0.121414 0.952927 0.058373
0.192698 0.954050 0.059495
0.299185 0.955727 0.061173
0.445467 0.958031 0.063477
0.574236 0.960059 0.065505
0.670800 0.961580 0.067026
0.751981 0.962858 0.068304
0.820692 0.963940 0.069386
0.879692 0.964870 0.070316
0.931650 0.965688 0.071134
0.973357 0.966345 0.071791
0.973357 0.966345 0.071791
0.973357 0.966345 0.071791
0.018225 0.011473 0.010735
0.018225 0.011473 0.010735
0.018396 0.011476 0.010738
0.032745 0.011702 0.010964
0.073373 0.012341 0.011604
0.144658 0.013464 0.012727
0.251144 0.015141 0.014404
0.397426 0.017445 0.016708
0.526195 0.019473 0.018736
0.622759 0.020994 0.020257
0.703940 0.022273 0.021535
0.772651 0.023355 0.022618
0.831651 0.024284 0.023547
0.883609 0.025103 0.024365
0.925316 0.025760 0.025022
0.925316 0.025760 0.025022
0.925316 0.025760 0.025022
0.018225 0.011473 0.010735
