public/luts/dji/lk-dji-street.cube
TITLE "LK DJI Street"
LUT_3D_SIZE 9
DOMAIN_MIN 0.0 0.0 0.0
DOMAIN_MAX 1.0 1.0 1.0
0.000000 0.000000 0.000000
0.000000 0.000000 0.000000
0.003718 0.000145 0.000145
0.140861 0.005482 0.005482
0.390669 0.015205 0.015205
0.564343 0.021964 0.021964
0.693366 0.026985 0.026985
0.795950 0.030978 0.030978
0.860866 0.033504 0.033504
0.000000 0.000000 0.000000
0.000000 0.000000 0.000000
0.003718 0.000145 0.000145
0.140861 0.005482 0.005482
0.390669 0.015205 0.015205
0.564343 0.021964 0.021964
0.693366 0.026985 0.026985
0.795950 0.030978 0.030978
0.860866 0.033504 0.033504
0.000444 0.003706 0.000444
0.000444 0.003706 0.000444
0.004162 0.003850 0.000589
0.141305 0.009188 0.005926
0.391113 0.018910 0.015649
0.564787 0.025669 0.022408
0.693811 0.030691 0.027430
0.796395 0.034683 0.031422
0.861310 0.037210 0.033948
0.018194 0.151750 0.018194
0.018194 0.151750 0.018194
0.021912 0.151895 0.018339
0.159055 0.157232 0.023676
0.408863 0.166955 0.033399
0.582537 0.173714 0.040158
0.711561 0.178735 0.045179
0.814144 0.182728 0.049172
0.879060 0.185254 0.051698
0.050542 0.421551 0.050542
0.050542 0.421551 0.050542
0.054260 0.421696 0.050687
0.191403 0.427033 0.056024
0.441211 0.436755 0.065747
0.614885 0.443515 0.072506
0.743908 0.448536 0.077527
0.846492 0.452529 0.081520
0.911408 0.455055 0.084046
0.073032 0.609134 0.073032
0.073032 0.609134 0.073032
0.076750 0.609279 0.073177
0.213893 0.614616 0.078515
0.463701 0.624339 0.088237
0.637375 0.631098 0.094996
0.766399 0.636119 0.100018
0.868983 0.640112 0.104010
0.933898 0.642638 0.106537
0.089741 0.748493 0.089741
0.089741 0.748493 0.089741
0.093459 0.748637 0.089886
0.230602 0.753975 0.095223
0.480410 0.763697 0.104945
0.654084 0.770456 0.111705
0.783107 0.775478 0.116726
0.885691 0.779470 0.120719
0.950607 0.781997 0.123245
0.103025 0.859295 0.103025
0.103025 0.859295 0.103025
0.106743 0.859439 0.103170
0.243886 0.864777 0.108508
0.493694 0.874499 0.118230
0.667368 0.881258 0.124989
0.796392 0.886280 0.130011
0.898976 0.890272 0.134003
0.963891 0.892799 0.136530
0.111432 0.929411 0.111432
0.111432 0.929411 0.111432
0.115150 0.929555 0.111577
0.252293 0.934893 0.116914
0.502101 0.944615 0.126637
0.675775 0.951374 0.133396
0.804798 0.956396 0.138417
0.907382 0.960388 0.142410
0.972298 0.962915 0.144936
0.000000 0.000000 0.000000
0.000000 0.000000 0.000000
0.003718 0.000145 0.000145
0.140861 0.005482 0.005482
0.390669 0.015205 0.015205
0.564343 0.021964 0.021964
0.693366 0.026985 0.026985
0.795950 0.030978 0.030978
0.860866 0.033504 0.033504
0.000000 0.000000 0.000000
0.000000 0.000000 0.000000
0.003718 0.000145 0.000145
0.140861 0.005482 0.005482
0.390669 0.015205 0.015205
0.564343 0.021964 0.021964
0.693366 0.026985 0.026985
0.795950 0.030978 0.030978
0.860866 0.033504 0.033504
0.000444 0.003706 0.000444
0.000444 0.003706 0.000444
0.004162 0.003850 0.000589
0.141305 0.009188 0.005926
0.391113 0.018910 0.015649
0.564787 0.025669 0.022408
0.693811 0.030691 0.027430
0.796395 0.034683 0.031422
0.861310 0.037210 0.033948
0.018194 0.151750 0.018194
0.018194 0.151750 0.018194
0.021912 0.151895 0.018339
0.159055 0.157232 0.023676
0.408863 0.166955 0.033399
0.582537 0.173714 0.040158
0.711561 0.178735 0.045179
0.814144 0.182728 0.049172
0.879060 0.185254 0.051698
0.050542 0.421551 0.050542
0.050542 0.421551 0.050542
0.054260 0.421696 0.050687
0.191403 0.427033 0.056024
0.441211 0.436755 0.065747
0.614885 0.443515 0.072506
0.743908 0.448536 0.077527
0.846492 0.452529 0.081520
0.911408 0.455055 0.084046
0.073032 0.609134 0.073032
0.073032 0.609134 0.073032
0.076750 0.609279 0.073177
0.213893 0.614616 0.078515
0.463701 0.624339 0.088237
0.637375 0.631098 0.094996
0.766399 0.636119 0.100018
0.868983 0.640112 0.104010
0.933898 0.642638 0.106537
0.089741 0.748493 0.089741
0.089741 0.748493 0.089741
0.093459 0.748637 0.089886
0.230602 0.753975 0.095223
0.480410 0.763697 0.104945
0.654084 0.770456 0.111705
0.783107 0.775478 0.116726
0.885691 0.779470 0.120719
0.950607 0.781997 0.123245
0.103025 0.859295 0.103025
0.103025 0.859295 0.103025
0.106743 0.859439 0.103170
0.243886 0.864777 0.108508
0.493694 0.874499 0.118230
0.667368 0.881258 0.124989
0.796392 0.886280 0.130011
0.898976 0.890272 0.134003
0.963891 0.892799 0.136530
0.111432 0.929411 0.111432
0.111432 0.929411 0.111432
0.115150 0.929555 0.111577
0.252293 0.934893 0.116914
0.502101 0.944615 0.126637
0.675775 0.951374 0.133396
0.804798 0.956396 0.138417
0.907382 0.960388 0.142410
0.972298 0.962915 0.144936
0.000067 0.000067 0.004923
0.000067 0.000067 0.004923
0.003784 0.000211 0.005067
0.140928 0.005549 0.010405
0.390735 0.015271 0.020127
0.564410 0.022031 0.026886
0.693433 0.027052 0.031908
0.796017 0.031045 0.035900
0.860933 0.033571 0.038427
0.000067 0.000067 0.004923
0.000067 0.000067 0.004923
0.003784 0.000211 0.005067
0.140928 0.005549 0.010405
0.390735 0.015271 0.020127
0.564410 0.022031 0.026886
0.693433 0.027052 0.031908
0.796017 0.031045 0.035900
0.860933 0.033571 0.038427
0.000511 0.003772 0.005367
0.000511 0.003772 0.005367
0.004229 0.003917 0.005512
0.141372 0.009255 0.010849
0.391180 0.018977 0.020572
0.564854 0.025736 0.027331
0.693877 0.030758 0.032352
0.796461 0.034750 0.036345
0.861377 0.037277 0.038871
0.018261 0.151817 0.023117
0.018261 0.151817 0.023117
0.021979 0.151962 0.023262
0.159122 0.157299 0.028599
0.408930 0.167021 0.038321
0.582604 0.173781 0.045081
0.711627 0.178802 0.050102
0.814211 0.182795 0.054095
0.879127 0.185321 0.056621
0.050609 0.421618 0.055465
0.050609 0.421618 0.055465
0.054326 0.421762 0.055609
0.191470 0.427100 0.060947
0.441277 0.436822 0.070669
0.614952 0.443581 0.077428
0.743975 0.448603 0.082450
0.846559 0.452595 0.086442
0.911475 0.455122 0.088969
0.073099 0.609201 0.077955
0.073099 0.609201 0.077955
0.076817 0.609346 0.078100
0.213960 0.614683 0.083437
0.463768 0.624405 0.093160
0.637442 0.631165 0.099919
0.766466 0.636186 0.104940
0.869049 0.640179 0.108933
0.933965 0.642705 0.111459
0.089808 0.748559 0.094664
0.089808 0.748559 0.094664
0.093525 0.748704 0.094808
0.230668 0.754042 0.100146
0.480476 0.763764 0.109868
0.654151 0.770523 0.116627
0.783174 0.775545 0.121649
0.885758 0.779537 0.125641
0.950673 0.782064 0.128168
0.103092 0.859361 0.107948
0.103092 0.859361 0.107948
0.106810 0.859506 0.108093
0.243953 0.864843 0.113430
0.493761 0.874566 0.123153
0.667435 0.881325 0.129912
0.796459 0.886347 0.134933
0.899043 0.890339 0.138926
0.963958 0.892866 0.141452
0.111499 0.929477 0.116355
0.111499 0.929477 0.116355
0.115217 0.929622 0.116499
0.252360 0.934960 0.121837
0.502168 0.944682 0.131559
0.675842 0.951441 0.138319
0.804865 0.956463 0.143340
0.907449 0.960455 0.147333
0.972365 0.962982 0.149859
0.001925 0.001925 0.141892
0.001925 0.001925 0.141892
0.005643 0.002070 0.142037
0.142786 0.007407 0.147374
0.392594 0.017129 0.157097
0.566268 0.023889 0.163856
0.695291 0.028910 0.168877
0.797875 0.032903 0.172870
0.862791 0.035429 0.175396
0.001925 0.001925 0.141892
0.001925 0.001925 0.141892
0.005643 0.002070 0.142037
0.142786 0.007407 0.147374
0.392594 0.017129 0.157097
0.566268 0.023889 0.163856
0.695291 0.028910 0.168877
0.797875 0.032903 0.172870
0.862791 0.035429 0.175396
0.002369 0.005630 0.142336
0.002369 0.005630 0.142336
0.006087 0.005775 0.142481
0.143230 0.011113 0.147818
0.393038 0.020835 0.157541
0.566712 0.027594 0.164300
0.695736 0.032616 0.169322
0.798319 0.036608 0.173314
0.863235 0.039135 0.175840
0.020119 0.153675 0.160086
0.020119 0.153675 0.160086
0.023837 0.153820 0.160231
0.160980 0.159157 0.165568
0.410788 0.168879 0.175291
0.584462 0.175639 0.182050
0.713485 0.180660 0.187071
0.816069 0.184653 0.191064
0.880985 0.187179 0.193590
0.052467 0.423476 0.192434
0.052467 0.423476 0.192434
0.056185 0.423620 0.192579
0.193328 0.428958 0.197916
0.443136 0.438680 0.207639
0.616810 0.445439 0.214398
0.745833 0.450461 0.219419
0.848417 0.454453 0.223412
0.913333 0.456980 0.225938
0.074957 0.611059 0.214924
0.074957 0.611059 0.214924
0.078675 0.611204 0.215069
0.215818 0.616541 0.220407
0.465626 0.626264 0.230129
0.639300 0.633023 0.236888
0.768324 0.638044 0.241910
0.870908 0.642037 0.245902
0.935823 0.644563 0.248429
0.091666 0.750418 0.231633
0.091666 0.750418 0.231633
0.095383 0.750562 0.231778
0.232527 0.755900 0.237115
0.482334 0.765622 0.246837
0.656009 0.772381 0.253597
0.785032 0.777403 0.258618
0.887616 0.781395 0.262611
0.952531 0.783922 0.265137
0.104950 0.861219 0.244917
0.104950 0.861219 0.244917
0.108668 0.861364 0.245062
0.245811 0.866702 0.250400
0.495619 0.876424 0.260122
0.669293 0.883183 0.266881
0.798317 0.888205 0.271903
0.900901 0.892197 0.275895
0.965816 0.894724 0.278422
0.113357 0.931335 0.253324
0.113357 0.931335 0.253324
0.117075 0.931480 0.253469
0.254218 0.936818 0.258806
0.504026 0.946540 0.268529
0.677700 0.953299 0.275288
0.806723 0.958321 0.280309
0.909307 0.962313 0.284302
0.974223 0.964840 0.286828
0.005267 0.005267 0.388233
0.005267 0.005267 0.388233
0.008984 0.005411 0.388377
0.146128 0.010749 0.393715
0.395935 0.020471 0.403437
0.569610 0.027230 0.410196
0.698633 0.032252 0.415218
0.801217 0.036244 0.419210
0.866132 0.038771 0.421737
0.005267 0.005267 0.388233
0.005267 0.005267 0.388233
0.008984 0.005411 0.388377
0.146128 0.010749 0.393715
0.395935 0.020471 0.403437
0.569610 0.027230 0.410196
0.698633 0.032252 0.415218
0.801217 0.036244 0.419210
0.866132 0.038771 0.421737
0.005711 0.008972 0.388677
0.005711 0.008972 0.388677
0.009429 0.009117 0.388822
0.146572 0.014454 0.394159
0.396380 0.024177 0.403881
0.570054 0.030936 0.410641
0.699077 0.035958 0.415662
0.801661 0.039950 0.419655
0.866577 0.042476 0.422181
0.023461 0.157017 0.406427
0.023461 0.157017 0.406427
0.027179 0.157161 0.406571
0.164322 0.162499 0.411909
0.414130 0.172221 0.421631
0.587804 0.178981 0.428390
0.716827 0.184002 0.433412
0.819411 0.187994 0.437404
0.884327 0.190521 0.439931
0.055809 0.426818 0.438775
0.055809 0.426818 0.438775
0.059526 0.426962 0.438919
0.196670 0.432300 0.444257
0.446477 0.442022 0.453979
0.620152 0.448781 0.460738
0.749175 0.453803 0.465760
0.851759 0.457795 0.469752
0.916674 0.460322 0.472279
0.078299 0.614401 0.461265
0.078299 0.614401 0.461265
0.082017 0.614546 0.461410
0.219160 0.619883 0.466747
0.468968 0.629605 0.476469
0.642642 0.636365 0.483229
0.771665 0.641386 0.488250
0.874249 0.645379 0.492243
0.939165 0.647905 0.494769
0.095008 0.753759 0.477973
0.095008 0.753759 0.477973
0.098725 0.753904 0.478118
0.235868 0.759242 0.483456
0.485676 0.768964 0.493178
0.659350 0.775723 0.499937
0.788374 0.780745 0.504959
0.890958 0.784737 0.508951
0.955873 0.787264 0.511478
0.108292 0.864561 0.491258
0.108292 0.864561 0.491258
0.112010 0.864706 0.491403
0.249153 0.870043 0.496740
0.498961 0.879766 0.506463
0.672635 0.886525 0.513222
0.801659 0.891546 0.518243
0.904242 0.895539 0.522236
0.969158 0.898065 0.524762
0.116699 0.934677 0.499665
0.116699 0.934677 0.499665
0.120416 0.934822 0.499809
0.257560 0.940159 0.505147
0.507367 0.949882 0.514869
0.681042 0.956641 0.521628
0.810065 0.961663 0.526650
0.912649 0.965655 0.530642
0.977564 0.968181 0.533169
0.007577 0.007577 0.558521
0.007577 0.007577 0.558521
0.011294 0.007721 0.558666
0.148438 0.013059 0.564003
0.398245 0.022781 0.573725
0.571920 0.029541 0.580485
0.700943 0.034562 0.585506
0.803527 0.038555 0.589499
0.868443 0.041081 0.592025
0.007577 0.007577 0.558521
0.007577 0.007577 0.558521
0.011294 0.007721 0.558666
0.148438 0.013059 0.564003
0.398245 0.022781 0.573725
0.571920 0.029541 0.580485
0.700943 0.034562 0.585506
0.803527 0.038555 0.589499
0.868443 0.041081 0.592025
0.008021 0.011282 0.558965
0.008021 0.011282 0.558965
0.011739 0.011427 0.559110
0.148882 0.016765 0.564447
0.398690 0.026487 0.574170
0.572364 0.033246 0.580929
0.701387 0.038268 0.585950
0.803971 0.042260 0.589943
0.868887 0.044787 0.592469
0.025771 0.159327 0.576715
0.025771 0.159327 0.576715
0.029489 0.159472 0.576860
0.166632 0.164809 0.582197
0.416440 0.174531 0.591920
0.590114 0.181291 0.598679
0.719137 0.186312 0.603700
0.821721 0.190305 0.607693
0.886637 0.192831 0.610219
0.058119 0.429128 0.609063
0.058119 0.429128 0.609063
0.061836 0.429272 0.609208
0.198980 0.434610 0.614545
0.448787 0.444332 0.624267
0.622462 0.451091 0.631027
0.751485 0.456113 0.636048
0.854069 0.460105 0.640041
0.918985 0.462632 0.642567
0.080609 0.616711 0.631553
0.080609 0.616711 0.631553
0.084327 0.616856 0.631698
0.221470 0.622193 0.637035
0.471278 0.631915 0.646758
0.644952 0.638675 0.653517
0.773976 0.643696 0.658539
0.876559 0.647689 0.662531
0.941475 0.650215 0.665057
0.097318 0.756069 0.648262
0.097318 0.756069 0.648262
0.101035 0.756214 0.648406
0.238178 0.761552 0.653744
0.487986 0.771274 0.663466
0.661661 0.778033 0.670225
0.790684 0.783055 0.675247
0.893268 0.787047 0.679239
0.958183 0.789574 0.681766
0.110602 0.866871 0.661546
0.110602 0.866871 0.661546
0.114320 0.867016 0.661691
0.251463 0.872354 0.667029
0.501271 0.882076 0.676751
0.674945 0.888835 0.683510
0.803969 0.893857 0.688532
0.906553 0.897849 0.692524
0.971468 0.900376 0.695051
0.119009 0.936987 0.669953
0.119009 0.936987 0.669953
0.122727 0.937132 0.670098
0.259870 0.942470 0.675435
0.509678 0.952192 0.685157
0.683352 0.958951 0.691917
0.812375 0.963973 0.696938
0.914959 0.967965 0.700931
0.979875 0.970492 0.703457
0.009288 0.009288 0.684695
0.009288 0.009288 0.684695
0.013006 0.009433 0.684840
0.150149 0.014771 0.690177
0.399957 0.024493 0.699900
0.573631 0.031252 0.706659
0.702655 0.036274 0.711680
0.805239 0.040266 0.715673
0.870154 0.042793 0.718199
0.009288 0.009288 0.684695
0.009288 0.009288 0.684695
0.013006 0.009433 0.684840
0.150149 0.014771 0.690177
0.399957 0.024493 0.699900
0.573631 0.031252 0.706659
0.702655 0.036274 0.711680
0.805239 0.040266 0.715673
0.870154 0.042793 0.718199
0.009733 0.012994 0.685139
0.009733 0.012994 0.685139
0.013450 0.013139 0.685284
0.150594 0.018476 0.690622
0.400401 0.028199 0.700344
0.574076 0.034958 0.707103
0.703099 0.039979 0.712125
0.805683 0.043972 0.716117
0.870598 0.046498 0.718644
0.027483 0.161038 0.702889
0.027483 0.161038 0.702889
0.031200 0.161183 0.703034
0.168343 0.166521 0.708371
0.418151 0.176243 0.718094
0.591826 0.183002 0.724853
0.720849 0.188024 0.729875
0.823433 0.192016 0.733867
0.888348 0.194543 0.736393
0.059830 0.430839 0.735237
0.059830 0.430839 0.735237
0.063548 0.430984 0.735382
0.200691 0.436321 0.740719
0.450499 0.446044 0.750442
0.624173 0.452803 0.757201
0.753197 0.457825 0.762222
0.855781 0.461817 0.766215
0.920696 0.464343 0.768741
0.082321 0.618423 0.757728
0.082321 0.618423 0.757728
0.086039 0.618567 0.757872
0.223182 0.623905 0.763210
0.472990 0.633627 0.772932
0.646664 0.640386 0.779691
0.775687 0.645408 0.784713
0.878271 0.649400 0.788705
0.943187 0.651927 0.791232
0.099029 0.757781 0.774436
0.099029 0.757781 0.774436
0.102747 0.757926 0.774581
0.239890 0.763263 0.779918
0.489698 0.772986 0.789640
0.663372 0.779745 0.796400
0.792396 0.784766 0.801421
0.894980 0.788759 0.805414
0.959895 0.791285 0.807940
0.112314 0.868583 0.787721
0.112314 0.868583 0.787721
0.116032 0.868728 0.787865
0.253175 0.874065 0.793203
0.502983 0.883787 0.802925
0.676657 0.890547 0.809684
0.805680 0.895568 0.814706
0.908264 0.899561 0.818698
0.973180 0.902087 0.821225
0.120720 0.938699 0.796127
0.120720 0.938699 0.796127
0.124438 0.938844 0.796272
0.261581 0.944181 0.801609
0.511389 0.953904 0.811332
0.685063 0.960663 0.818091
0.814087 0.965684 0.823112
0.916671 0.969677 0.827105
0.981586 0.972203 0.829631
0.010647 0.010647 0.784851
0.010647 0.010647 0.784851
0.014365 0.010792 0.784996
0.151508 0.016129 0.790333
0.401316 0.025852 0.800055
0.574990 0.032611 0.806815
0.704014 0.037632 0.811836
0.806597 0.041625 0.815829
0.871513 0.044151 0.818355
0.010647 0.010647 0.784851
0.010647 0.010647 0.784851
0.014365 0.010792 0.784996
0.151508 0.016129 0.790333
0.401316 0.025852 0.800055
0.574990 0.032611 0.806815
0.704014 0.037632 0.811836
0.806597 0.041625 0.815829
0.871513 0.044151 0.818355
0.011091 0.014353 0.785295
0.011091 0.014353 0.785295
0.014809 0.014497 0.785440
0.151952 0.019835 0.790777
0.401760 0.029557 0.800500
0.575434 0.036316 0.807259
0.704458 0.041338 0.812280
0.807042 0.045330 0.816273
0.871957 0.047857 0.818799
0.028841 0.162397 0.803045
0.028841 0.162397 0.803045
0.032559 0.162542 0.803190
0.169702 0.167879 0.808527
0.419510 0.177602 0.818250
0.593184 0.184361 0.825009
0.722208 0.189382 0.830030
0.824792 0.193375 0.834023
0.889707 0.195901 0.836549
0.061189 0.432198 0.835393
0.061189 0.432198 0.835393
0.064907 0.432343 0.835538
0.202050 0.437680 0.840875
0.451858 0.447402 0.850597
0.625532 0.454162 0.857357
0.754556 0.459183 0.862378
0.857139 0.463176 0.866371
0.922055 0.465702 0.868897
0.083680 0.619781 0.857883
0.083680 0.619781 0.857883
0.087397 0.619926 0.858028
0.224540 0.625263 0.863365
0.474348 0.634986 0.873088
0.648022 0.641745 0.879847
0.777046 0.646767 0.884869
0.879630 0.650759 0.888861
0.944545 0.653285 0.891387
0.100388 0.759140 0.874592
0.100388 0.759140 0.874592
0.104106 0.759284 0.874736
0.241249 0.764622 0.880074
0.491057 0.774344 0.889796
0.664731 0.781104 0.896555
0.793754 0.786125 0.901577
0.896338 0.790118 0.905569
0.961254 0.792644 0.908096
0.113673 0.869942 0.887876
0.113673 0.869942 0.887876
0.117390 0.870086 0.888021
0.254533 0.875424 0.893359
0.504341 0.885146 0.903081
0.678016 0.891905 0.909840
0.807039 0.896927 0.914862
0.909623 0.900919 0.918854
0.974538 0.903446 0.921381
0.122079 0.940058 0.896283
0.122079 0.940058 0.896283
0.125797 0.940202 0.896428
0.262940 0.945540 0.901765
0.512748 0.955262 0.911487
0.686422 0.962021 0.918247
0.815446 0.967043 0.923268
0.918029 0.971035 0.927261
0.982945 0.973562 0.929787
0.011378 0.011378 0.838740
0.011378 0.011378 0.838740
0.015096 0.011523 0.838884
0.152239 0.016860 0.844222
0.402047 0.026583 0.853944
0.575721 0.033342 0.860703
0.704745 0.038363 0.865725
0.807328 0.042356 0.869717
0.872244 0.044882 0.872244
0.011378 0.011378 0.838740
0.011378 0.011378 0.838740
0.015096 0.011523 0.838884
0.152239 0.016860 0.844222
0.402047 0.026583 0.853944
0.575721 0.033342 0.860703
0.704745 0.038363 0.865725
0.807328 0.042356 0.869717
0.872244 0.044882 0.872244
0.011822 0.015084 0.839184
0.011822 0.015084 0.839184
0.015540 0.015228 0.839329
0.152683 0.020566 0.844666
0.402491 0.030288 0.854389
0.576165 0.037048 0.861148
0.705189 0.042069 0.866169
0.807773 0.046061 0.870162
0.872688 0.048588 0.872688
0.029572 0.163128 0.856934
0.029572 0.163128 0.856934
0.033290 0.163273 0.857079
0.170433 0.168610 0.862416
0.420241 0.178333 0.872138
0.593915 0.185092 0.878898
0.722939 0.190113 0.883919
0.825523 0.194106 0.887912
0.890438 0.196632 0.890438
0.061920 0.432929 0.889282
0.061920 0.432929 0.889282
0.065638 0.433074 0.889426
0.202781 0.438411 0.894764
0.452589 0.448134 0.904486
0.626263 0.454893 0.911245
0.755287 0.459914 0.916267
0.857870 0.463907 0.920259
0.922786 0.466433 0.922786
0.084411 0.620512 0.911772
0.084411 0.620512 0.911772
0.088128 0.620657 0.911917
0.225271 0.625995 0.917254
0.475079 0.635717 0.926977
0.648754 0.642476 0.933736
0.777777 0.647498 0.938757
0.880361 0.651490 0.942750
0.945276 0.654017 0.945276
0.101119 0.759871 0.928481
0.101119 0.759871 0.928481
0.104837 0.760016 0.928625
0.241980 0.765353 0.933963
0.491788 0.775075 0.943685
0.665462 0.781835 0.950444
0.794485 0.786856 0.955466
0.897069 0.790849 0.959458
0.961985 0.793375 0.961985
0.114404 0.870673 0.941765
0.114404 0.870673 0.941765
0.118121 0.870817 0.941910
0.255264 0.876155 0.947247
0.505072 0.885877 0.956970
0.678747 0.892636 0.963729
0.807770 0.897658 0.968750
0.910354 0.901650 0.972743
0.975269 0.904177 0.975269
0.122810 0.940789 0.950172
0.122810 0.940789 0.950172
0.126528 0.940933 0.950316
0.263671 0.946271 0.955654
0.513479 0.955993 0.965376
0.687153 0.962753 0.972136
0.816177 0.967774 0.977157
0.918761 0.971766 0.981150
0.983676 0.974293 0.983676
