public/luts/dji/lk-dji-kodak.cube
TITLE "LK DJI Kodak"
LUT_3D_SIZE 9
DOMAIN_MIN 0.0 0.0 0.0
DOMAIN_MAX 1.0 1.0 1.0
0.018218 0.011466 0.009456
0.018389 0.011469 0.009459
0.073366 0.012335 0.010325
0.251137 0.015134 0.013125
0.526188 0.019467 0.017457
0.703933 0.022266 0.020256
0.831644 0.024277 0.022268
0.925309 0.025753 0.023743
0.925309 0.025753 0.023743
0.018226 0.011621 0.009464
0.018397 0.011624 0.009467
0.073374 0.012490 0.010333
0.251145 0.015290 0.013133
0.526196 0.019622 0.017465
0.703941 0.022421 0.020264
0.831652 0.024433 0.022276
0.925317 0.025908 0.023751
0.925317 0.025908 0.023751
0.020814 0.062300 0.012053
0.020986 0.062303 0.012056
0.075963 0.063169 0.012922
0.253734 0.065969 0.015722
0.528785 0.070301 0.020054
0.706530 0.073100 0.022853
0.834241 0.075112 0.024865
0.927906 0.076587 0.026340
0.927906 0.076587 0.026340
0.029409 0.230557 0.020648
0.029581 0.230560 0.020651
0.084558 0.231426 0.021517
0.262329 0.234226 0.024317
0.537380 0.238558 0.028649
0.715125 0.241357 0.031448
0.842836 0.243369 0.033460
0.936501 0.244844 0.034935
0.936501 0.244844 0.034935
0.042953 0.495684 0.034191
0.043124 0.495686 0.034194
0.098101 0.496552 0.035060
0.275872 0.499352 0.037860
0.550923 0.503684 0.042192
0.728668 0.506484 0.044991
0.856379 0.508495 0.047003
0.950044 0.509971 0.048478
0.950044 0.509971 0.048478
0.051789 0.668661 0.043027
0.051960 0.668664 0.043030
0.106937 0.669530 0.043896
0.284708 0.672330 0.046696
0.559760 0.676662 0.051028
0.737504 0.679461 0.053828
0.865215 0.681473 0.055839
0.958880 0.682948 0.057314
0.958880 0.682948 0.057314
0.058166 0.793507 0.049405
0.058338 0.793509 0.049408
0.113315 0.794375 0.050273
0.291086 0.797175 0.053073
0.566137 0.801507 0.057405
0.743882 0.804307 0.060205
0.871593 0.806318 0.062216
0.965258 0.807794 0.063692
0.965258 0.807794 0.063692
0.063148 0.891030 0.054387
0.063319 0.891033 0.054389
0.118296 0.891899 0.055255
0.296068 0.894699 0.058055
0.571119 0.899031 0.062387
0.748863 0.901830 0.065187
0.876575 0.903842 0.067198
0.970239 0.905317 0.068673
0.970239 0.905317 0.068673
0.066265 0.952058 0.057504
0.066437 0.952061 0.057507
0.121414 0.952927 0.058373
0.299185 0.955727 0.061173
0.574236 0.960059 0.065505
0.751981 0.962858 0.068304
0.879692 0.964870 0.070316
0.973357 0.966345 0.071791
0.973357 0.966345 0.071791
0.018218 0.011466 0.009456
0.018389 0.011469 0.009459
0.073366 0.012335 0.010325
0.251137 0.015134 0.013125
0.526188 0.019467 0.017457
0.703933 0.022266 0.020256
0.831644 0.024277 0.022268
0.925309 0.025753 0.023743
0.925309 0.025753 0.023743
0.018226 0.011621 0.009464
0.018397 0.011624 0.009467
0.073374 0.012490 0.010333
0.251145 0.015290 0.013133
0.526196 0.019622 0.017465
0.703941 0.022421 0.020264
0.831652 0.024433 0.022276
0.925317 0.025908 0.023751
0.925317 0.025908 0.023751
0.020814 0.062300 0.012053
0.020986 0.062303 0.012056
0.075963 0.063169 0.012922
0.253734 0.065969 0.015722
0.528785 0.070301 0.020054
0.706530 0.073100 0.022853
0.834241 0.075112 0.024865
0.927906 0.076587 0.026340
0.927906 0.076587 0.026340
0.029409 0.230557 0.020648
0.029581 0.230560 0.020651
0.084558 0.231426 0.021517
0.262329 0.234226 0.024317
0.537380 0.238558 0.028649
0.715125 0.241357 0.031448
0.842836 0.243369 0.033460
0.936501 0.244844 0.034935
0.936501 0.244844 0.034935
0.042953 0.495684 0.034191
0.043124 0.495686 0.034194
0.098101 0.496552 0.035060
0.275872 0.499352 0.037860
0.550923 0.503684 0.042192
0.728668 0.506484 0.044991
0.856379 0.508495 0.047003
0.950044 0.509971 0.048478
0.950044 0.509971 0.048478
0.051789 0.668661 0.043027
0.051960 0.668664 0.043030
0.106937 0.669530 0.043896
0.284708 0.672330 0.046696
0.559760 0.676662 0.051028
0.737504 0.679461 0.053828
0.865215 0.681473 0.055839
0.958880 0.682948 0.057314
0.958880 0.682948 0.057314
0.058166 0.793507 0.049405
0.058338 0.793509 0.049408
0.113315 0.794375 0.050273
0.291086 0.797175 0.053073
0.566137 0.801507 0.057405
0.743882 0.804307 0.060205
0.871593 0.806318 0.062216
0.965258 0.807794 0.063692
0.965258 0.807794 0.063692
0.063148 0.891030 0.054387
0.063319 0.891033 0.054389
0.118296 0.891899 0.055255
0.296068 0.894699 0.058055
0.571119 0.899031 0.062387
0.748863 0.901830 0.065187
0.876575 0.903842 0.067198
0.970239 0.905317 0.068673
0.970239 0.905317 0.068673
0.066265 0.952058 0.057504
0.066437 0.952061 0.057507
0.121414 0.952927 0.058373
0.299185 0.955727 0.061173
0.574236 0.960059 0.065505
0.751981 0.962858 0.068304
0.879692 0.964870 0.070316
0.973357 0.966345 0.071791
0.973357 0.966345 0.071791
0.018387 0.011635 0.040750
0.018558 0.011638 0.040753
0.073535 0.012504 0.041619
0.251306 0.015304 0.044419
0.526358 0.019636 0.048751
0.704102 0.022435 0.051550
0.831813 0.024447 0.053562
0.925478 0.025922 0.055037
0.925478 0.025922 0.055037
0.018395 0.011790 0.040758
0.018566 0.011793 0.040761
0.073543 0.012659 0.041627
0.251314 0.015459 0.044426
0.526366 0.019791 0.048759
0.704110 0.022590 0.051558
0.831821 0.024602 0.053570
0.925486 0.026077 0.055045
0.925486 0.026077 0.055045
0.020983 0.062469 0.043347
0.021155 0.062472 0.043349
0.076132 0.063338 0.044215
0.253903 0.066138 0.047015
0.528954 0.070470 0.051347
0.706699 0.073270 0.054147
0.834410 0.075281 0.056158
0.928075 0.076756 0.057634
0.928075 0.076756 0.057634
0.029578 0.230726 0.051942
0.029750 0.230729 0.051944
0.084727 0.231595 0.052810
0.262498 0.234395 0.055610
0.537549 0.238727 0.059942
0.715294 0.241526 0.062742
0.843005 0.243538 0.064753
0.936670 0.245013 0.066229
0.936670 0.245013 0.066229
0.043122 0.495853 0.065485
0.043293 0.495856 0.065488
0.098270 0.496721 0.066354
0.276041 0.499521 0.069154
0.551093 0.503853 0.073486
0.728837 0.506653 0.076285
0.856548 0.508664 0.078297
0.950213 0.510140 0.079772
0.950213 0.510140 0.079772
0.051958 0.668831 0.074321
0.052130 0.668833 0.074324
0.107106 0.669699 0.075190
0.284878 0.672499 0.077990
0.559929 0.676831 0.082322
0.737673 0.679631 0.085121
0.865385 0.681642 0.087133
0.959049 0.683117 0.088608
0.959049 0.683117 0.088608
0.058335 0.793676 0.080699
0.058507 0.793679 0.080701
0.113484 0.794544 0.081567
0.291255 0.797344 0.084367
0.566306 0.801676 0.088699
0.744051 0.804476 0.091499
0.871762 0.806487 0.093510
0.965427 0.807963 0.094985
0.965427 0.807963 0.094985
0.063317 0.891199 0.085680
0.063489 0.891202 0.085683
0.118466 0.892068 0.086549
0.296237 0.894868 0.089349
0.571288 0.899200 0.093681
0.749032 0.901999 0.096480
0.876744 0.904011 0.098492
0.970409 0.905486 0.099967
0.970409 0.905486 0.099967
0.066434 0.952227 0.088798
0.066606 0.952230 0.088800
0.121583 0.953096 0.089666
0.299354 0.955896 0.092466
0.574405 0.960228 0.096798
0.752150 0.963027 0.099598
0.879861 0.965039 0.101609
0.973526 0.966514 0.103085
0.973526 0.966514 0.103085
0.019151 0.012399 0.182055
0.019322 0.012402 0.182058
0.074299 0.013267 0.182924
0.252070 0.016067 0.185724
0.527121 0.020399 0.190056
0.704866 0.023199 0.192855
0.832577 0.025210 0.194867
0.926242 0.026686 0.196342
0.926242 0.026686 0.196342
0.019158 0.012554 0.182063
0.019330 0.012557 0.182066
0.074307 0.013423 0.182932
0.252078 0.016222 0.185732
0.527129 0.020555 0.190064
0.704874 0.023354 0.192863
0.832585 0.025366 0.194875
0.926250 0.026841 0.196350
0.926250 0.026841 0.196350
0.021747 0.063233 0.184652
0.021919 0.063236 0.184655
0.076896 0.064102 0.185520
0.254667 0.066902 0.188320
0.529718 0.071234 0.192652
0.707463 0.074033 0.195452
0.835174 0.076045 0.197463
0.928839 0.077520 0.198939
0.928839 0.077520 0.198939
0.030342 0.231490 0.193247
0.030514 0.231493 0.193250
0.085491 0.232359 0.194115
0.263262 0.235158 0.196915
0.538313 0.239491 0.201247
0.716058 0.242290 0.204047
0.843769 0.244302 0.206058
0.937434 0.245777 0.207534
0.937434 0.245777 0.207534
0.043886 0.496617 0.206790
0.044057 0.496619 0.206793
0.099034 0.497485 0.207659
0.276805 0.500285 0.210459
0.551856 0.504617 0.214791
0.729601 0.507417 0.217590
0.857312 0.509428 0.219602
0.950977 0.510903 0.221077
0.950977 0.510903 0.221077
0.052722 0.669594 0.215626
0.052893 0.669597 0.215629
0.107870 0.670463 0.216495
0.285641 0.673263 0.219295
0.560692 0.677595 0.223627
0.738437 0.680394 0.226426
0.866148 0.682406 0.228438
0.959813 0.683881 0.229913
0.959813 0.683881 0.229913
0.059099 0.794440 0.222004
0.059271 0.794442 0.222006
0.114248 0.795308 0.222872
0.292019 0.798108 0.225672
0.567070 0.802440 0.230004
0.744814 0.805240 0.232804
0.872526 0.807251 0.234815
0.966191 0.808726 0.236290
0.966191 0.808726 0.236290
0.064081 0.891963 0.226985
0.064252 0.891966 0.226988
0.119229 0.892832 0.227854
0.297000 0.895632 0.230654
0.572052 0.899964 0.234986
0.749796 0.902763 0.237785
0.877507 0.904775 0.239797
0.971172 0.906250 0.241272
0.971172 0.906250 0.241272
0.067198 0.952991 0.230103
0.067370 0.952994 0.230105
0.122347 0.953860 0.230971
0.300118 0.956660 0.233771
0.575169 0.960992 0.238103
0.752914 0.963791 0.240903
0.880625 0.965803 0.242914
0.974290 0.967278 0.244390
0.974290 0.967278 0.244390
0.020392 0.013640 0.411777
0.020564 0.013643 0.411779
0.075541 0.014509 0.412645
0.253312 0.017309 0.415445
0.528363 0.021641 0.419777
0.706108 0.024441 0.422577
0.833819 0.026452 0.424588
0.927484 0.027927 0.426063
0.927484 0.027927 0.426063
0.020400 0.013796 0.411785
0.020572 0.013798 0.411787
0.075549 0.014664 0.412653
0.253320 0.017464 0.415453
0.528371 0.021796 0.419785
0.706116 0.024596 0.422585
0.833827 0.026607 0.424596
0.927492 0.028082 0.426071
0.927492 0.028082 0.426071
0.022989 0.064475 0.414373
0.023161 0.064478 0.414376
0.078137 0.065343 0.415242
0.255909 0.068143 0.418042
0.530960 0.072475 0.422374
0.708704 0.075275 0.425173
0.836416 0.077286 0.427185
0.930081 0.078762 0.428660
0.930081 0.078762 0.428660
0.031584 0.232732 0.422968
0.031756 0.232734 0.422971
0.086732 0.233600 0.423837
0.264504 0.236400 0.426637
0.539555 0.240732 0.430969
0.717299 0.243532 0.433768
0.845011 0.245543 0.435780
0.938675 0.247018 0.437255
0.938675 0.247018 0.437255
0.045127 0.497858 0.436512
0.045299 0.497861 0.436514
0.100276 0.498727 0.437380
0.278047 0.501527 0.440180
0.553098 0.505859 0.444512
0.730843 0.508658 0.447312
0.858554 0.510670 0.449323
0.952219 0.512145 0.450798
0.952219 0.512145 0.450798
0.053963 0.670836 0.445348
0.054135 0.670839 0.445350
0.109112 0.671705 0.446216
0.286883 0.674504 0.449016
0.561934 0.678837 0.453348
0.739679 0.681636 0.456148
0.867390 0.683647 0.458159
0.961055 0.685123 0.459635
0.961055 0.685123 0.459635
0.060341 0.795681 0.451725
0.060512 0.795684 0.451728
0.115489 0.796550 0.452594
0.293260 0.799350 0.455394
0.568312 0.803682 0.459726
0.746056 0.806481 0.462525
0.873767 0.808493 0.464537
0.967432 0.809968 0.466012
0.967432 0.809968 0.466012
0.065322 0.893205 0.456707
0.065494 0.893207 0.456710
0.120471 0.894073 0.457575
0.298242 0.896873 0.460375
0.573293 0.901205 0.464707
0.751038 0.904005 0.467507
0.878749 0.906016 0.469518
0.972414 0.907491 0.470994
0.972414 0.907491 0.470994
0.068440 0.954233 0.459824
0.068612 0.954235 0.459827
0.123588 0.955101 0.460693
0.301360 0.957901 0.463493
0.576411 0.962233 0.467825
0.754155 0.965033 0.470624
0.881867 0.967044 0.472636
0.975531 0.968520 0.474111
0.975531 0.968520 0.474111
0.021215 0.014463 0.564007
0.021387 0.014466 0.564009
0.076364 0.015332 0.564875
0.254135 0.018132 0.567675
0.529186 0.022464 0.572007
0.706930 0.025263 0.574807
0.834642 0.027275 0.576818
0.928307 0.028750 0.578293
0.928307 0.028750 0.578293
0.021223 0.014618 0.564015
0.021395 0.014621 0.564017
0.076371 0.015487 0.564883
0.254143 0.018287 0.567683
0.529194 0.022619 0.572015
0.706938 0.025419 0.574815
0.834650 0.027430 0.576826
0.928315 0.028905 0.578301
0.928315 0.028905 0.578301
0.023812 0.065298 0.566603
0.023983 0.065300 0.566606
0.078960 0.066166 0.567472
0.256731 0.068966 0.570272
0.531783 0.073298 0.574604
0.709527 0.076098 0.577403
0.837238 0.078109 0.579415
0.930903 0.079584 0.580890
0.930903 0.079584 0.580890
0.032407 0.233554 0.575198
0.032578 0.233557 0.575201
0.087555 0.234423 0.576067
0.265326 0.237223 0.578867
0.540378 0.241555 0.583199
0.718122 0.244355 0.585998
0.845833 0.246366 0.588010
0.939498 0.247841 0.589485
0.939498 0.247841 0.589485
0.045950 0.498681 0.588742
0.046122 0.498684 0.588744
0.101099 0.499550 0.589610
0.278870 0.502350 0.592410
0.553921 0.506682 0.596742
0.731665 0.509481 0.599542
0.859377 0.511493 0.601553
0.953042 0.512968 0.603028
0.953042 0.512968 0.603028
0.054786 0.671659 0.597578
0.054958 0.671661 0.597580
0.109935 0.672527 0.598446
0.287706 0.675327 0.601246
0.562757 0.679659 0.605578
0.740502 0.682459 0.608378
0.868213 0.684470 0.610389
0.961878 0.685946 0.611865
0.961878 0.685946 0.611865
0.061163 0.796504 0.603955
0.061335 0.796507 0.603958
0.116312 0.797373 0.604824
0.294083 0.800173 0.607624
0.569134 0.804505 0.611956
0.746879 0.807304 0.614755
0.874590 0.809316 0.616767
0.968255 0.810791 0.618242
0.968255 0.810791 0.618242
0.066145 0.894027 0.608937
0.066317 0.894030 0.608940
0.121294 0.894896 0.609805
0.299065 0.897696 0.612605
0.574116 0.902028 0.616937
0.751861 0.904828 0.619737
0.879572 0.906839 0.621748
0.973237 0.908314 0.623224
0.973237 0.908314 0.623224
0.069263 0.955056 0.612054
0.069434 0.955058 0.612057
0.124411 0.955924 0.612923
0.302182 0.958724 0.615723
0.577234 0.963056 0.620055
0.754978 0.965856 0.622854
0.882689 0.967867 0.624866
0.976354 0.969342 0.626341
0.976354 0.969342 0.626341
0.021813 0.015061 0.674675
0.021985 0.015064 0.674678
0.076962 0.015930 0.675544
0.254733 0.018730 0.678344
0.529784 0.023062 0.682676
0.707529 0.025862 0.685475
0.835240 0.027873 0.687487
0.928905 0.029348 0.688962
0.928905 0.029348 0.688962
0.021821 0.015217 0.674683
0.021993 0.015219 0.674686
0.076970 0.016085 0.675552
0.254741 0.018885 0.678352
0.529792 0.023217 0.682684
0.707537 0.026017 0.685483
0.835248 0.028028 0.687495
0.928913 0.029503 0.688970
0.928913 0.029503 0.688970
0.024410 0.065896 0.677272
0.024582 0.065899 0.677275
0.079558 0.066764 0.678141
0.257330 0.069564 0.680940
0.532381 0.073896 0.685273
0.710125 0.076696 0.688072
0.837837 0.078707 0.690084
0.931502 0.080183 0.691559
0.931502 0.080183 0.691559
0.033005 0.234153 0.685867
0.033176 0.234155 0.685870
0.088153 0.235021 0.686736
0.265925 0.237821 0.689535
0.540976 0.242153 0.693868
0.718720 0.244953 0.696667
0.846432 0.246964 0.698678
0.940096 0.248439 0.700154
0.940096 0.248439 0.700154
0.046548 0.499279 0.699410
0.046720 0.499282 0.699413
0.101697 0.500148 0.700279
0.279468 0.502948 0.703079
0.554519 0.507280 0.707411
0.732264 0.510079 0.710210
0.859975 0.512091 0.712222
0.953640 0.513566 0.713697
0.953640 0.513566 0.713697
0.055384 0.672257 0.708246
0.055556 0.672260 0.708249
0.110533 0.673125 0.709115
0.288304 0.675925 0.711915
0.563355 0.680257 0.716247
0.741100 0.683057 0.719046
0.868811 0.685068 0.721058
0.962476 0.686544 0.722533
0.962476 0.686544 0.722533
0.061762 0.797102 0.714624
0.061933 0.797105 0.714626
0.116910 0.797971 0.715492
0.294681 0.800771 0.718292
0.569733 0.805103 0.722624
0.747477 0.807902 0.725424
0.875188 0.809914 0.727435
0.968853 0.811389 0.728911
0.968853 0.811389 0.728911
0.066743 0.894626 0.719605
0.066915 0.894628 0.719608
0.121892 0.895494 0.720474
0.299663 0.898294 0.723274
0.574714 0.902626 0.727606
0.752459 0.905426 0.730406
0.880170 0.907437 0.732417
0.973835 0.908912 0.733892
0.973835 0.908912 0.733892
0.069861 0.955654 0.722723
0.070032 0.955656 0.722726
0.125009 0.956522 0.723592
0.302781 0.959322 0.726391
0.577832 0.963654 0.730724
0.755576 0.966454 0.733523
0.883288 0.968465 0.735534
0.976952 0.969941 0.737010
0.976952 0.969941 0.737010
0.022282 0.015531 0.761510
0.022454 0.015534 0.761513
0.077431 0.016399 0.762379
0.255202 0.019199 0.765179
0.530253 0.023531 0.769511
0.707998 0.026331 0.772310
0.835709 0.028342 0.774322
0.929374 0.029818 0.775797
0.929374 0.029818 0.775797
0.022290 0.015686 0.761518
0.022462 0.015689 0.761521
0.077439 0.016555 0.762387
0.255210 0.019354 0.765187
0.530261 0.023687 0.769519
0.708006 0.026486 0.772318
0.835717 0.028498 0.774330
0.929382 0.029973 0.775805
0.929382 0.029973 0.775805
0.024879 0.066365 0.764107
0.025051 0.066368 0.764110
0.080028 0.067234 0.764976
0.257799 0.070034 0.767776
0.532850 0.074366 0.772108
0.710595 0.077165 0.774907
0.838306 0.079177 0.776919
0.931971 0.080652 0.778394
0.931971 0.080652 0.778394
0.033474 0.234622 0.772702
0.033646 0.234625 0.772705
0.088623 0.235491 0.773571
0.266394 0.238290 0.776371
0.541445 0.242623 0.780703
0.719190 0.245422 0.783502
0.846901 0.247434 0.785514
0.940566 0.248909 0.786989
0.940566 0.248909 0.786989
0.047017 0.499749 0.786245
0.047189 0.499751 0.786248
0.102166 0.500617 0.787114
0.279937 0.503417 0.789914
0.554988 0.507749 0.794246
0.732733 0.510549 0.797045
0.860444 0.512560 0.799057
0.954109 0.514035 0.800532
0.954109 0.514035 0.800532
0.055854 0.672726 0.795081
0.056025 0.672729 0.795084
0.111002 0.673595 0.795950
0.288773 0.676395 0.798750
0.563824 0.680727 0.803082
0.741569 0.683526 0.805882
0.869280 0.685538 0.807893
0.962945 0.687013 0.809368
0.962945 0.687013 0.809368
0.062231 0.797572 0.801459
0.062403 0.797574 0.801462
0.117380 0.798440 0.802327
0.295151 0.801240 0.805127
0.570202 0.805572 0.809459
0.747946 0.808372 0.812259
0.875658 0.810383 0.814270
0.969323 0.811858 0.815746
0.969323 0.811858 0.815746
0.067213 0.895095 0.806441
0.067384 0.895098 0.806443
0.122361 0.895964 0.807309
0.300132 0.898763 0.810109
0.575184 0.903096 0.814441
0.752928 0.905895 0.817241
0.880639 0.907907 0.819252
0.974304 0.909382 0.820727
0.974304 0.909382 0.820727
0.070330 0.956123 0.809558
0.070502 0.956126 0.809561
0.125479 0.956992 0.810427
0.303250 0.959792 0.813227
0.578301 0.964124 0.817559
0.756046 0.966923 0.820358
0.883757 0.968935 0.822370
0.977422 0.970410 0.823845
0.977422 0.970410 0.823845
0.022577 0.015825 0.816004
0.022749 0.015828 0.816006
0.077726 0.016694 0.816872
0.255497 0.019494 0.819672
0.530548 0.023826 0.824004
0.708293 0.026625 0.826804
0.836004 0.028637 0.828815
0.929669 0.030112 0.830290
0.929669 0.030112 0.830290
0.022585 0.015980 0.816012
0.022757 0.015983 0.816014
0.077734 0.016849 0.816880
0.255505 0.019649 0.819680
0.530556 0.023981 0.824012
0.708300 0.026781 0.826812
0.836012 0.028792 0.828823
0.929677 0.030267 0.830298
0.929677 0.030267 0.830298
0.025174 0.066660 0.818600
0.025345 0.066662 0.818603
0.080322 0.067528 0.819469
0.258093 0.070328 0.822269
0.533145 0.074660 0.826601
0.710889 0.077460 0.829401
0.838600 0.079471 0.831412
0.932265 0.080947 0.832887
0.932265 0.080947 0.832887
0.033769 0.234916 0.827195
0.033940 0.234919 0.827198
0.088917 0.235785 0.828064
0.266688 0.238585 0.830864
0.541740 0.242917 0.835196
0.719484 0.245717 0.837995
0.847195 0.247728 0.840007
0.940860 0.249203 0.841482
0.940860 0.249203 0.841482
0.047312 0.500043 0.840739
0.047484 0.500046 0.840741
0.102461 0.500912 0.841607
0.280232 0.503712 0.844407
0.555283 0.508044 0.848739
0.733028 0.510843 0.851539
0.860739 0.512855 0.853550
0.954404 0.514330 0.855025
0.954404 0.514330 0.855025
0.056148 0.673021 0.849575
0.056320 0.673023 0.849577
0.111297 0.673889 0.850443
0.289068 0.676689 0.853243
0.564119 0.681021 0.857575
0.741864 0.683821 0.860375
0.869575 0.685832 0.862386
0.963240 0.687308 0.863862
0.963240 0.687308 0.863862
0.062526 0.797866 0.855952
0.062697 0.797869 0.855955
0.117674 0.798735 0.856821
0.295445 0.801535 0.859621
0.570496 0.805867 0.863953
0.748241 0.808666 0.866752
0.875952 0.810678 0.868764
0.969617 0.812153 0.870239
0.969617 0.812153 0.870239
0.067507 0.895390 0.860934
0.067679 0.895392 0.860937
0.122656 0.896258 0.861802
0.300427 0.899058 0.864602
0.575478 0.903390 0.868934
0.753223 0.906190 0.871734
0.880934 0.908201 0.873745
0.974599 0.909676 0.875221
0.974599 0.909676 0.875221
0.070625 0.956418 0.864051
0.070796 0.956420 0.864054
0.125773 0.957286 0.864920
0.303544 0.960086 0.867720
0.578596 0.964418 0.872052
0.756340 0.967218 0.874851
0.884051 0.969229 0.876863
0.977716 0.970704 0.878338
0.977716 0.970704 0.878338
