public/luts/dji/lk-dji-neutral.cube
TITLE "LK DJI Neutral"
LUT_3D_SIZE 17
DOMAIN_MIN 0.0 0.0 0.0
DOMAIN_MAX 1.0 1.0 1.0
0.000000 0.000000 0.000000
0.000000 0.000000 0.000000
0.000148 0.000000 0.000000
0.012827 0.000000 0.000000
0.050266 0.000000 0.000000
0.118578 0.000000 0.000000
0.223875 0.000000 0.000000
0.372270 0.000000 0.000000
0.505316 0.000000 0.000000
0.606214 0.000000 0.000000
0.691665 0.000000 0.000000
0.764385 0.000000 0.000000
0.827093 0.000000 0.000000
0.882504 0.000000 0.000000
0.933335 0.000000 0.000000
0.982304 0.000000 0.000000
1.000000 0.000000 0.000000
0.000000 0.000000 0.000000
0.000000 0.000000 0.000000
0.000148 0.000000 0.000000
0.012827 0.000000 0.000000
0.050266 0.000000 0.000000
0.118578 0.000000 0.000000
0.223875 0.000000 0.000000
0.372270 0.000000 0.000000
0.505316 0.000000 0.000000
0.606214 0.000000 0.000000
0.691665 0.000000 0.000000
0.764385 0.000000 0.000000
0.827093 0.000000 0.000000
0.882504 0.000000 0.000000
0.933335 0.000000 0.000000
0.982304 0.000000 0.000000
1.000000 0.000000 0.000000
0.000000 0.000148 0.000000
0.000000 0.000148 0.000000
0.000148 0.000148 0.000000
0.012827 0.000148 0.000000
0.050266 0.000148 0.000000
0.118578 0.000148 0.000000
0.223875 0.000148 0.000000
0.372270 0.000148 0.000000
0.505316 0.000148 0.000000
0.606214 0.000148 0.000000
0.691665 0.000148 0.000000
0.764385 0.000148 0.000000
0.827093 0.000148 0.000000
0.882504 0.000148 0.000000
0.933335 0.000148 0.000000
0.982304 0.000148 0.000000
1.000000 0.000148 0.000000
0.000000 0.012827 0.000000
0.000000 0.012827 0.000000
0.000148 0.012827 0.000000
0.012827 0.012827 0.000000
0.050266 0.012827 0.000000
0.118578 0.012827 0.000000
0.223875 0.012827 0.000000
0.372270 0.012827 0.000000
0.505316 0.012827 0.000000
0.606214 0.012827 0.000000
0.691665 0.012827 0.000000
0.764385 0.012827 0.000000
0.827093 0.012827 0.000000
0.882504 0.012827 0.000000
0.933335 0.012827 0.000000
0.982304 0.012827 0.000000
1.000000 0.012827 0.000000
0.000000 0.050266 0.000000
0.000000 0.050266 0.000000
0.000148 0.050266 0.000000
0.012827 0.050266 0.000000
0.050266 0.050266 0.000000
0.118578 0.050266 0.000000
0.223875 0.050266 0.000000
0.372270 0.050266 0.000000
0.505316 0.050266 0.000000
0.606214 0.050266 0.000000
0.691665 0.050266 0.000000
0.764385 0.050266 0.000000
0.827093 0.050266 0.000000
0.882504 0.050266 0.000000
0.933335 0.050266 0.000000
0.982304 0.050266 0.000000
1.000000 0.050266 0.000000
0.000000 0.118578 0.000000
0.000000 0.118578 0.000000
0.000148 0.118578 0.000000
0.012827 0.118578 0.000000
0.050266 0.118578 0.000000
0.118578 0.118578 0.000000
0.223875 0.118578 0.000000
0.372270 0.118578 0.000000
0.505316 0.118578 0.000000
0.606214 0.118578 0.000000
0.691665 0.118578 0.000000
0.764385 0.118578 0.000000
0.827093 0.118578 0.000000
0.882504 0.118578 0.000000
0.933335 0.118578 0.000000
0.982304 0.118578 0.000000
1.000000 0.118578 0.000000
0.000000 0.223875 0.000000
0.000000 0.223875 0.000000
0.000148 0.223875 0.000000
0.012827 0.223875 0.000000
0.050266 0.223875 0.000000
0.118578 0.223875 0.000000
0.223875 0.223875 0.000000
0.372270 0.223875 0.000000
0.505316 0.223875 0.000000
0.606214 0.223875 0.000000
0.691665 0.223875 0.000000
0.764385 0.223875 0.000000
0.827093 0.223875 0.000000
0.882504 0.223875 0.000000
0.933335 0.223875 0.000000
0.982304 0.223875 0.000000
1.000000 0.223875 0.000000
0.000000 0.372270 0.000000
0.000000 0.372270 0.000000
0.000148 0.372270 0.000000
0.012827 0.372270 0.000000
0.050266 0.372270 0.000000
0.118578 0.372270 0.000000
0.223875 0.372270 0.000000
0.372270 0.372270 0.000000
0.505316 0.372270 0.000000
0.606214 0.372270 0.000000
0.691665 0.372270 0.000000
0.764385 0.372270 0.000000
0.827093 0.372270 0.000000
0.882504 0.372270 0.000000
0.933335 0.372270 0.000000
0.982304 0.372270 0.000000
1.000000 0.372270 0.000000
0.000000 0.505316 0.000000
0.000000 0.505316 0.000000
0.000148 0.505316 0.000000
0.012827 0.505316 0.000000
0.050266 0.505316 0.000000
0.118578 0.505316 0.000000
0.223875 0.505316 0.000000
0.372270 0.505316 0.000000
0.505316 0.505316 0.000000
0.606214 0.505316 0.000000
0.691665 0.505316 0.000000
0.764385 0.505316 0.000000
0.827093 0.505316 0.000000
0.882504 0.505316 0.000000
0.933335 0.505316 0.000000
0.982304 0.505316 0.000000
1.000000 0.505316 0.000000
0.000000 0.606214 0.000000
0.000000 0.606214 0.000000
0.000148 0.606214 0.000000
0.012827 0.606214 0.000000
0.050266 0.606214 0.000000
0.118578 0.606214 0.000000
0.223875 0.606214 0.000000
0.372270 0.606214 0.000000
0.505316 0.606214 0.000000
0.606214 0.606214 0.000000
0.691665 0.606214 0.000000
0.764385 0.606214 0.000000
0.827093 0.606214 0.000000
0.882504 0.606214 0.000000
0.933335 0.606214 0.000000
0.982304 0.606214 0.000000
1.000000 0.606214 0.000000
0.000000 0.691665 0.000000
0.000000 0.691665 0.000000
0.000148 0.691665 0.000000
0.012827 0.691665 0.000000
0.050266 0.691665 0.000000
0.118578 0.691665 0.000000
0.223875 0.691665 0.000000
0.372270 0.691665 0.000000
0.505316 0.691665 0.000000
0.606214 0.691665 0.000000
0.691665 0.691665 0.000000
0.764385 0.691665 0.000000
0.827093 0.691665 0.000000
0.882504 0.691665 0.000000
0.933335 0.691665 0.000000
0.982304 0.691665 0.000000
1.000000 0.691665 0.000000
0.000000 0.764385 0.000000
0.000000 0.764385 0.000000
0.000148 0.764385 0.000000
0.012827 0.764385 0.000000
0.050266 0.764385 0.000000
0.118578 0.764385 0.000000
0.223875 0.764385 0.000000
0.372270 0.764385 0.000000
0.505316 0.764385 0.000000
0.606214 0.764385 0.000000
0.691665 0.764385 0.000000
0.764385 0.764385 0.000000
0.827093 0.764385 0.000000
0.882504 0.764385 0.000000
0.933335 0.764385 0.000000
0.982304 0.764385 0.000000
1.000000 0.764385 0.000000
0.000000 0.827093 0.000000
0.000000 0.827093 0.000000
0.000148 0.827093 0.000000
0.012827 0.827093 0.000000
0.050266 0.827093 0.000000
0.118578 0.827093 0.000000
0.223875 0.827093 0.000000
0.372270 0.827093 0.000000
0.505316 0.827093 0.000000
0.606214 0.827093 0.000000
0.691665 0.827093 0.000000
0.764385 0.827093 0.000000
0.827093 0.827093 0.000000
0.882504 0.827093 0.000000
0.933335 0.827093 0.000000
0.982304 0.827093 0.000000
1.000000 0.827093 0.000000
0.000000 0.882504 0.000000
0.000000 0.882504 0.000000
0.000148 0.882504 0.000000
0.012827 0.882504 0.000000
0.050266 0.882504 0.000000
0.118578 0.882504 0.000000
0.223875 0.882504 0.000000
0.372270 0.882504 0.000000
0.505316 0.882504 0.000000
0.606214 0.882504 0.000000
0.691665 0.882504 0.000000
0.764385 0.882504 0.000000
0.827093 0.882504 0.000000
0.882504 0.882504 0.000000
0.933335 0.882504 0.000000
0.982304 0.882504 0.000000
1.000000 0.882504 0.000000
0.000000 0.933335 0.000000
0.000000 0.933335 0.000000
0.000148 0.933335 0.000000
0.012827 0.933335 0.000000
0.050266 0.933335 0.000000
0.118578 0.933335 0.000000
0.223875 0.933335 0.000000
0.372270 0.933335 0.000000
0.505316 0.933335 0.000000
0.606214 0.933335 0.000000
0.691665 0.933335 0.000000
0.764385 0.933335 0.000000
0.827093 0.933335 0.000000
0.882504 0.933335 0.000000
0.933335 0.933335 0.000000
0.982304 0.933335 0.000000
1.000000 0.933335 0.000000
0.000000 0.982304 0.000000
0.000000 0.982304 0.000000
0.000148 0.982304 0.000000
0.012827 0.982304 0.000000
0.050266 0.982304 0.000000
0.118578 0.982304 0.000000
0.223875 0.982304 0.000000
0.372270 0.982304 0.000000
0.505316 0.982304 0.000000
0.606214 0.982304 0.000000
0.691665 0.982304 0.000000
0.764385 0.982304 0.000000
0.827093 0.982304 0.000000
0.882504 0.982304 0.000000
0.933335 0.982304 0.000000
0.982304 0.982304 0.000000
1.000000 0.982304 0.000000
0.000000 1.000000 0.000000
0.000000 1.000000 0.000000
0.000148 1.000000 0.000000
0.012827 1.000000 0.000000
0.050266 1.000000 0.000000
0.118578 1.000000 0.000000
0.223875 1.000000 0.000000
0.372270 1.000000 0.000000
0.505316 1.000000 0.000000
0.606214 1.000000 0.000000
0.691665 1.000000 0.000000
0.764385 1.000000 0.000000
0.827093 1.000000 0.000000
0.882504 1.000000 0.000000
0.933335 1.000000 0.000000
0.982304 1.000000 0.000000
1.000000 1.000000 0.000000
0.000000 0.000000 0.000000
0.000000 0.000000 0.000000
0.000148 0.000000 0.000000
0.012827 0.000000 0.000000
0.050266 0.000000 0.000000
0.118578 0.000000 0.000000
0.223875 0.000000 0.000000
0.372270 0.000000 0.000000
0.505316 0.000000 0.000000
0.606214 0.000000 0.000000
0.691665 0.000000 0.000000
0.764385 0.000000 0.000000
0.827093 0.000000 0.000000
0.882504 0.000000 0.000000
0.933335 0.000000 0.000000
0.982304 0.000000 0.000000
1.000000 0.000000 0.000000
0.000000 0.000000 0.000000
0.000000 0.000000 0.000000
0.000148 0.000000 0.000000
0.012827 0.000000 0.000000
0.050266 0.000000 0.000000
0.118578 0.000000 0.000000
0.223875 0.000000 0.000000
0.372270 0.000000 0.000000
0.505316 0.000000 0.000000
0.606214 0.000000 0.000000
0.691665 0.000000 0.000000
0.764385 0.000000 0.000000
0.827093 0.000000 0.000000
0.882504 0.000000 0.000000
0.933335 0.000000 0.000000
0.982304 0.000000 0.000000
1.000000 0.000000 0.000000
0.000000 0.000148 0.000000
0.000000 0.000148 0.000000
0.000148 0.000148 0.000000
0.012827 0.000148 0.000000
0.050266 0.000148 0.000000
0.118578 0.000148 0.000000
0.223875 0.000148 0.000000
0.372270 0.000148 0.000000
0.505316 0.000148 0.000000
0.606214 0.000148 0.000000
0.691665 0.000148 0.000000
0.764385 0.000148 0.000000
0.827093 0.000148 0.000000
0.882504 0.000148 0.000000
0.933335 0.000148 0.000000
0.982304 0.000148 0.000000
1.000000 0.000148 0.000000
0.000000 0.012827 0.000000
0.000000 0.012827 0.000000
0.000148 0.012827 0.000000
0.012827 0.012827 0.000000
0.050266 0.012827 0.000000
0.118578 0.012827 0.000000
0.223875 0.012827 0.000000
0.372270 0.012827 0.000000
0.505316 0.012827 0.000000
0.606214 0.012827 0.000000
0.691665 0.012827 0.000000
0.764385 0.012827 0.000000
0.827093 0.012827 0.000000
0.882504 0.012827 0.000000
0.933335 0.012827 0.000000
0.982304 0.012827 0.000000
1.000000 0.012827 0.000000
0.000000 0.050266 0.000000
0.000000 0.050266 0.000000
0.000148 0.050266 0.000000
0.012827 0.050266 0.000000
0.050266 0.050266 0.000000
0.118578 0.050266 0.000000
0.223875 0.050266 0.000000
0.372270 0.050266 0.000000
0.505316 0.050266 0.000000
0.606214 0.050266 0.000000
0.691665 0.050266 0.000000
0.764385 0.050266 0.000000
0.827093 0.050266 0.000000
0.882504 0.050266 0.000000
0.933335 0.050266 0.000000
0.982304 0.050266 0.000000
1.000000 0.050266 0.000000
0.000000 0.118578 0.000000
0.000000 0.118578 0.000000
0.000148 0.118578 0.000000
0.012827 0.118578 0.000000
0.050266 0.118578 0.000000
0.118578 0.118578 0.000000
0.223875 0.118578 0.000000
0.372270 0.118578 0.000000
0.505316 0.118578 0.000000
0.606214 0.118578 0.000000
0.691665 0.118578 0.000000
0.764385 0.118578 0.000000
0.827093 0.118578 0.000000
0.882504 0.118578 0.000000
0.933335 0.118578 0.000000
0.982304 0.118578 0.000000
1.000000 0.118578 0.000000
0.000000 0.223875 0.000000
0.000000 0.223875 0.000000
0.000148 0.223875 0.000000
0.012827 0.223875 0.000000
0.050266 0.223875 0.000000
0.118578 0.223875 0.000000
0.223875 0.223875 0.000000
0.372270 0.223875 0.000000
0.505316 0.223875 0.000000
0.606214 0.223875 0.000000
0.691665 0.223875 0.000000
0.764385 0.223875 0.000000
0.827093 0.223875 0.000000
0.882504 0.223875 0.000000
0.933335 0.223875 0.000000
0.982304 0.223875 0.000000
1.000000 0.223875 0.000000
0.000000 0.372270 0.000000
0.000000 0.372270 0.000000
0.000148 0.372270 0.000000
0.012827 0.372270 0.000000
0.050266 0.372270 0.000000
0.118578 0.372270 0.000000
0.223875 0.372270 0.000000
0.372270 0.372270 0.000000
0.505316 0.372270 0.000000
0.606214 0.372270 0.000000
0.691665 0.372270 0.000000
0.764385 0.372270 0.000000
0.827093 0.372270 0.000000
0.882504 0.372270 0.000000
0.933335 0.372270 0.000000
0.982304 0.372270 0.000000
1.000000 0.372270 0.000000
0.000000 0.505316 0.000000
0.000000 0.505316 0.000000
0.000148 0.505316 0.000000
0.012827 0.505316 0.000000
0.050266 0.505316 0.000000
0.118578 0.505316 0.000000
0.223875 0.505316 0.000000
0.372270 0.505316 0.000000
0.505316 0.505316 0.000000
0.606214 0.505316 0.000000
0.691665 0.505316 0.000000
0.764385 0.505316 0.000000
0.827093 0.505316 0.000000
0.882504 0.505316 0.000000
0.933335 0.505316 0.000000
0.982304 0.505316 0.000000
1.000000 0.505316 0.000000
0.000000 0.606214 0.000000
0.000000 0.606214 0.000000
0.000148 0.606214 0.000000
0.012827 0.606214 0.000000
0.050266 0.606214 0.000000
0.118578 0.606214 0.000000
0.223875 0.606214 0.000000
0.372270 0.606214 0.000000
0.505316 0.606214 0.000000
0.606214 0.606214 0.000000
0.691665 0.606214 0.000000
0.764385 0.606214 0.000000
0.827093 0.606214 0.000000
0.882504 0.606214 0.000000
0.933335 0.606214 0.000000
0.982304 0.606214 0.000000
1.000000 0.606214 0.000000
0.000000 0.691665 0.000000
0.000000 0.691665 0.000000
0.000148 0.691665 0.000000
0.012827 0.691665 0.000000
0.050266 0.691665 0.000000
0.118578 0.691665 0.000000
0.223875 0.691665 0.000000
0.372270 0.691665 0.000000
0.505316 0.691665 0.000000
0.606214 0.691665 0.000000
0.691665 0.691665 0.000000
0.764385 0.691665 0.000000
0.827093 0.691665 0.000000
0.882504 0.691665 0.000000
0.933335 0.691665 0.000000
0.982304 0.691665 0.000000
1.000000 0.691665 0.000000
0.000000 0.764385 0.000000
0.000000 0.764385 0.000000
0.000148 0.764385 0.000000
0.012827 0.764385 0.000000
0.050266 0.764385 0.000000
0.118578 0.764385 0.000000
0.223875 0.764385 0.000000
0.372270 0.764385 0.000000
0.505316 0.764385 0.000000
0.606214 0.764385 0.000000
0.691665 0.764385 0.000000
0.764385 0.764385 0.000000
0.827093 0.764385 0.000000
0.882504 0.764385 0.000000
0.933335 0.764385 0.000000
0.982304 0.764385 0.000000
1.000000 0.764385 0.000000
0.000000 0.827093 0.000000
0.000000 0.827093 0.000000
0.000148 0.827093 0.000000
0.012827 0.827093 0.000000
0.050266 0.827093 0.000000
0.118578 0.827093 0.000000
0.223875 0.827093 0.000000
0.372270 0.827093 0.000000
0.505316 0.827093 0.000000
0.606214 0.827093 0.000000
0.691665 0.827093 0.000000
0.764385 0.827093 0.000000
0.827093 0.827093 0.000000
0.882504 0.827093 0.000000
0.933335 0.827093 0.000000
0.982304 0.827093 0.000000
1.000000 0.827093 0.000000
0.000000 0.882504 0.000000
0.000000 0.882504 0.000000
0.000148 0.882504 0.000000
0.012827 0.882504 0.000000
0.050266 0.882504 0.000000
0.118578 0.882504 0.000000
0.223875 0.882504 0.000000
0.372270 0.882504 0.000000
0.505316 0.882504 0.000000
0.606214 0.882504 0.000000
0.691665 0.882504 0.000000
0.764385 0.882504 0.000000
0.827093 0.882504 0.000000
0.882504 0.882504 0.000000
0.933335 0.882504 0.000000
0.982304 0.882504 0.000000
1.000000 0.882504 0.000000
0.000000 0.933335 0.000000
0.000000 0.933335 0.000000
0.000148 0.933335 0.000000
0.012827 0.933335 0.000000
0.050266 0.933335 0.000000
0.118578 0.933335 0.000000
0.223875 0.933335 0.000000
0.372270 0.933335 0.000000
0.505316 0.933335 0.000000
0.606214 0.933335 0.000000
0.691665 0.933335 0.000000
0.764385 0.933335 0.000000
0.827093 0.933335 0.000000
0.882504 0.933335 0.000000
0.933335 0.933335 0.000000
0.982304 0.933335 0.000000
1.000000 0.933335 0.000000
0.000000 0.982304 0.000000
0.000000 0.982304 0.000000
0.000148 0.982304 0.000000
0.012827 0.982304 0.000000
0.050266 0.982304 0.000000
0.118578 0.982304 0.000000
0.223875 0.982304 0.000000
0.372270 0.982304 0.000000
0.505316 0.982304 0.000000
0.606214 0.982304 0.000000
0.691665 0.982304 0.000000
0.764385 0.982304 0.000000
0.827093 0.982304 0.000000
0.882504 0.982304 0.000000
0.933335 0.982304 0.000000
0.982304 0.982304 0.000000
1.000000 0.982304 0.000000
0.000000 1.000000 0.000000
0.000000 1.000000 0.000000
0.000148 1.000000 0.000000
0.012827 1.000000 0.000000
0.050266 1.000000 0.000000
0.118578 1.000000 0.000000
0.223875 1.000000 0.000000
0.372270 1.000000 0.000000
0.505316 1.000000 0.000000
0.606214 1.000000 0.000000
0.691665 1.000000 0.000000
0.764385 1.000000 0.000000
0.827093 1.000000 0.000000
0.882504 1.000000 0.000000
0.933335 1.000000 0.000000
0.982304 1.000000 0.000000
1.000000 1.000000 0.000000
0.000000 0.000000 0.000148
0.000000 0.000000 0.000148
0.000148 0.000000 0.000148
0.012827 0.000000 0.000148
0.050266 0.000000 0.000148
0.118578 0.000000 0.000148
0.223875 0.000000 0.000148
0.372270 0.000000 0.000148
0.505316 0.000000 0.000148
0.606214 0.000000 0.000148
0.691665 0.000000 0.000148
0.764385 0.000000 0.000148
0.827093 0.000000 0.000148
0.882504 0.000000 0.000148
0.933335 0.000000 0.000148
0.982304 0.000000 0.000148
1.000000 0.000000 0.000148
0.000000 0.000000 0.000148
0.000000 0.000000 0.000148
0.000148 0.000000 0.000148
0.012827 0.000000 0.000148
0.050266 0.000000 0.000148
0.118578 0.000000 0.000148
0.223875 0.000000 0.000148
0.372270 0.000000 0.000148
0.505316 0.000000 0.000148
0.606214 0.000000 0.000148
0.691665 0.000000 0.000148
0.764385 0.000000 0.000148
0.827093 0.000000 0.000148
0.882504 0.000000 0.000148
0.933335 0.000000 0.000148
0.982304 0.000000 0.000148
1.000000 0.000000 0.000148
0.000000 0.000148 0.000148
0.000000 0.000148 0.000148
0.000148 0.000148 0.000148
0.012827 0.000148 0.000148
0.050266 0.000148 0.000148
0.118578 0.000148 0.000148
0.223875 0.000148 0.000148
0.372270 0.000148 0.000148
0.505316 0.000148 0.000148
0.606214 0.000148 0.000148
0.691665 0.000148 0.000148
0.764385 0.000148 0.000148
0.827093 0.000148 0.000148
0.882504 0.000148 0.000148
0.933335 0.000148 0.000148
0.982304 0.000148 0.000148
1.000000 0.000148 0.000148
0.000000 0.012827 0.000148
0.000000 0.012827 0.000148
0.000148 0.012827 0.000148
0.012827 0.012827 0.000148
0.050266 0.012827 0.000148
0.118578 0.012827 0.000148
0.223875 0.012827 0.000148
0.372270 0.012827 0.000148
0.505316 0.012827 0.000148
0.606214 0.012827 0.000148
0.691665 0.012827 0.000148
0.764385 0.012827 0.000148
0.827093 0.012827 0.000148
0.882504 0.012827 0.000148
0.933335 0.012827 0.000148
0.982304 0.012827 0.000148
1.000000 0.012827 0.000148
0.000000 0.050266 0.000148
0.000000 0.050266 0.000148
0.000148 0.050266 0.000148
0.012827 0.050266 0.000148
0.050266 0.050266 0.000148
0.118578 0.050266 0.000148
0.223875 0.050266 0.000148
0.372270 0.050266 0.000148
0.505316 0.050266 0.000148
0.606214 0.050266 0.000148
0.691665 0.050266 0.000148
0.764385 0.050266 0.000148
0.827093 0.050266 0.000148
0.882504 0.050266 0.000148
0.933335 0.050266 0.000148
0.982304 0.050266 0.000148
1.000000 0.050266 0.000148
0.000000 0.118578 0.000148
0.000000 0.118578 0.000148
0.000148 0.118578 0.000148
0.012827 0.118578 0.000148
0.050266 0.118578 0.000148
0.118578 0.118578 0.000148
0.223875 0.118578 0.000148
0.372270 0.118578 0.000148
0.505316 0.118578 0.000148
0.606214 0.118578 0.000148
0.691665 0.118578 0.000148
0.764385 0.118578 0.000148
0.827093 0.118578 0.000148
0.882504 0.118578 0.000148
0.933335 0.118578 0.000148
0.982304 0.118578 0.000148
1.000000 0.118578 0.000148
0.000000 0.223875 0.000148
0.000000 0.223875 0.000148
0.000148 0.223875 0.000148
0.012827 0.223875 0.000148
0.050266 0.223875 0.000148
0.118578 0.223875 0.000148
0.223875 0.223875 0.000148
0.372270 0.223875 0.000148
0.505316 0.223875 0.000148
0.606214 0.223875 0.000148
0.691665 0.223875 0.000148
0.764385 0.223875 0.000148
0.827093 0.223875 0.000148
0.882504 0.223875 0.000148
0.933335 0.223875 0.000148
0.982304 0.223875 0.000148
1.000000 0.223875 0.000148
0.000000 0.372270 0.000148
0.000000 0.372270 0.000148
0.000148 0.372270 0.000148
0.012827 0.372270 0.000148
0.050266 0.372270 0.000148
0.118578 0.372270 0.000148
0.223875 0.372270 0.000148
0.372270 0.372270 0.000148
0.505316 0.372270 0.000148
0.606214 0.372270 0.000148
0.691665 0.372270 0.000148
0.764385 0.372270 0.000148
0.827093 0.372270 0.000148
0.882504 0.372270 0.000148
0.933335 0.372270 0.000148
0.982304 0.372270 0.000148
1.000000 0.372270 0.000148
0.000000 0.505316 0.000148
0.000000 0.505316 0.000148
0.000148 0.505316 0.000148
0.012827 0.505316 0.000148
0.050266 0.505316 0.000148
0.118578 0.505316 0.000148
0.223875 0.505316 0.000148
0.372270 0.505316 0.000148
0.505316 0.505316 0.000148
0.606214 0.505316 0.000148
0.691665 0.505316 0.000148
0.764385 0.505316 0.000148
0.827093 0.505316 0.000148
0.882504 0.505316 0.000148
0.933335 0.505316 0.000148
0.982304 0.505316 0.000148
1.000000 0.505316 0.000148
0.000000 0.606214 0.000148
0.000000 0.606214 0.000148
0.000148 0.606214 0.000148
0.012827 0.606214 0.000148
0.050266 0.606214 0.000148
0.118578 0.606214 0.000148
0.223875 0.606214 0.000148
0.372270 0.606214 0.000148
0.505316 0.606214 0.000148
0.606214 0.606214 0.000148
0.691665 0.606214 0.000148
0.764385 0.606214 0.000148
0.827093 0.606214 0.000148
0.882504 0.606214 0.000148
0.933335 0.606214 0.000148
0.982304 0.606214 0.000148
1.000000 0.606214 0.000148
0.000000 0.691665 0.000148
0.000000 0.691665 0.000148
0.000148 0.691665 0.000148
0.012827 0.691665 0.000148
0.050266 0.691665 0.000148
0.118578 0.691665 0.000148
0.223875 0.691665 0.000148
0.372270 0.691665 0.000148
0.505316 0.691665 0.000148
0.606214 0.691665 0.000148
0.691665 0.691665 0.000148
0.764385 0.691665 0.000148
0.827093 0.691665 0.000148
0.882504 0.691665 0.000148
0.933335 0.691665 0.000148
0.982304 0.691665 0.000148
1.000000 0.691665 0.000148
0.000000 0.764385 0.000148
0.000000 0.764385 0.000148
0.000148 0.764385 0.000148
0.012827 0.764385 0.000148
0.050266 0.764385 0.000148
0.118578 0.764385 0.000148
0.223875 0.764385 0.000148
0.372270 0.764385 0.000148
0.505316 0.764385 0.000148
0.606214 0.764385 0.000148
0.691665 0.764385 0.000148
0.764385 0.764385 0.000148
0.827093 0.764385 0.000148
0.882504 0.764385 0.000148
0.933335 0.764385 0.000148
0.982304 0.764385 0.000148
1.000000 0.764385 0.000148
0.000000 0.827093 0.000148
0.000000 0.827093 0.000148
0.000148 0.827093 0.000148
0.012827 0.827093 0.000148
0.050266 0.827093 0.000148
0.118578 0.827093 0.000148
0.223875 0.827093 0.000148
0.372270 0.827093 0.000148
0.505316 0.827093 0.000148
0.606214 0.827093 0.000148
0.691665 0.827093 0.000148
0.764385 0.827093 0.000148
0.827093 0.827093 0.000148
0.882504 0.827093 0.000148
0.933335 0.827093 0.000148
0.982304 0.827093 0.000148
1.000000 0.827093 0.000148
0.000000 0.882504 0.000148
0.000000 0.882504 0.000148
0.000148 0.882504 0.000148
0.012827 0.882504 0.000148
0.050266 0.882504 0.000148
0.118578 0.882504 0.000148
0.223875 0.882504 0.000148
0.372270 0.882504 0.000148
0.505316 0.882504 0.000148
0.606214 0.882504 0.000148
0.691665 0.882504 0.000148
0.764385 0.882504 0.000148
0.827093 0.882504 0.000148
0.882504 0.882504 0.000148
0.933335 0.882504 0.000148
0.982304 0.882504 0.000148
1.000000 0.882504 0.000148
0.000000 0.933335 0.000148
0.000000 0.933335 0.000148
0.000148 0.933335 0.000148
0.012827 0.933335 0.000148
0.050266 0.933335 0.000148
0.118578 0.933335 0.000148
0.223875 0.933335 0.000148
0.372270 0.933335 0.000148
0.505316 0.933335 0.000148
0.606214 0.933335 0.000148
0.691665 0.933335 0.000148
0.764385 0.933335 0.000148
0.827093 0.933335 0.000148
0.882504 0.933335 0.000148
0.933335 0.933335 0.000148
0.982304 0.933335 0.000148
1.000000 0.933335 0.000148
0.000000 0.982304 0.000148
0.000000 0.982304 0.000148
0.000148 0.982304 0.000148
0.012827 0.982304 0.000148
0.050266 0.982304 0.000148
0.118578 0.982304 0.000148
0.223875 0.982304 0.000148
0.372270 0.982304 0.000148
0.505316 0.982304 0.000148
0.606214 0.982304 0.000148
0.691665 0.982304 0.000148
0.764385 0.982304 0.000148
0.827093 0.982304 0.000148
0.882504 0.982304 0.000148
0.933335 0.982304 0.000148
0.982304 0.982304 0.000148
1.000000 0.982304 0.000148
0.000000 1.000000 0.000148
0.000000 1.000000 0.000148
0.000148 1.000000 0.000148
0.012827 1.000000 0.000148
0.050266 1.000000 0.000148
0.118578 1.000000 0.000148
0.223875 1.000000 0.000148
0.372270 1.000000 0.000148
0.505316 1.000000 0.000148
0.606214 1.000000 0.000148
0.691665 1.000000 0.000148
0.764385 1.000000 0.000148
0.827093 1.000000 0.000148
0.882504 1.000000 0.000148
0.933335 1.000000 0.000148
0.982304 1.000000 0.000148
1.000000 1.000000 0.000148
0.000000 0.000000 0.012827
0.000000 0.000000 0.012827
0.000148 0.000000 0.012827
0.012827 0.000000 0.012827
0.050266 0.000000 0.012827
0.118578 0.000000 0.012827
0.223875 0.000000 0.012827
0.372270 0.000000 0.012827
0.505316 0.000000 0.012827
0.606214 0.000000 0.012827
0.691665 0.000000 0.012827
0.764385 0.000000 0.012827
0.827093 0.000000 0.012827
0.882504 0.000000 0.012827
0.933335 0.000000 0.012827
0.982304 0.000000 0.012827
1.000000 0.000000 0.012827
0.000000 0.000000 0.012827
