public/luts/dji/lk-dji-pastel.cube
TITLE "LK DJI Pastel"
LUT_3D_SIZE 9
DOMAIN_MIN 0.0 0.0 0.0
DOMAIN_MAX 1.0 1.0 1.0
0.073460 0.074174 0.077025
0.073576 0.074183 0.077034
0.111887 0.077109 0.079959
0.237236 0.086681 0.089532
0.429289 0.101347 0.104198
0.552293 0.110740 0.113591
0.640250 0.117457 0.120308
0.708555 0.122673 0.125524
0.741668 0.125201 0.128052
0.073489 0.074308 0.077054
0.073605 0.074317 0.077063
0.111916 0.077243 0.079989
0.237265 0.086815 0.089561
0.429318 0.101481 0.104227
0.552323 0.110874 0.113620
0.640279 0.117591 0.120337
0.708584 0.122807 0.125553
0.741697 0.125336 0.128081
0.083132 0.118621 0.086697
0.083248 0.118630 0.086706
0.121559 0.121555 0.089631
0.246908 0.131127 0.099204
0.438961 0.145793 0.113870
0.561965 0.155186 0.123263
0.649922 0.161903 0.129979
0.718227 0.167119 0.135196
0.751340 0.169648 0.137724
0.114713 0.263751 0.118279
0.114829 0.263760 0.118288
0.153140 0.266685 0.121213
0.278490 0.276258 0.130785
0.470542 0.290924 0.145451
0.593547 0.300317 0.154844
0.681504 0.307033 0.161561
0.749809 0.312249 0.166777
0.782922 0.314778 0.169306
0.163125 0.486221 0.166690
0.163241 0.486229 0.166699
0.201552 0.489155 0.169624
0.326901 0.498727 0.179197
0.518954 0.513393 0.193863
0.641958 0.522786 0.203256
0.729915 0.529503 0.209973
0.798220 0.534719 0.215189
0.831333 0.537248 0.217717
0.194136 0.628729 0.197701
0.194252 0.628738 0.197710
0.232563 0.631664 0.200636
0.357912 0.641236 0.210208
0.549965 0.655902 0.224874
0.672969 0.665295 0.234267
0.760926 0.672012 0.240984
0.829231 0.677228 0.246200
0.862344 0.679756 0.248728
0.216312 0.730638 0.219877
0.216428 0.730647 0.219886
0.254739 0.733572 0.222812
0.380088 0.743144 0.232384
0.572141 0.757810 0.247050
0.695146 0.767204 0.256443
0.783103 0.773920 0.263160
0.851407 0.779136 0.268376
0.884521 0.781665 0.270905
0.233534 0.809779 0.237099
0.233650 0.809788 0.237108
0.271961 0.812714 0.240034
0.397310 0.822286 0.249606
0.589363 0.836952 0.264272
0.712368 0.846345 0.273665
0.800324 0.853062 0.280382
0.868629 0.858278 0.285598
0.901743 0.860807 0.288127
0.244271 0.859118 0.247836
0.244387 0.859127 0.247845
0.282698 0.862053 0.250770
0.408047 0.871625 0.260343
0.600099 0.886291 0.275008
0.723104 0.895684 0.284402
0.811061 0.902401 0.291118
0.879366 0.907617 0.296334
0.912479 0.910145 0.298863
0.073463 0.074177 0.077135
0.073579 0.074186 0.077144
0.111890 0.077112 0.080069
0.237239 0.086684 0.089641
0.429292 0.101350 0.104307
0.552296 0.110743 0.113700
0.640253 0.117460 0.120417
0.708558 0.122676 0.125633
0.741671 0.125204 0.128162
0.073492 0.074311 0.077164
0.073608 0.074320 0.077173
0.111919 0.077246 0.080098
0.237268 0.086818 0.089671
0.429321 0.101484 0.104336
0.552326 0.110877 0.113730
0.640282 0.117594 0.120446
0.708587 0.122810 0.125662
0.741700 0.125339 0.128191
0.083135 0.118624 0.086807
0.083251 0.118633 0.086815
0.121562 0.121558 0.089741
0.246911 0.131130 0.099313
0.438964 0.145796 0.113979
0.561968 0.155189 0.123372
0.649925 0.161906 0.130089
0.718230 0.167122 0.135305
0.751343 0.169651 0.137834
0.114716 0.263754 0.118388
0.114832 0.263763 0.118397
0.153143 0.266688 0.121323
0.278493 0.276261 0.130895
0.470545 0.290927 0.145561
0.593550 0.300320 0.154954
0.681507 0.307036 0.161671
0.749812 0.312252 0.166887
0.782925 0.314781 0.169415
0.163128 0.486224 0.166800
0.163244 0.486232 0.166809
0.201555 0.489158 0.169734
0.326904 0.498730 0.179306
0.518957 0.513396 0.193972
0.641961 0.522789 0.203365
0.729918 0.529506 0.210082
0.798223 0.534722 0.215298
0.831336 0.537251 0.217827
0.194139 0.628732 0.197811
0.194255 0.628741 0.197820
0.232566 0.631667 0.200745
0.357915 0.641239 0.210317
0.549968 0.655905 0.224983
0.672972 0.665298 0.234377
0.760929 0.672015 0.241093
0.829234 0.677231 0.246309
0.862347 0.679759 0.248838
0.216315 0.730641 0.219987
0.216431 0.730650 0.219996
0.254742 0.733575 0.222922
0.380091 0.743147 0.232494
0.572144 0.757813 0.247160
0.695149 0.767206 0.256553
0.783106 0.773923 0.263270
0.851410 0.779139 0.268486
0.884524 0.781668 0.271014
0.233537 0.809782 0.237209
0.233653 0.809791 0.237218
0.271964 0.812717 0.240143
0.397313 0.822289 0.249716
0.589366 0.836955 0.264382
0.712371 0.846348 0.273775
0.800327 0.853065 0.280491
0.868632 0.858281 0.285707
0.901746 0.860810 0.288236
0.244274 0.859121 0.247946
0.244390 0.859130 0.247954
0.282701 0.862056 0.250880
0.408050 0.871628 0.260452
0.600102 0.886294 0.275118
0.723107 0.895687 0.284511
0.811064 0.902404 0.291228
0.879369 0.907620 0.296444
0.912482 0.910148 0.298973
0.074452 0.075167 0.113370
0.074568 0.075176 0.113379
0.112879 0.078101 0.116305
0.238229 0.087674 0.125877
0.430281 0.102339 0.140543
0.553286 0.111733 0.149936
0.641243 0.118449 0.156653
0.709548 0.123665 0.161869
0.742661 0.126194 0.164397
0.074481 0.075301 0.113399
0.074598 0.075310 0.113408
0.112909 0.078235 0.116334
0.238258 0.087808 0.125906
0.430310 0.102474 0.140572
0.553315 0.111867 0.149965
0.641272 0.118584 0.156682
0.709577 0.123800 0.161898
0.742690 0.126328 0.164427
0.084124 0.119613 0.123042
0.084240 0.119622 0.123051
0.122551 0.122548 0.125977
0.247901 0.132120 0.135549
0.439953 0.146786 0.150215
0.562958 0.156179 0.159608
0.650915 0.162896 0.166325
0.719220 0.168112 0.171541
0.752333 0.170641 0.174069
0.115706 0.264744 0.154624
0.115822 0.264752 0.154633
0.154133 0.267678 0.157558
0.279482 0.277250 0.167131
0.471535 0.291916 0.181796
0.594540 0.301309 0.191190
0.682496 0.308026 0.197906
0.750801 0.313242 0.203122
0.783915 0.315771 0.205651
0.164117 0.487213 0.203035
0.164233 0.487222 0.203044
0.202544 0.490148 0.205970
0.327894 0.499720 0.215542
0.519946 0.514386 0.230208
0.642951 0.523779 0.239601
0.730908 0.530496 0.246318
0.799213 0.535712 0.251534
0.832326 0.538240 0.254062
0.195128 0.629722 0.234046
0.195244 0.629731 0.234055
0.233556 0.632656 0.236981
0.358905 0.642228 0.246553
0.550957 0.656894 0.261219
0.673962 0.666287 0.270612
0.761919 0.673004 0.277329
0.830224 0.678220 0.282545
0.863337 0.680749 0.285074
0.217305 0.731630 0.256223
0.217421 0.731639 0.256232
0.255732 0.734565 0.259157
0.381081 0.744137 0.268729
0.573134 0.758803 0.283395
0.696138 0.768196 0.292788
0.784095 0.774913 0.299505
0.852400 0.780129 0.304721
0.885513 0.782658 0.307250
0.234527 0.810772 0.273445
0.234643 0.810781 0.273453
0.272954 0.813706 0.276379
0.398303 0.823279 0.285951
0.590356 0.837945 0.300617
0.713360 0.847338 0.310010
0.801317 0.854054 0.316727
0.869622 0.859270 0.321943
0.902735 0.861799 0.324472
0.245263 0.860111 0.284181
0.245379 0.860120 0.284190
0.283690 0.863045 0.287116
0.409040 0.872618 0.296688
0.601092 0.887283 0.311354
0.724097 0.896677 0.320747
0.812054 0.903393 0.327464
0.880358 0.908609 0.332680
0.913472 0.911138 0.335208
0.077697 0.078411 0.232173
0.077813 0.078420 0.232181
0.116124 0.081346 0.235107
0.241473 0.090918 0.244679
0.433526 0.105584 0.259345
0.556531 0.114977 0.268738
0.644487 0.121694 0.275455
0.712792 0.126910 0.280671
0.745906 0.129439 0.283200
0.077726 0.078546 0.232202
0.077842 0.078555 0.232211
0.116153 0.081480 0.235136
0.241503 0.091052 0.244708
0.433555 0.105718 0.259374
0.556560 0.115111 0.268768
0.644517 0.121828 0.275484
0.712821 0.127044 0.280700
0.745935 0.129573 0.283229
0.087369 0.122858 0.241845
0.087485 0.122867 0.241853
0.125796 0.125792 0.244779
0.251145 0.135365 0.254351
0.443198 0.150031 0.269017
0.566203 0.159424 0.278410
0.654159 0.166140 0.285127
0.722464 0.171356 0.290343
0.755577 0.173885 0.292872
0.118950 0.267988 0.273426
0.119067 0.267997 0.273435
0.157378 0.270923 0.276361
0.282727 0.280495 0.285933
0.474779 0.295161 0.300599
0.597784 0.304554 0.309992
0.685741 0.311271 0.316709
0.754046 0.316487 0.321925
0.787159 0.319015 0.324453
0.167362 0.490458 0.321838
0.167478 0.490467 0.321846
0.205789 0.493392 0.324772
0.331138 0.502964 0.334344
0.523191 0.517630 0.349010
0.646196 0.527024 0.358403
0.734152 0.533740 0.365120
0.802457 0.538956 0.370336
0.835571 0.541485 0.372865
0.198373 0.632966 0.352849
0.198489 0.632975 0.352858
0.236800 0.635901 0.355783
0.362149 0.645473 0.365355
0.554202 0.660139 0.380021
0.677207 0.669532 0.389414
0.765164 0.676249 0.396131
0.833468 0.681465 0.401347
0.866582 0.683993 0.403876
0.220549 0.734875 0.375025
0.220665 0.734884 0.375034
0.258976 0.737809 0.377959
0.384326 0.747382 0.387532
0.576378 0.762048 0.402198
0.699383 0.771441 0.411591
0.787340 0.778157 0.418307
0.855645 0.783374 0.423523
0.888758 0.785902 0.426052
0.237771 0.814017 0.392247
0.237887 0.814025 0.392256
0.276198 0.816951 0.395181
0.401548 0.826523 0.404754
0.593600 0.841189 0.419419
0.716605 0.850582 0.428813
0.804562 0.857299 0.435529
0.872866 0.862515 0.440745
0.905980 0.865044 0.443274
0.248508 0.863355 0.402983
0.248624 0.863364 0.402992
0.286935 0.866290 0.405918
0.412284 0.875862 0.415490
0.604337 0.890528 0.430156
0.727341 0.899921 0.439549
0.815298 0.906638 0.446266
0.883603 0.911854 0.451482
0.916716 0.914383 0.454011
0.082673 0.083388 0.414380
0.082789 0.083397 0.414389
0.121100 0.086322 0.417314
0.246450 0.095894 0.426886
0.438502 0.110560 0.441552
0.561507 0.119953 0.450946
0.649464 0.126670 0.457662
0.717768 0.131886 0.462878
0.750882 0.134415 0.465407
0.082702 0.083522 0.414409
0.082818 0.083531 0.414418
0.121130 0.086456 0.417343
0.246479 0.096029 0.426916
0.438531 0.110694 0.441582
0.561536 0.120088 0.450975
0.649493 0.126804 0.457691
0.717798 0.132020 0.462907
0.750911 0.134549 0.465436
0.092345 0.127834 0.424052
0.092461 0.127843 0.424061
0.130772 0.130769 0.426986
0.256122 0.140341 0.436558
0.448174 0.155007 0.451224
0.571179 0.164400 0.460617
0.659136 0.171117 0.467334
0.727440 0.176333 0.472550
0.760554 0.178861 0.475079
0.123927 0.272964 0.455633
0.124043 0.272973 0.455642
0.162354 0.275899 0.458568
0.287703 0.285471 0.468140
0.479756 0.300137 0.482806
0.602760 0.309530 0.492199
0.690717 0.316247 0.498916
0.759022 0.321463 0.504132
0.792135 0.323992 0.506661
0.172338 0.495434 0.504045
0.172454 0.495443 0.504054
0.210765 0.498369 0.506979
0.336115 0.507941 0.516551
0.528167 0.522607 0.531217
0.651172 0.532000 0.540611
0.739129 0.538717 0.547327
0.807433 0.543933 0.552543
0.840547 0.546461 0.555072
0.203349 0.637943 0.535056
0.203465 0.637951 0.535065
0.241776 0.640877 0.537990
0.367126 0.650449 0.547563
0.559178 0.665115 0.562228
0.682183 0.674508 0.571622
0.770140 0.681225 0.578338
0.838445 0.686441 0.583554
0.871558 0.688970 0.586083
0.225526 0.739851 0.557232
0.225642 0.739860 0.557241
0.263953 0.742786 0.560167
0.389302 0.752358 0.569739
0.581354 0.767024 0.584405
0.704359 0.776417 0.593798
0.792316 0.783134 0.600515
0.860621 0.788350 0.605731
0.893734 0.790878 0.608259
0.242747 0.818993 0.574454
0.242864 0.819002 0.574463
0.281175 0.821927 0.577389
0.406524 0.831499 0.586961
0.598576 0.846165 0.601627
0.721581 0.855559 0.611020
0.809538 0.862275 0.617737
0.877843 0.867491 0.622953
0.910956 0.870020 0.625481
0.253484 0.868332 0.585191
0.253600 0.868341 0.585200
0.291911 0.871266 0.588125
0.417260 0.880838 0.597697
0.609313 0.895504 0.612363
0.732318 0.904897 0.621756
0.820275 0.911614 0.628473
0.888579 0.916830 0.633689
0.921693 0.919359 0.636218
0.085861 0.086576 0.531117
0.085977 0.086585 0.531126
0.124289 0.089510 0.534051
0.249638 0.099083 0.543623
0.441690 0.113748 0.558289
0.564695 0.123142 0.567683
0.652652 0.129858 0.574399
0.720957 0.135074 0.579615
0.754070 0.137603 0.582144
0.085891 0.086710 0.531146
0.086007 0.086719 0.531155
0.124318 0.089645 0.534080
0.249667 0.099217 0.543653
0.441719 0.113883 0.558319
0.564724 0.123276 0.567712
0.652681 0.129993 0.574429
0.720986 0.135209 0.579645
0.754099 0.137737 0.582173
0.095533 0.131022 0.540789
0.095649 0.131031 0.540798
0.133960 0.133957 0.543723
0.259310 0.143529 0.553295
0.451362 0.158195 0.567961
0.574367 0.167588 0.577355
0.662324 0.174305 0.584071
0.730629 0.179521 0.589287
0.763742 0.182050 0.591816
0.127115 0.276153 0.572370
0.127231 0.276162 0.572379
0.165542 0.279087 0.575305
0.290891 0.288659 0.584877
0.482944 0.303325 0.599543
0.605949 0.312718 0.608936
0.693905 0.319435 0.615653
0.762210 0.324651 0.620869
0.795324 0.327180 0.623398
0.175526 0.498622 0.620782
0.175642 0.498631 0.620791
0.213954 0.501557 0.623716
0.339303 0.511129 0.633288
0.531355 0.525795 0.647954
0.654360 0.535188 0.657348
0.742317 0.541905 0.664064
0.810622 0.547121 0.669280
0.843735 0.549649 0.671809
0.206537 0.641131 0.651793
0.206654 0.641140 0.651802
0.244965 0.644065 0.654727
0.370314 0.653637 0.664300
0.562366 0.668303 0.678966
0.685371 0.677696 0.688359
0.773328 0.684413 0.695075
0.841633 0.689629 0.700291
0.874746 0.692158 0.702820
0.228714 0.743039 0.673969
0.228830 0.743048 0.673978
0.267141 0.745974 0.676904
0.392490 0.755546 0.686476
0.584543 0.770212 0.701142
0.707547 0.779605 0.710535
0.795504 0.786322 0.717252
0.863809 0.791538 0.722468
0.896922 0.794067 0.724996
0.245936 0.822181 0.691191
0.246052 0.822190 0.691200
0.284363 0.825115 0.694126
0.409712 0.834688 0.703698
0.601765 0.849354 0.718364
0.724769 0.858747 0.727757
0.812726 0.865464 0.734474
0.881031 0.870680 0.739690
0.914144 0.873208 0.742218
0.256672 0.871520 0.701928
0.256788 0.871529 0.701937
0.295099 0.874454 0.704862
0.420449 0.884027 0.714434
0.612501 0.898692 0.729100
0.735506 0.908086 0.738493
0.823463 0.914802 0.745210
0.891768 0.920018 0.750426
0.924881 0.922547 0.752955
0.088141 0.088856 0.614601
0.088257 0.088865 0.614610
0.126569 0.091790 0.617535
0.251918 0.101363 0.627108
0.443970 0.116029 0.641774
0.566975 0.125422 0.651167
0.654932 0.132138 0.657883
0.723237 0.137354 0.663099
0.756350 0.139883 0.665628
0.088171 0.088990 0.614630
0.088287 0.088999 0.614639
0.126598 0.091925 0.617565
0.251947 0.101497 0.627137
0.443999 0.116163 0.641803
0.567004 0.125556 0.651196
0.654961 0.132273 0.657913
0.723266 0.137489 0.663129
0.756379 0.140017 0.665657
0.097813 0.133302 0.624273
0.097929 0.133311 0.624282
0.136241 0.136237 0.627207
0.261590 0.145809 0.636780
0.453642 0.160475 0.651445
0.576647 0.169868 0.660839
0.664604 0.176585 0.667555
0.732909 0.181801 0.672771
0.766022 0.184330 0.675300
0.129395 0.278433 0.655855
0.129511 0.278442 0.655863
0.167822 0.281367 0.658789
0.293171 0.290939 0.668361
0.485224 0.305605 0.683027
0.608229 0.314998 0.692420
0.696185 0.321715 0.699137
0.764490 0.326931 0.704353
0.797604 0.329460 0.706882
0.177806 0.500902 0.704266
0.177922 0.500911 0.704275
0.216234 0.503837 0.707200
0.341583 0.513409 0.716773
0.533635 0.528075 0.731439
0.656640 0.537468 0.740832
0.744597 0.544185 0.747548
0.812902 0.549401 0.752764
0.846015 0.551929 0.755293
0.208817 0.643411 0.735277
0.208934 0.643420 0.735286
0.247245 0.646345 0.738212
0.372594 0.655917 0.747784
0.564646 0.670583 0.762450
0.687651 0.679977 0.771843
0.775608 0.686693 0.778560
0.843913 0.691909 0.783776
0.877026 0.694438 0.786304
0.230994 0.745319 0.757453
0.231110 0.745328 0.757462
0.269421 0.748254 0.760388
0.394770 0.757826 0.769960
0.586823 0.772492 0.784626
0.709827 0.781885 0.794019
0.797784 0.788602 0.800736
0.866089 0.793818 0.805952
0.899202 0.796347 0.808481
0.248216 0.824461 0.774675
0.248332 0.824470 0.774684
0.286643 0.827396 0.777610
0.411992 0.836968 0.787182
0.604045 0.851634 0.801848
0.727049 0.861027 0.811241
0.815006 0.867744 0.817958
0.883311 0.872960 0.823174
0.916424 0.875488 0.825702
0.258952 0.873800 0.785412
0.259068 0.873809 0.785421
0.297379 0.876734 0.788346
0.422729 0.886307 0.797918
0.614781 0.900973 0.812584
0.737786 0.910366 0.821978
0.825743 0.917082 0.828694
0.894048 0.922298 0.833910
0.927161 0.924827 0.836439
0.089912 0.090627 0.679436
0.090028 0.090636 0.679445
0.128339 0.093561 0.682370
0.253689 0.103133 0.691943
0.445741 0.117799 0.706609
0.568746 0.127192 0.716002
0.656703 0.133909 0.722719
0.725007 0.139125 0.727935
0.758121 0.141654 0.730463
0.089941 0.090761 0.679465
0.090057 0.090770 0.679474
0.128368 0.093695 0.682400
0.253718 0.103267 0.691972
0.445770 0.117933 0.706638
0.568775 0.127327 0.716031
0.656732 0.134043 0.722748
0.725037 0.139259 0.727964
0.758150 0.141788 0.730492
0.099584 0.135073 0.689108
0.099700 0.135082 0.689117
0.138011 0.138008 0.692042
0.263360 0.147580 0.701615
0.455413 0.162246 0.716281
0.578418 0.171639 0.725674
0.666375 0.178356 0.732390
0.734679 0.183572 0.737606
0.767793 0.186100 0.740135
0.131166 0.280203 0.720690
0.131282 0.280212 0.720698
0.169593 0.283138 0.723624
0.294942 0.292710 0.733196
0.486995 0.307376 0.747862
0.609999 0.316769 0.757255
0.697956 0.323486 0.763972
0.766261 0.328702 0.769188
0.799374 0.331231 0.771717
0.179577 0.502673 0.769101
0.179693 0.502682 0.769110
0.218004 0.505607 0.772035
0.343354 0.515180 0.781608
0.535406 0.529846 0.796274
0.658411 0.539239 0.805667
0.746368 0.545955 0.812383
0.814672 0.551172 0.817600
0.847786 0.553700 0.820128
0.210588 0.645181 0.800112
0.210704 0.645190 0.800121
0.249015 0.648116 0.803047
0.374365 0.657688 0.812619
0.566417 0.672354 0.827285
0.689422 0.681747 0.836678
0.777379 0.688464 0.843395
0.845683 0.693680 0.848611
0.878797 0.696209 0.851139
0.232764 0.747090 0.822288
0.232881 0.747099 0.822297
0.271192 0.750025 0.825223
0.396541 0.759597 0.834795
0.588593 0.774263 0.849461
0.711598 0.783656 0.858854
0.799555 0.790373 0.865571
0.867860 0.795589 0.870787
0.900973 0.798117 0.873316
0.249986 0.826232 0.839510
0.250102 0.826241 0.839519
0.288414 0.829166 0.842445
0.413763 0.838738 0.852017
0.605815 0.853404 0.866683
0.728820 0.862797 0.876076
0.816777 0.869514 0.882793
0.885082 0.874730 0.888009
0.918195 0.877259 0.890538
0.260723 0.875571 0.850247
0.260839 0.875580 0.850256
0.299150 0.878505 0.853181
0.424499 0.888077 0.862754
0.616552 0.902743 0.877419
0.739557 0.912136 0.886813
0.827513 0.918853 0.893529
0.895818 0.924069 0.898745
0.928932 0.926598 0.901274
0.090689 0.091403 0.707870
0.090805 0.091412 0.707879
0.129116 0.094338 0.710805
0.254465 0.103910 0.720377
0.446518 0.118576 0.735043
0.569522 0.127969 0.744436
0.657479 0.134686 0.751153
0.725784 0.139902 0.756369
0.758897 0.142430 0.758897
0.090718 0.091537 0.707899
0.090834 0.091546 0.707908
0.129145 0.094472 0.710834
0.254494 0.104044 0.720406
0.446547 0.118710 0.735072
0.569552 0.128103 0.744465
0.657508 0.134820 0.751182
0.725813 0.140036 0.756398
0.758926 0.142565 0.758926
0.100361 0.135850 0.717542
0.100477 0.135859 0.717551
0.138788 0.138784 0.720477
0.264137 0.148356 0.730049
0.456190 0.163022 0.744715
0.579194 0.172415 0.754108
0.667151 0.179132 0.760825
0.735456 0.184348 0.766041
0.768569 0.186877 0.768569
0.131942 0.280980 0.749124
0.132058 0.280989 0.749133
0.170369 0.283914 0.752058
0.295719 0.293487 0.761630
0.487771 0.308153 0.776296
0.610776 0.317546 0.785689
0.698733 0.324262 0.792406
0.767038 0.329478 0.797622
0.800151 0.332007 0.800151
0.180354 0.503450 0.797535
0.180470 0.503458 0.797544
0.218781 0.506384 0.800470
0.344130 0.515956 0.810042
0.536183 0.530622 0.824708
0.659187 0.540015 0.834101
0.747144 0.546732 0.840818
0.815449 0.551948 0.846034
0.848562 0.554477 0.848562
0.211365 0.645958 0.828546
0.211481 0.645967 0.828555
0.249792 0.648893 0.831481
0.375141 0.658465 0.841053
0.567194 0.673131 0.855719
0.690198 0.682524 0.865112
0.778155 0.689241 0.871829
0.846460 0.694457 0.877045
0.879573 0.696985 0.879573
0.233541 0.747867 0.850722
0.233657 0.747876 0.850731
0.271968 0.750801 0.853657
0.397317 0.760373 0.863229
0.589370 0.775039 0.877895
0.712375 0.784432 0.887288
0.800332 0.791149 0.894005
0.868636 0.796365 0.899221
0.901750 0.798894 0.901750
0.250763 0.827008 0.867944
0.250879 0.827017 0.867953
0.289190 0.829943 0.870879
0.414539 0.839515 0.880451
0.606592 0.854181 0.895117
0.729597 0.863574 0.904510
0.817553 0.870291 0.911227
0.885858 0.875507 0.916443
0.918972 0.878036 0.918972
0.261500 0.876347 0.878681
0.261616 0.876356 0.878690
0.299927 0.879282 0.881615
0.425276 0.888854 0.891188
0.617328 0.903520 0.905854
0.740333 0.912913 0.915247
0.828290 0.919630 0.921963
0.896595 0.924846 0.927179
0.929708 0.927374 0.929708
