public/luts/dji/lk-dji-fuji.cube
TITLE "LK DJI Fuji"
LUT_3D_SIZE 5
DOMAIN_MIN 0.0 0.0 0.0
DOMAIN_MAX 1.0 1.0 1.0
0.015243 0.019591 0.021638
0.063209 0.020013 0.022059
0.481233 0.023683 0.025730
0.771282 0.026230 0.028277
0.926172 0.027590 0.029637
0.016766 0.072204 0.023161
0.064732 0.072625 0.023582
0.482755 0.076295 0.027252
0.772805 0.078842 0.029799
0.927694 0.080202 0.031159
0.029778 0.521868 0.036173
0.077744 0.522289 0.036594
0.495767 0.525960 0.040265
0.785817 0.528506 0.042811
0.940707 0.529866 0.044171
0.038722 0.830937 0.045117
0.086688 0.831358 0.045538
0.504711 0.835029 0.049208
0.794760 0.837576 0.051755
0.949650 0.838936 0.053115
0.042729 0.969411 0.049124
0.090695 0.969832 0.049545
0.508718 0.973503 0.053215
0.798768 0.976049 0.055762
0.953657 0.977409 0.057122
0.015400 0.019748 0.073780
0.063366 0.020169 0.074201
0.481389 0.023839 0.077871
0.771438 0.026386 0.080418
0.926328 0.027746 0.081778
0.016922 0.072360 0.075302
0.064888 0.072781 0.075723
0.482911 0.076452 0.079394
0.772961 0.078999 0.081941
0.927851 0.080359 0.083301
0.029934 0.522024 0.088314
0.077900 0.522446 0.088735
0.495924 0.526116 0.092406
0.785973 0.528663 0.094953
0.940863 0.530023 0.096313
0.038878 0.831094 0.097258
0.086844 0.831515 0.097679
0.504867 0.835185 0.101350
0.794917 0.837732 0.103896
0.949807 0.839092 0.105257
0.042885 0.969567 0.101265
0.090851 0.969988 0.101686
0.508875 0.973659 0.105357
0.798924 0.976206 0.107904
0.953814 0.977566 0.109264
0.016738 0.021086 0.519979
0.064704 0.021507 0.520400
0.482727 0.025178 0.524071
0.772777 0.027724 0.526618
0.927667 0.029084 0.527978
0.018260 0.073698 0.521502
0.066227 0.074120 0.521923
0.484250 0.077790 0.525593
0.774299 0.080337 0.528140
0.929189 0.081697 0.529500
0.031273 0.523363 0.534514
0.079239 0.523784 0.534935
0.497262 0.527454 0.538606
0.787311 0.530001 0.541152
0.942201 0.531361 0.542512
0.040216 0.832432 0.543458
0.088182 0.832853 0.543879
0.506206 0.836523 0.547549
0.796255 0.839070 0.550096
0.951145 0.840430 0.551456
0.044223 0.970906 0.547465
0.092190 0.971327 0.547886
0.510213 0.974997 0.551556
0.800262 0.977544 0.554103
0.955152 0.978904 0.555463
0.017658 0.022006 0.826713
0.065624 0.022427 0.827134
0.483647 0.026098 0.830805
0.773697 0.028644 0.833352
0.928587 0.030004 0.834712
0.019180 0.074618 0.828236
0.067147 0.075040 0.828657
0.485170 0.078710 0.832327
0.775219 0.081257 0.834874
0.930109 0.082617 0.836234
0.032193 0.524283 0.841248
0.080159 0.524704 0.841669
0.498182 0.528374 0.845340
0.788231 0.530921 0.847886
0.943121 0.532281 0.849246
0.041136 0.833352 0.850192
0.089102 0.833773 0.850613
0.507126 0.837443 0.854283
0.797175 0.839990 0.856830
0.952065 0.841350 0.858190
0.045143 0.971826 0.854199
0.093110 0.972247 0.854620
0.511133 0.975917 0.858290
0.801182 0.978464 0.860837
0.956072 0.979824 0.862197
0.018012 0.022360 0.944694
0.065978 0.022781 0.945115
0.484001 0.026452 0.948786
0.774051 0.028998 0.951332
0.928940 0.030358 0.952692
0.019534 0.074972 0.946216
0.067500 0.075394 0.946638
0.485524 0.079064 0.950308
0.775573 0.081611 0.952855
0.930463 0.082971 0.954215
0.032546 0.524637 0.959229
0.080513 0.525058 0.959650
0.498536 0.528728 0.963320
0.788585 0.531275 0.965867
0.943475 0.532635 0.967227
0.041490 0.833706 0.968172
0.089456 0.834127 0.968593
0.507480 0.837797 0.972264
0.797529 0.840344 0.974811
0.952419 0.841704 0.976171
0.045497 0.972179 0.972179
0.093463 0.972601 0.972601
0.511487 0.976271 0.976271
0.801536 0.978818 0.978818
0.956426 0.980178 0.980178
