public/luts/dji/lk-dji-warm-film.cube
TITLE "LK DJI Warm Film"
LUT_3D_SIZE 9
DOMAIN_MIN 0.0 0.0 0.0
DOMAIN_MAX 1.0 1.0 1.0
0.025528 0.022832 0.018704
0.025702 0.022836 0.018707
0.080678 0.023833 0.019705
0.254757 0.026993 0.022865
0.519716 0.031803 0.027674
0.689426 0.034883 0.030754
0.810854 0.037087 0.032958
0.905199 0.038800 0.034671
0.925028 0.039160 0.035031
0.025537 0.022993 0.018713
0.025711 0.022996 0.018716
0.080688 0.023994 0.019714
0.254766 0.027154 0.022874
0.519725 0.031963 0.027683
0.689436 0.035043 0.030764
0.810863 0.037247 0.032968
0.905208 0.038960 0.034680
0.925038 0.039320 0.035040
0.028592 0.075170 0.021768
0.028766 0.075174 0.021771
0.083743 0.076172 0.022769
0.257821 0.079331 0.025929
0.522780 0.084141 0.030738
0.692491 0.087221 0.033819
0.813918 0.089425 0.036023
0.908263 0.091138 0.037735
0.928093 0.091498 0.038095
0.038562 0.245455 0.031738
0.038736 0.245458 0.031741
0.093713 0.246456 0.032739
0.267791 0.249615 0.035899
0.532750 0.254425 0.040708
0.702461 0.257505 0.043789
0.823888 0.259709 0.045993
0.918233 0.261422 0.047705
0.938063 0.261782 0.048065
0.054024 0.509525 0.047200
0.054197 0.509528 0.047203
0.109174 0.510526 0.048201
0.283253 0.513686 0.051360
0.548211 0.518495 0.056170
0.717922 0.521576 0.059250
0.839350 0.523780 0.061454
0.933694 0.525492 0.063167
0.953524 0.525852 0.063527
0.064022 0.680291 0.057198
0.064196 0.680295 0.057201
0.119173 0.681292 0.058199
0.293251 0.684452 0.061359
0.558210 0.689262 0.066168
0.727920 0.692342 0.069249
0.849348 0.694546 0.071453
0.943693 0.696259 0.073165
0.963522 0.696619 0.073525
0.071208 0.803020 0.064384
0.071382 0.803023 0.064387
0.126358 0.804021 0.065385
0.300437 0.807181 0.068545
0.565396 0.811990 0.073354
0.735106 0.815071 0.076434
0.856534 0.817275 0.078638
0.950879 0.818987 0.080351
0.970708 0.819347 0.080711
0.076806 0.898638 0.069982
0.076980 0.898641 0.069985
0.131957 0.899639 0.070983
0.306035 0.902799 0.074143
0.570994 0.907608 0.078952
0.740705 0.910688 0.082033
0.862132 0.912893 0.084237
0.956477 0.914605 0.085949
0.976307 0.914965 0.086309
0.080304 0.958373 0.073480
0.080477 0.958376 0.073483
0.135454 0.959374 0.074481
0.309533 0.962534 0.077640
0.574492 0.967343 0.082450
0.744202 0.970424 0.085530
0.865630 0.972628 0.087734
0.959975 0.974340 0.089447
0.979804 0.974700 0.089807
0.025528 0.022832 0.018704
0.025702 0.022836 0.018707
0.080678 0.023833 0.019705
0.254757 0.026993 0.022865
0.519716 0.031803 0.027674
0.689426 0.034883 0.030754
0.810854 0.037087 0.032958
0.905199 0.038800 0.034671
0.925028 0.039160 0.035031
0.025537 0.022993 0.018713
0.025711 0.022996 0.018716
0.080688 0.023994 0.019714
0.254766 0.027154 0.022874
0.519725 0.031963 0.027683
0.689436 0.035043 0.030764
0.810863 0.037247 0.032968
0.905208 0.038960 0.034680
0.925038 0.039320 0.035040
0.028592 0.075170 0.021768
0.028766 0.075174 0.021771
0.083743 0.076172 0.022769
0.257821 0.079331 0.025929
0.522780 0.084141 0.030738
0.692491 0.087221 0.033819
0.813918 0.089425 0.036023
0.908263 0.091138 0.037735
0.928093 0.091498 0.038095
0.038562 0.245455 0.031738
0.038736 0.245458 0.031741
0.093713 0.246456 0.032739
0.267791 0.249615 0.035899
0.532750 0.254425 0.040708
0.702461 0.257505 0.043789
0.823888 0.259709 0.045993
0.918233 0.261422 0.047705
0.938063 0.261782 0.048065
0.054024 0.509525 0.047200
0.054197 0.509528 0.047203
0.109174 0.510526 0.048201
0.283253 0.513686 0.051360
0.548211 0.518495 0.056170
0.717922 0.521576 0.059250
0.839350 0.523780 0.061454
0.933694 0.525492 0.063167
0.953524 0.525852 0.063527
0.064022 0.680291 0.057198
0.064196 0.680295 0.057201
0.119173 0.681292 0.058199
0.293251 0.684452 0.061359
0.558210 0.689262 0.066168
0.727920 0.692342 0.069249
0.849348 0.694546 0.071453
0.943693 0.696259 0.073165
0.963522 0.696619 0.073525
0.071208 0.803020 0.064384
0.071382 0.803023 0.064387
0.126358 0.804021 0.065385
0.300437 0.807181 0.068545
0.565396 0.811990 0.073354
0.735106 0.815071 0.076434
0.856534 0.817275 0.078638
0.950879 0.818987 0.080351
0.970708 0.819347 0.080711
0.076806 0.898638 0.069982
0.076980 0.898641 0.069985
0.131957 0.899639 0.070983
0.306035 0.902799 0.074143
0.570994 0.907608 0.078952
0.740705 0.910688 0.082033
0.862132 0.912893 0.084237
0.956477 0.914605 0.085949
0.976307 0.914965 0.086309
0.080304 0.958373 0.073480
0.080477 0.958376 0.073483
0.135454 0.959374 0.074481
0.309533 0.962534 0.077640
0.574492 0.967343 0.082450
0.744202 0.970424 0.085530
0.865630 0.972628 0.087734
0.959975 0.974340 0.089447
0.979804 0.974700 0.089807
0.025740 0.023045 0.052713
0.025914 0.023048 0.052717
0.080891 0.024046 0.053715
0.254969 0.027205 0.056874
0.519928 0.032015 0.061684
0.689638 0.035095 0.064764
0.811066 0.037299 0.066968
0.905411 0.039012 0.068681
0.925240 0.039372 0.069041
0.025749 0.023205 0.052723
0.025923 0.023208 0.052726
0.080900 0.024206 0.053724
0.254979 0.027366 0.056884
0.519937 0.032175 0.061693
0.689648 0.035256 0.064774
0.811075 0.037460 0.066978
0.905420 0.039172 0.068690
0.925250 0.039532 0.069050
0.028804 0.075383 0.055778
0.028978 0.075386 0.055781
0.083955 0.076384 0.056779
0.258034 0.079543 0.059939
0.522992 0.084353 0.064748
0.692703 0.087433 0.067829
0.814130 0.089637 0.070033
0.908475 0.091350 0.071745
0.928305 0.091710 0.072105
0.038774 0.245667 0.065748
0.038948 0.245670 0.065751
0.093925 0.246668 0.066749
0.268004 0.249828 0.069909
0.532962 0.254637 0.074718
0.702673 0.257717 0.077799
0.824101 0.259921 0.080003
0.918445 0.261634 0.081715
0.938275 0.261994 0.082075
0.054236 0.509737 0.081209
0.054410 0.509741 0.081212
0.109386 0.510738 0.082210
0.283465 0.513898 0.085370
0.548424 0.518708 0.090180
0.718134 0.521788 0.093260
0.839562 0.523992 0.095464
0.933907 0.525705 0.097177
0.953736 0.526065 0.097537
0.064234 0.680504 0.091208
0.064408 0.680507 0.091211
0.119385 0.681505 0.092209
0.293463 0.684664 0.095369
0.558422 0.689474 0.100178
0.728133 0.692554 0.103258
0.849560 0.694758 0.105462
0.943905 0.696471 0.107175
0.963735 0.696831 0.107535
0.071420 0.803232 0.098393
0.071594 0.803235 0.098397
0.126571 0.804233 0.099395
0.300649 0.807393 0.102554
0.565608 0.812202 0.107364
0.735318 0.815283 0.110444
0.856746 0.817487 0.112648
0.951091 0.819199 0.114361
0.970920 0.819559 0.114721
0.077018 0.898850 0.103992
0.077192 0.898853 0.103995
0.132169 0.899851 0.104993
0.306248 0.903011 0.108153
0.571206 0.907820 0.112962
0.740917 0.910901 0.116043
0.862344 0.913105 0.118247
0.956689 0.914817 0.119959
0.976519 0.915177 0.120319
0.080516 0.958585 0.107489
0.080690 0.958588 0.107493
0.135666 0.959586 0.108490
0.309745 0.962746 0.111650
0.574704 0.967555 0.116460
0.744414 0.970636 0.119540
0.865842 0.972840 0.121744
0.960187 0.974553 0.123457
0.980016 0.974912 0.123817
0.026630 0.023935 0.195345
0.026804 0.023938 0.195349
0.081780 0.024936 0.196347
0.255859 0.028095 0.199506
0.520818 0.032905 0.204316
0.690528 0.035985 0.207396
0.811956 0.038189 0.209600
0.906301 0.039902 0.211313
0.926130 0.040262 0.211673
0.026639 0.024095 0.195355
0.026813 0.024098 0.195358
0.081790 0.025096 0.196356
0.255868 0.028256 0.199516
0.520827 0.033065 0.204325
0.690538 0.036145 0.207406
0.811965 0.038350 0.209610
0.906310 0.040062 0.211322
0.926140 0.040422 0.211682
0.029694 0.076273 0.198410
0.029868 0.076276 0.198413
0.084845 0.077274 0.199411
0.258923 0.080433 0.202571
0.523882 0.085243 0.207380
0.693593 0.088323 0.210461
0.815020 0.090527 0.212665
0.909365 0.092240 0.214377
0.929195 0.092600 0.214737
0.039664 0.246557 0.208380
0.039838 0.246560 0.208383
0.094815 0.247558 0.209381
0.268894 0.250717 0.212541
0.533852 0.255527 0.217350
0.703563 0.258607 0.220431
0.824990 0.260811 0.222635
0.919335 0.262524 0.224347
0.939165 0.262884 0.224707
0.055126 0.510627 0.223841
0.055299 0.510630 0.223844
0.110276 0.511628 0.224842
0.284355 0.514788 0.228002
0.549314 0.519597 0.232812
0.719024 0.522678 0.235892
0.840452 0.524882 0.238096
0.934797 0.526594 0.239809
0.954626 0.526954 0.240168
0.065124 0.681393 0.233840
0.065298 0.681397 0.233843
0.120275 0.682395 0.234841
0.294353 0.685554 0.238000
0.559312 0.690364 0.242810
0.729022 0.693444 0.245890
0.850450 0.695648 0.248094
0.944795 0.697361 0.249807
0.964625 0.697721 0.250167
0.072310 0.804122 0.241025
0.072484 0.804125 0.241029
0.127460 0.805123 0.242026
0.301539 0.808283 0.245186
0.566498 0.813092 0.249996
0.736208 0.816173 0.253076
0.857636 0.818377 0.255280
0.951981 0.820089 0.256993
0.971810 0.820449 0.257353
0.077908 0.899740 0.246624
0.078082 0.899743 0.246627
0.133059 0.900741 0.247625
0.307137 0.903901 0.250785
0.572096 0.908710 0.255594
0.741807 0.911791 0.258675
0.863234 0.913995 0.260879
0.957579 0.915707 0.262591
0.977409 0.916067 0.262951
0.081406 0.959475 0.250121
0.081580 0.959478 0.250125
0.136556 0.960476 0.251122
0.310635 0.963636 0.254282
0.575594 0.968445 0.259092
0.745304 0.971526 0.262172
0.866732 0.973730 0.264376
0.961077 0.975442 0.266089
0.980906 0.975802 0.266449
0.028052 0.025356 0.423230
0.028225 0.025359 0.423233
0.083202 0.026357 0.424231
0.257281 0.029517 0.427390
0.522239 0.034327 0.432200
0.691950 0.037407 0.435280
0.813378 0.039611 0.437484
0.907722 0.041324 0.439197
0.927552 0.041683 0.439557
0.028061 0.025517 0.423239
0.028235 0.025520 0.423242
0.083212 0.026518 0.424240
0.257290 0.029677 0.427400
0.522249 0.034487 0.432209
0.691959 0.037567 0.435290
0.813387 0.039771 0.437494
0.907732 0.041484 0.439206
0.927561 0.041844 0.439566
0.031116 0.077694 0.426294
0.031290 0.077697 0.426297
0.086267 0.078695 0.427295
0.260345 0.081855 0.430455
0.525304 0.086665 0.435264
0.695014 0.089745 0.438345
0.816442 0.091949 0.440549
0.910787 0.093662 0.442261
0.930616 0.094022 0.442621
0.041086 0.247978 0.436264
0.041260 0.247982 0.436267
0.096237 0.248979 0.437265
0.270315 0.252139 0.440425
0.535274 0.256949 0.445234
0.704985 0.260029 0.448315
0.826412 0.262233 0.450519
0.920757 0.263946 0.452231
0.940587 0.264306 0.452591
0.056547 0.512049 0.451726
0.056721 0.512052 0.451729
0.111698 0.513050 0.452727
0.285777 0.516210 0.455886
0.550735 0.521019 0.460696
0.720446 0.524100 0.463776
0.841874 0.526304 0.465980
0.936218 0.528016 0.467693
0.956048 0.528376 0.468053
0.066546 0.682815 0.461724
0.066720 0.682818 0.461727
0.121696 0.683816 0.462725
0.295775 0.686976 0.465885
0.560734 0.691785 0.470694
0.730444 0.694866 0.473775
0.851872 0.697070 0.475979
0.946217 0.698783 0.477691
0.966046 0.699142 0.478051
0.073732 0.805544 0.468910
0.073905 0.805547 0.468913
0.128882 0.806545 0.469911
0.302961 0.809705 0.473070
0.567919 0.814514 0.477880
0.737630 0.817595 0.480960
0.859058 0.819799 0.483164
0.953402 0.821511 0.484877
0.973232 0.821871 0.485237
0.079330 0.901162 0.474508
0.079504 0.901165 0.474511
0.134481 0.902163 0.475509
0.308559 0.905322 0.478669
0.573518 0.910132 0.483478
0.743228 0.913212 0.486559
0.864656 0.915416 0.488763
0.959001 0.917129 0.490475
0.978830 0.917489 0.490835
0.082827 0.960897 0.478006
0.083001 0.960900 0.478009
0.137978 0.961898 0.479007
0.312057 0.965058 0.482166
0.577015 0.969867 0.486976
0.746726 0.972948 0.490056
0.868154 0.975152 0.492260
0.962498 0.976864 0.493973
0.982328 0.977224 0.494333
0.028985 0.026290 0.572831
0.029159 0.026293 0.572834
0.084136 0.027291 0.573832
0.258214 0.030451 0.576992
0.523173 0.035260 0.581801
0.692883 0.038340 0.584882
0.814311 0.040544 0.587086
0.908656 0.042257 0.588798
0.928485 0.042617 0.589158
0.028994 0.026450 0.572841
0.029168 0.026453 0.572844
0.084145 0.027451 0.573842
0.258224 0.030611 0.577001
0.523182 0.035420 0.581811
0.692893 0.038501 0.584891
0.814321 0.040705 0.587095
0.908665 0.042417 0.588808
0.928495 0.042777 0.589168
0.032049 0.078628 0.575896
0.032223 0.078631 0.575899
0.087200 0.079629 0.576897
0.261279 0.082789 0.580056
0.526237 0.087598 0.584866
0.695948 0.090678 0.587946
0.817376 0.092882 0.590150
0.911720 0.094595 0.591863
0.931550 0.094955 0.592223
0.042019 0.248912 0.585866
0.042193 0.248915 0.585869
0.097170 0.249913 0.586867
0.271249 0.253073 0.590027
0.536207 0.257882 0.594836
0.705918 0.260962 0.597916
0.827346 0.263167 0.600120
0.921690 0.264879 0.601833
0.941520 0.265239 0.602193
0.057481 0.512982 0.601327
0.057655 0.512986 0.601330
0.112631 0.513983 0.602328
0.286710 0.517143 0.605488
0.551669 0.521953 0.610297
0.721379 0.525033 0.613378
0.842807 0.527237 0.615582
0.937152 0.528950 0.617294
0.956981 0.529310 0.617654
0.067479 0.683749 0.611325
0.067653 0.683752 0.611329
0.122630 0.684750 0.612326
0.296708 0.687909 0.615486
0.561667 0.692719 0.620296
0.731378 0.695799 0.623376
0.852805 0.698003 0.625580
0.947150 0.699716 0.627293
0.966980 0.700076 0.627653
0.074665 0.806477 0.618511
0.074839 0.806480 0.618514
0.129816 0.807478 0.619512
0.303894 0.810638 0.622672
0.568853 0.815447 0.627481
0.738563 0.818528 0.630562
0.859991 0.820732 0.632766
0.954336 0.822444 0.634478
0.974165 0.822804 0.634838
0.080263 0.902095 0.624110
0.080437 0.902098 0.624113
0.135414 0.903096 0.625111
0.309493 0.906256 0.628270
0.574451 0.911065 0.633080
0.744162 0.914146 0.636160
0.865590 0.916350 0.638364
0.959934 0.918062 0.640077
0.979764 0.918422 0.640437
0.083761 0.961830 0.627607
0.083935 0.961834 0.627610
0.138912 0.962831 0.628608
0.312990 0.965991 0.631768
0.577949 0.970801 0.636577
0.747659 0.973881 0.639658
0.869087 0.976085 0.641862
0.963432 0.977798 0.643574
0.983261 0.978158 0.643934
0.029660 0.026965 0.681106
0.029834 0.026968 0.681109
0.084811 0.027966 0.682107
0.258890 0.031126 0.685267
0.523848 0.035935 0.690077
0.693559 0.039016 0.693157
0.814987 0.041220 0.695361
0.909331 0.042932 0.697074
0.929161 0.043292 0.697434
0.029670 0.027126 0.681116
0.029844 0.027129 0.681119
0.084821 0.028127 0.682117
0.258899 0.031286 0.685277
0.523858 0.036096 0.690086
0.693568 0.039176 0.693166
0.814996 0.041380 0.695370
0.909341 0.043093 0.697083
0.929170 0.043453 0.697443
0.032725 0.079303 0.684171
0.032899 0.079306 0.684174
0.087876 0.080304 0.685172
0.261954 0.083464 0.688332
0.526913 0.088273 0.693141
0.696623 0.091354 0.696221
0.818051 0.093558 0.698425
0.912396 0.095270 0.700138
0.932225 0.095630 0.700498
0.042695 0.249587 0.694141
0.042869 0.249590 0.694144
0.097846 0.250588 0.695142
0.271924 0.253748 0.698302
0.536883 0.258558 0.703111
0.706593 0.261638 0.706192
0.828021 0.263842 0.708396
0.922366 0.265555 0.710108
0.942196 0.265914 0.710468
0.058156 0.513658 0.709602
0.058330 0.513661 0.709605
0.113307 0.514659 0.710603
0.287386 0.517819 0.713763
0.552344 0.522628 0.718572
0.722055 0.525709 0.721653
0.843483 0.527913 0.723857
0.937827 0.529625 0.725569
0.957657 0.529985 0.725929
0.068155 0.684424 0.719601
0.068329 0.684427 0.719604
0.123305 0.685425 0.720602
0.297384 0.688585 0.723761
0.562343 0.693394 0.728571
0.732053 0.696475 0.731651
0.853481 0.698679 0.733855
0.947826 0.700391 0.735568
0.967655 0.700751 0.735928
0.075340 0.807153 0.726786
0.075514 0.807156 0.726789
0.130491 0.808154 0.727787
0.304570 0.811314 0.730947
0.569528 0.816123 0.735757
0.739239 0.819203 0.738837
0.860667 0.821408 0.741041
0.955011 0.823120 0.742754
0.974841 0.823480 0.743113
0.080939 0.902771 0.732385
0.081113 0.902774 0.732388
0.136090 0.903772 0.733386
0.310168 0.906931 0.736546
0.575127 0.911741 0.741355
0.744837 0.914821 0.744435
0.866265 0.917025 0.746639
0.960610 0.918738 0.748352
0.980439 0.919098 0.748712
0.084436 0.962506 0.735882
0.084610 0.962509 0.735885
0.139587 0.963507 0.736883
0.313666 0.966667 0.740043
0.578624 0.971476 0.744852
0.748335 0.974557 0.747933
0.869763 0.976761 0.750137
0.964107 0.978473 0.751849
0.983937 0.978833 0.752209
0.030189 0.027494 0.765830
0.030363 0.027497 0.765833
0.085340 0.028495 0.766831
0.259418 0.031655 0.769990
0.524377 0.036464 0.774800
0.694088 0.039544 0.777880
0.815515 0.041749 0.780084
0.909860 0.043461 0.781797
0.929690 0.043821 0.782157
0.030198 0.027654 0.765839
0.030372 0.027657 0.765842
0.085349 0.028655 0.766840
0.259428 0.031815 0.770000
0.524386 0.036624 0.774809
0.694097 0.039705 0.777890
0.815525 0.041909 0.780094
0.909869 0.043621 0.781806
0.929699 0.043981 0.782166
0.033253 0.079832 0.768894
0.033427 0.079835 0.768897
0.088404 0.080833 0.769895
0.262483 0.083993 0.773055
0.527441 0.088802 0.777864
0.697152 0.091883 0.780945
0.818580 0.094087 0.783149
0.912924 0.095799 0.784861
0.932754 0.096159 0.785221
0.043224 0.250116 0.778864
0.043397 0.250119 0.778867
0.098374 0.251117 0.779865
0.272453 0.254277 0.783025
0.537412 0.259086 0.787834
0.707122 0.262167 0.790915
0.828550 0.264371 0.793119
0.922895 0.266083 0.794831
0.942724 0.266443 0.795191
0.058685 0.514187 0.794325
0.058859 0.514190 0.794329
0.113836 0.515188 0.795327
0.287914 0.518347 0.798486
0.552873 0.523157 0.803296
0.722583 0.526237 0.806376
0.844011 0.528441 0.808580
0.938356 0.530154 0.810293
0.958185 0.530514 0.810653
0.068683 0.684953 0.804324
0.068857 0.684956 0.804327
0.123834 0.685954 0.805325
0.297913 0.689114 0.808485
0.562871 0.693923 0.813294
0.732582 0.697003 0.816374
0.854009 0.699208 0.818579
0.948354 0.700920 0.820291
0.968184 0.701280 0.820651
0.075869 0.807681 0.811510
0.076043 0.807685 0.811513
0.131020 0.808682 0.812511
0.305098 0.811842 0.815670
0.570057 0.816652 0.820480
0.739768 0.819732 0.823560
0.861195 0.821936 0.825764
0.955540 0.823649 0.827477
0.975370 0.824009 0.827837
0.081467 0.903299 0.817108
0.081641 0.903302 0.817111
0.136618 0.904300 0.818109
0.310697 0.907460 0.821269
0.575655 0.912269 0.826078
0.745366 0.915350 0.829159
0.866794 0.917554 0.831363
0.961138 0.919266 0.833075
0.980968 0.919626 0.833435
0.084965 0.963034 0.820605
0.085139 0.963038 0.820609
0.140116 0.964036 0.821607
0.314194 0.967195 0.824766
0.579153 0.972005 0.829576
0.748863 0.975085 0.832656
0.870291 0.977289 0.834860
0.964636 0.979002 0.836573
0.984465 0.979362 0.836933
0.030520 0.027825 0.818904
0.030694 0.027828 0.818908
0.085671 0.028826 0.819906
0.259749 0.031986 0.823065
0.524708 0.036795 0.827875
0.694419 0.039876 0.830955
0.815846 0.042080 0.833159
0.910191 0.043792 0.834872
0.930021 0.044152 0.835232
0.030530 0.027985 0.818914
0.030703 0.027988 0.818917
0.085680 0.028986 0.819915
0.259759 0.032146 0.823075
0.524718 0.036955 0.827884
0.694428 0.040036 0.830965
0.815856 0.042240 0.833169
0.910201 0.043952 0.834881
0.930030 0.044312 0.835241
0.033585 0.080163 0.821969
0.033758 0.080166 0.821972
0.088735 0.081164 0.822970
0.262814 0.084324 0.826130
0.527773 0.089133 0.830939
0.697483 0.092214 0.834020
0.818911 0.094418 0.836224
0.913256 0.096130 0.837936
0.933085 0.096490 0.838296
0.043555 0.250447 0.831939
0.043729 0.250450 0.831942
0.098705 0.251448 0.832940
0.272784 0.254608 0.836100
0.537743 0.259417 0.840909
0.707453 0.262498 0.843990
0.828881 0.264702 0.846194
0.923226 0.266414 0.847906
0.943055 0.266774 0.848266
0.059016 0.514518 0.847400
0.059190 0.514521 0.847403
0.114167 0.515519 0.848401
0.288245 0.518679 0.851561
0.553204 0.523488 0.856371
0.722915 0.526568 0.859451
0.844342 0.528772 0.861655
0.938687 0.530485 0.863368
0.958517 0.530845 0.863728
0.069014 0.685284 0.857399
0.069188 0.685287 0.857402
0.124165 0.686285 0.858400
0.298244 0.689445 0.861560
0.563202 0.694254 0.866369
0.732913 0.697335 0.869449
0.854341 0.699539 0.871653
0.948685 0.701251 0.873366
0.968515 0.701611 0.873726
0.076200 0.808012 0.864584
0.076374 0.808016 0.864588
0.131351 0.809014 0.865586
0.305429 0.812173 0.868745
0.570388 0.816983 0.873555
0.740099 0.820063 0.876635
0.861526 0.822267 0.878839
0.955871 0.823980 0.880552
0.975701 0.824340 0.880912
0.081799 0.903630 0.870183
0.081972 0.903633 0.870186
0.136949 0.904631 0.871184
0.311028 0.907791 0.874344
0.575987 0.912600 0.879153
0.745697 0.915681 0.882234
0.867125 0.917885 0.884438
0.961470 0.919598 0.886150
0.981299 0.919957 0.886510
0.085296 0.963366 0.873680
0.085470 0.963369 0.873684
0.140447 0.964367 0.874681
0.314525 0.967526 0.877841
0.579484 0.972336 0.882651
0.749195 0.975416 0.885731
0.870622 0.977620 0.887935
0.964967 0.979333 0.889648
0.984797 0.979693 0.890008
