public/luts/iphone/lk-iphone-warm-film.cube
TITLE "LK iPhone Warm Film"
LUT_3D_SIZE 5
DOMAIN_MIN 0.0 0.0 0.0
DOMAIN_MAX 1.0 1.0 1.0
0.024626 0.023117 0.019198
0.272528 0.028838 0.024919
0.503691 0.034173 0.030253
0.728231 0.039355 0.035435
0.910644 0.043564 0.039645
0.042553 0.266645 0.037126
0.290456 0.272366 0.042847
0.521619 0.277701 0.048181
0.746158 0.282883 0.053363
0.928571 0.287092 0.057572
0.059701 0.499576 0.054273
0.307603 0.505296 0.059994
0.538767 0.510631 0.065329
0.763306 0.515813 0.070510
0.945719 0.520022 0.074720
0.076521 0.728061 0.071093
0.324424 0.733782 0.076814
0.555587 0.739116 0.082149
0.780126 0.744298 0.087331
0.962539 0.748507 0.091540
0.093129 0.953660 0.087701
0.341032 0.959381 0.093422
0.572195 0.964716 0.098757
0.796734 0.969898 0.103938
0.979147 0.974107 0.108148
0.026164 0.024656 0.212519
0.274067 0.030377 0.218240
0.505230 0.035711 0.223574
0.729769 0.040893 0.228756
0.912182 0.045103 0.232966
0.044092 0.268184 0.230447
0.291994 0.273905 0.236167
0.523158 0.279239 0.241502
0.747697 0.284421 0.246684
0.930110 0.288631 0.250893
0.061239 0.501114 0.247594
0.309142 0.506835 0.253315
0.540305 0.512169 0.258649
0.764844 0.517351 0.263831
0.947257 0.521561 0.268041
0.078060 0.729599 0.264414
0.325962 0.735320 0.270135
0.557125 0.740655 0.275470
0.781665 0.745836 0.280651
0.964078 0.750046 0.284861
0.094667 0.955199 0.281022
0.342570 0.960920 0.286743
0.573733 0.966254 0.292078
0.798272 0.971436 0.297259
0.980685 0.975646 0.301469
0.027740 0.026232 0.410560
0.275643 0.031953 0.416281
0.506806 0.037288 0.421616
0.731345 0.042469 0.426798
0.913758 0.046679 0.431007
0.045668 0.269760 0.428488
0.293570 0.275481 0.434209
0.524734 0.280815 0.439544
0.749273 0.285997 0.444725
0.931686 0.290207 0.448935
0.062815 0.502690 0.445636
0.310718 0.508411 0.451356
0.541881 0.513746 0.456691
0.766420 0.518927 0.461873
0.948833 0.523137 0.466082
0.079636 0.731175 0.462456
0.327538 0.736896 0.468177
0.558702 0.742231 0.473511
0.783241 0.747412 0.478693
0.965654 0.751622 0.482903
0.096244 0.956775 0.479064
0.344146 0.962496 0.484785
0.575309 0.967830 0.490119
0.799849 0.973012 0.495301
0.982262 0.977222 0.499510
0.029310 0.027802 0.607854
0.277213 0.033523 0.613575
0.508376 0.038858 0.618910
0.732915 0.044039 0.624091
0.915328 0.048249 0.628301
0.047238 0.271330 0.625782
0.295141 0.277051 0.631503
0.526304 0.282386 0.636837
0.750843 0.287567 0.642019
0.933256 0.291777 0.646229
0.064385 0.504260 0.642929
0.312288 0.509981 0.648650
0.543451 0.515316 0.653985
0.767991 0.520497 0.659167
0.950404 0.524707 0.663376
0.081206 0.732745 0.659750
0.329108 0.738466 0.665471
0.560272 0.743801 0.670805
0.784811 0.748983 0.675987
0.967224 0.753192 0.680196
0.097814 0.958345 0.676358
0.345716 0.964066 0.682078
0.576880 0.969401 0.687413
0.801419 0.974582 0.692595
0.983832 0.978792 0.696804
0.030876 0.029368 0.804626
0.278779 0.035089 0.810347
0.509942 0.040424 0.815682
0.734481 0.045605 0.820864
0.916894 0.049815 0.825073
0.048804 0.272896 0.822554
0.296707 0.278617 0.828275
0.527870 0.283952 0.833610
0.752409 0.289133 0.838791
0.934822 0.293343 0.843001
0.065951 0.505826 0.839702
0.313854 0.511547 0.845422
0.545017 0.516882 0.850757
0.769557 0.522063 0.855939
0.951970 0.526273 0.860148
0.082772 0.734311 0.856522
0.330674 0.740032 0.862243
0.561838 0.745367 0.867577
0.786377 0.750549 0.872759
0.968790 0.754758 0.876969
0.099380 0.959911 0.873130
0.347282 0.965632 0.878851
0.578446 0.970967 0.884185
0.802985 0.976148 0.889367
0.985398 0.980358 0.893577
