public/luts/iphone/lk-iphone-cool.cube
TITLE "LK iPhone Cool"
LUT_3D_SIZE 9
DOMAIN_MIN 0.0 0.0 0.0
DOMAIN_MAX 1.0 1.0 1.0
0.000143 0.000143 0.008088
0.086382 0.004496 0.012441
0.183095 0.009377 0.017322
0.281415 0.014339 0.022284
0.380783 0.019353 0.027298
0.480935 0.024408 0.032353
0.581714 0.029494 0.037439
0.683016 0.034606 0.042551
0.784768 0.039742 0.047687
0.014952 0.097774 0.022897
0.101191 0.102126 0.027249
0.197903 0.107007 0.032130
0.296224 0.111969 0.037092
0.395592 0.116984 0.042107
0.495743 0.122038 0.047161
0.596522 0.127124 0.052248
0.697825 0.132237 0.057360
0.799577 0.137372 0.062495
0.031546 0.207177 0.039491
0.117785 0.211529 0.043843
0.214498 0.216410 0.048724
0.312818 0.221372 0.053686
0.412186 0.226387 0.058701
0.512338 0.231441 0.063756
0.613116 0.236527 0.068842
0.714419 0.241640 0.073954
0.816171 0.246775 0.079089
0.048416 0.318397 0.056361
0.134655 0.322750 0.060713
0.231368 0.327631 0.065594
0.329688 0.332593 0.070556
0.429056 0.337607 0.075571
0.529208 0.342662 0.080626
0.629986 0.347748 0.085712
0.731289 0.352860 0.090824
0.833041 0.357996 0.095959
0.065466 0.430804 0.073411
0.151705 0.435156 0.077763
0.248417 0.440037 0.082644
0.346737 0.444999 0.087606
0.446106 0.450014 0.092621
0.546257 0.455068 0.097675
0.647036 0.460154 0.102761
0.748339 0.465267 0.107874
0.850091 0.470402 0.113009
0.082650 0.544096 0.090595
0.168889 0.548448 0.094947
0.265601 0.553329 0.099828
0.363922 0.558291 0.104790
0.463290 0.563306 0.109805
0.563441 0.568360 0.114859
0.664220 0.573447 0.119946
0.765523 0.578559 0.125058
0.867275 0.583694 0.130193
0.099942 0.658098 0.107887
0.186181 0.662450 0.112239
0.282893 0.667331 0.117120
0.381213 0.672293 0.122082
0.480582 0.677308 0.127097
0.580733 0.682362 0.132151
0.681512 0.687448 0.137237
0.782814 0.692561 0.142350
0.884567 0.697696 0.147485
0.117323 0.772692 0.125268
0.203562 0.777044 0.129621
0.300275 0.781925 0.134501
0.398595 0.786887 0.139463
0.497963 0.791902 0.144478
0.598115 0.796956 0.149533
0.698894 0.802042 0.154619
0.800196 0.807155 0.159731
0.901948 0.812290 0.164867
0.134782 0.887795 0.142727
0.221021 0.892147 0.147079
0.317734 0.897028 0.151960
0.416054 0.901990 0.156922
0.515422 0.907005 0.161937
0.615574 0.912059 0.166992
0.716352 0.917145 0.172078
0.817655 0.922258 0.177190
0.919407 0.927393 0.182325
0.001992 0.001992 0.112338
0.088231 0.006344 0.116691
0.184943 0.011225 0.121571
0.283263 0.016187 0.126533
0.382632 0.021202 0.131548
0.482783 0.026256 0.136603
0.583562 0.031342 0.141689
0.684864 0.036455 0.146801
0.786617 0.041590 0.151937
0.016800 0.099622 0.127147
0.103039 0.103975 0.131499
0.199752 0.108855 0.136380
0.298072 0.113817 0.141342
0.397440 0.118832 0.146357
0.497592 0.123887 0.151411
0.598371 0.128973 0.156497
0.699673 0.134085 0.161610
0.801425 0.139220 0.166745
0.033394 0.209025 0.143741
0.119634 0.213377 0.148093
0.216346 0.218258 0.152974
0.314666 0.223220 0.157936
0.414034 0.228235 0.162951
0.514186 0.233289 0.168005
0.614965 0.238376 0.173092
0.716267 0.243488 0.178204
0.818020 0.248623 0.183339
0.050264 0.320246 0.160611
0.136503 0.324598 0.164963
0.233216 0.329479 0.169844
0.331536 0.334441 0.174806
0.430904 0.339456 0.179821
0.531056 0.344510 0.184875
0.631835 0.349596 0.189961
0.733137 0.354709 0.195074
0.834890 0.359844 0.200209
0.067314 0.432652 0.177661
0.153553 0.437004 0.182013
0.250266 0.441885 0.186894
0.348586 0.446847 0.191856
0.447954 0.451862 0.196871
0.548106 0.456917 0.201925
0.648884 0.462003 0.207011
0.750187 0.467115 0.212124
0.851939 0.472250 0.217259
0.084498 0.545944 0.194845
0.170737 0.550297 0.199197
0.267450 0.555178 0.204078
0.365770 0.560140 0.209040
0.465138 0.565154 0.214055
0.565290 0.570209 0.219109
0.666069 0.575295 0.224195
0.767371 0.580407 0.229308
0.869123 0.585543 0.234443
0.101790 0.659946 0.212137
0.188029 0.664298 0.216489
0.284742 0.669179 0.221370
0.383062 0.674141 0.226332
0.482430 0.679156 0.231347
0.582582 0.684211 0.236401
0.683360 0.689297 0.241487
0.784663 0.694409 0.246600
0.886415 0.699544 0.251735
0.119172 0.774540 0.229518
0.205411 0.778892 0.233870
0.302123 0.783773 0.238751
0.400443 0.788735 0.243713
0.499811 0.793750 0.248728
0.599963 0.798805 0.253783
0.700742 0.803891 0.258869
0.802044 0.809003 0.263981
0.903797 0.814138 0.269116
0.136630 0.889643 0.246977
0.222869 0.893995 0.251329
0.319582 0.898876 0.256210
0.417902 0.903838 0.261172
0.517270 0.908853 0.266187
0.617422 0.913908 0.271241
0.718201 0.918994 0.276327
0.819503 0.924106 0.281440
0.921256 0.929241 0.286575
0.003845 0.003845 0.216843
0.090084 0.008197 0.221196
0.186796 0.013078 0.226077
0.285116 0.018040 0.231039
0.384484 0.023055 0.236053
0.484636 0.028109 0.241108
0.585415 0.033195 0.246194
0.686717 0.038308 0.251306
0.788470 0.043443 0.256442
0.018653 0.101475 0.231652
0.104892 0.105827 0.236004
0.201605 0.110708 0.240885
0.299925 0.115670 0.245847
0.399293 0.120685 0.250862
0.499445 0.125740 0.255916
0.600223 0.130826 0.261002
0.701526 0.135938 0.266115
0.803278 0.141073 0.271250
0.035247 0.210878 0.248246
0.121486 0.215230 0.252598
0.218199 0.220111 0.257479
0.316519 0.225073 0.262441
0.415887 0.230088 0.267456
0.516039 0.235142 0.272511
0.616818 0.240228 0.277597
0.718120 0.245341 0.282709
0.819872 0.250476 0.287844
0.052117 0.322099 0.265116
0.138356 0.326451 0.269468
0.235069 0.331332 0.274349
0.333389 0.336294 0.279311
0.432757 0.341309 0.284326
0.532909 0.346363 0.289380
0.633688 0.351449 0.294467
0.734990 0.356562 0.299579
0.836742 0.361697 0.304714
0.069167 0.434505 0.282166
0.155406 0.438857 0.286518
0.252119 0.443738 0.291399
0.350439 0.448700 0.296361
0.449807 0.453715 0.301376
0.549959 0.458769 0.306430
0.650737 0.463855 0.311516
0.752040 0.468968 0.316629
0.853792 0.474103 0.321764
0.086351 0.547797 0.299350
0.172590 0.552150 0.303702
0.269303 0.557030 0.308583
0.367623 0.561992 0.313545
0.466991 0.567007 0.318560
0.567143 0.572062 0.323614
0.667921 0.577148 0.328700
0.769224 0.582260 0.333813
0.870976 0.587395 0.338948
0.103643 0.661799 0.316642
0.189882 0.666151 0.320994
0.286594 0.671032 0.325875
0.384914 0.675994 0.330837
0.484283 0.681009 0.335852
0.584434 0.686063 0.340906
0.685213 0.691149 0.345992
0.786516 0.696262 0.351105
0.888268 0.701397 0.356240
0.121025 0.776393 0.334023
0.207264 0.780745 0.338376
0.303976 0.785626 0.343256
0.402296 0.790588 0.348218
0.501664 0.795603 0.353233
0.601816 0.800657 0.358288
0.702595 0.805743 0.363374
0.803897 0.810856 0.368486
0.905650 0.815991 0.373621
0.138483 0.891496 0.351482
0.224722 0.895848 0.355834
0.321435 0.900729 0.360715
0.419755 0.905691 0.365677
0.519123 0.910706 0.370692
0.619275 0.915760 0.375746
0.720054 0.920846 0.380833
0.821356 0.925959 0.385945
0.923108 0.931094 0.391080
0.005698 0.005698 0.321401
0.091937 0.010051 0.325754
0.188650 0.014932 0.330634
0.286970 0.019894 0.335596
0.386338 0.024908 0.340611
0.486490 0.029963 0.345666
0.587269 0.035049 0.350752
0.688571 0.040161 0.355864
0.790324 0.045297 0.360999
0.020507 0.103329 0.336210
0.106746 0.107681 0.340562
0.203459 0.112562 0.345443
0.301779 0.117524 0.350405
0.401147 0.122539 0.355420
0.501298 0.127593 0.360474
0.602077 0.132679 0.365560
0.703380 0.137792 0.370673
0.805132 0.142927 0.375808
0.037101 0.212732 0.352804
0.123340 0.217084 0.357156
0.220053 0.221965 0.362037
0.318373 0.226927 0.366999
0.417741 0.231942 0.372014
0.517893 0.236996 0.377068
0.618671 0.242082 0.382154
0.719974 0.247195 0.387267
0.821726 0.252330 0.392402
0.053971 0.323952 0.369674
0.140210 0.328305 0.374026
0.236923 0.333186 0.378907
0.335243 0.338148 0.383869
0.434611 0.343162 0.388884
0.534763 0.348217 0.393938
0.635541 0.353303 0.399024
0.736844 0.358415 0.404137
0.838596 0.363551 0.409272
0.071021 0.436359 0.386724
0.157260 0.440711 0.391076
0.253972 0.445592 0.395957
0.352292 0.450554 0.400919
0.451661 0.455569 0.405934
0.551812 0.460623 0.410988
0.652591 0.465709 0.416074
0.753894 0.470822 0.421187
0.855646 0.475957 0.426322
0.088205 0.549651 0.403908
0.174444 0.554003 0.408260
0.271156 0.558884 0.413141
0.369477 0.563846 0.418103
0.468845 0.568861 0.423118
0.568996 0.573916 0.428172
0.669775 0.579002 0.433258
0.771078 0.584114 0.438371
0.872830 0.589249 0.443506
0.105497 0.663653 0.421200
0.191736 0.668005 0.425552
0.288448 0.672886 0.430433
0.386768 0.677848 0.435395
0.486137 0.682863 0.440410
0.586288 0.687917 0.445464
0.687067 0.693003 0.450550
0.788369 0.698116 0.455663
0.890122 0.703251 0.460798
0.122878 0.778247 0.438581
0.209117 0.782599 0.442933
0.305830 0.787480 0.447814
0.404150 0.792442 0.452776
0.503518 0.797457 0.457791
0.603670 0.802511 0.462846
0.704449 0.807597 0.467932
0.805751 0.812710 0.473044
0.907503 0.817845 0.478179
0.140337 0.893350 0.456040
0.226576 0.897702 0.460392
0.323289 0.902583 0.465273
0.421609 0.907545 0.470235
0.520977 0.912560 0.475250
0.621129 0.917614 0.480304
0.721907 0.922700 0.485390
0.823210 0.927813 0.490503
0.924962 0.932948 0.495638
0.007553 0.007553 0.425987
0.093792 0.011905 0.430339
0.190504 0.016786 0.435220
0.288824 0.021748 0.440182
0.388193 0.026763 0.445197
0.488344 0.031817 0.450251
0.589123 0.036903 0.455337
0.690425 0.042016 0.460450
0.792178 0.047151 0.465585
0.022361 0.105183 0.440795
0.108600 0.109536 0.445148
0.205313 0.114416 0.450028
0.303633 0.119378 0.454990
0.403001 0.124393 0.460005
0.503153 0.129448 0.465060
0.603932 0.134534 0.470146
0.705234 0.139646 0.475258
0.806986 0.144781 0.480393
0.038955 0.214586 0.457389
0.125194 0.218938 0.461742
0.221907 0.223819 0.466623
0.320227 0.228781 0.471585
0.419595 0.233796 0.476599
0.519747 0.238850 0.481654
0.620526 0.243937 0.486740
0.721828 0.249049 0.491852
0.823581 0.254184 0.496988
0.055825 0.325807 0.474259
0.142064 0.330159 0.478612
0.238777 0.335040 0.483493
0.337097 0.340002 0.488454
0.436465 0.345017 0.493469
0.536617 0.350071 0.498524
0.637396 0.355157 0.503610
0.738698 0.360270 0.508722
0.840450 0.365405 0.513858
0.072875 0.438213 0.491309
0.159114 0.442565 0.495661
0.255827 0.447446 0.500542
0.354147 0.452408 0.505504
0.453515 0.457423 0.510519
0.553667 0.462477 0.515574
0.654445 0.467564 0.520660
0.755748 0.472676 0.525772
0.857500 0.477811 0.530907
0.090059 0.551505 0.508493
0.176298 0.555858 0.512846
0.273011 0.560739 0.517726
0.371331 0.565701 0.522688
0.470699 0.570715 0.527703
0.570851 0.575770 0.532758
0.671630 0.580856 0.537844
0.772932 0.585968 0.542956
0.874684 0.591104 0.548091
0.107351 0.665507 0.525785
0.193590 0.669859 0.530137
0.290303 0.674740 0.535018
0.388623 0.679702 0.539980
0.487991 0.684717 0.544995
0.588142 0.689771 0.550049
0.688921 0.694858 0.555135
0.790224 0.699970 0.560248
0.891976 0.705105 0.565383
0.124733 0.780101 0.543167
0.210972 0.784453 0.547519
0.307684 0.789334 0.552400
0.406004 0.794296 0.557362
0.505372 0.799311 0.562377
0.605524 0.804366 0.567431
0.706303 0.809452 0.572517
0.807605 0.814564 0.577630
0.909358 0.819699 0.582765
0.142191 0.895204 0.560625
0.228430 0.899556 0.564978
0.325143 0.904437 0.569858
0.423463 0.909399 0.574820
0.522831 0.914414 0.579835
0.622983 0.919468 0.584890
0.723762 0.924555 0.589976
0.825064 0.929667 0.595088
0.926816 0.934802 0.600224
0.009407 0.009407 0.530590
0.095646 0.013760 0.534943
0.192359 0.018640 0.539823
0.290679 0.023602 0.544785
0.390047 0.028617 0.549800
0.490199 0.033672 0.554855
0.590978 0.038758 0.559941
0.692280 0.043870 0.565053
0.794032 0.049006 0.570188
0.024216 0.107038 0.545399
0.110455 0.111390 0.549751
0.207167 0.116271 0.554632
0.305487 0.121233 0.559594
0.404856 0.126248 0.564609
0.505007 0.131302 0.569663
0.605786 0.136388 0.574749
0.707089 0.141501 0.579862
0.808841 0.146636 0.584997
0.040810 0.216441 0.561993
0.127049 0.220793 0.566345
0.223762 0.225674 0.571226
0.322082 0.230636 0.576188
0.421450 0.235651 0.581203
0.521602 0.240705 0.586257
0.622380 0.245791 0.591343
0.723683 0.250904 0.596456
0.825435 0.256039 0.601591
0.057680 0.327661 0.578863
0.143919 0.332014 0.583215
0.240632 0.336895 0.588096
0.338952 0.341857 0.593058
0.438320 0.346871 0.598073
0.538471 0.351926 0.603127
0.639250 0.357012 0.608213
0.740553 0.362124 0.613326
0.842305 0.367260 0.618461
0.074730 0.440068 0.595913
0.160969 0.444420 0.600265
0.257681 0.449301 0.605146
0.356001 0.454263 0.610108
0.455370 0.459278 0.615123
0.555521 0.464332 0.620177
0.656300 0.469418 0.625263
0.757602 0.474531 0.630376
0.859355 0.479666 0.635511
0.091914 0.553360 0.613097
0.178153 0.557712 0.617449
0.274865 0.562593 0.622330
0.373185 0.567555 0.627292
0.472554 0.572570 0.632307
0.572705 0.577624 0.637361
0.673484 0.582710 0.642447
0.774787 0.587823 0.647560
0.876539 0.592958 0.652695
0.109206 0.667362 0.630389
0.195445 0.671714 0.634741
0.292157 0.676595 0.639622
0.390477 0.681557 0.644584
0.489845 0.686572 0.649599
0.589997 0.691626 0.654653
0.690776 0.696712 0.659739
0.792078 0.701825 0.664852
0.893831 0.706960 0.669987
0.126587 0.781956 0.647770
0.212826 0.786308 0.652122
0.309539 0.791189 0.657003
0.407859 0.796151 0.661965
0.507227 0.801166 0.666980
0.607379 0.806220 0.672035
0.708157 0.811306 0.677121
0.809460 0.816419 0.682233
0.911212 0.821554 0.687368
0.144046 0.897059 0.665229
0.230285 0.901411 0.669581
0.326998 0.906292 0.674462
0.425318 0.911254 0.679424
0.524686 0.916269 0.684439
0.624837 0.921323 0.689493
0.725616 0.926409 0.694579
0.826919 0.931522 0.699692
0.928671 0.936657 0.704827
0.011262 0.011262 0.635207
0.097501 0.015614 0.639559
0.194214 0.020495 0.644440
0.292534 0.025457 0.649402
0.391902 0.030472 0.654417
0.492054 0.035527 0.659471
0.592832 0.040613 0.664558
0.694135 0.045725 0.669670
0.795887 0.050860 0.674805
0.026071 0.108893 0.650016
0.112310 0.113245 0.654368
0.209022 0.118126 0.659249
0.307342 0.123088 0.664211
0.406711 0.128103 0.669226
0.506862 0.133157 0.674280
0.607641 0.138243 0.679366
0.708943 0.143356 0.684479
0.810696 0.148491 0.689614
0.042665 0.218296 0.666610
0.128904 0.222648 0.670962
0.225616 0.227529 0.675843
0.323937 0.232491 0.680805
0.423305 0.237505 0.685820
0.523456 0.242560 0.690874
0.624235 0.247646 0.695960
0.725538 0.252758 0.701073
0.827290 0.257894 0.706208
0.059535 0.329516 0.683480
0.145774 0.333869 0.687832
0.242486 0.338749 0.692713
0.340806 0.343711 0.697675
0.440175 0.348726 0.702690
0.540326 0.353781 0.707744
0.641105 0.358867 0.712830
0.742408 0.363979 0.717943
0.844160 0.369114 0.723078
0.076585 0.441923 0.700529
0.162824 0.446275 0.704882
0.259536 0.451156 0.709763
0.357856 0.456118 0.714725
0.457224 0.461133 0.719739
0.557376 0.466187 0.724794
0.658155 0.471273 0.729880
0.759457 0.476386 0.734992
0.861210 0.481521 0.740128
0.093769 0.555215 0.717714
0.180008 0.559567 0.722066
0.276720 0.564448 0.726947
0.375040 0.569410 0.731909
0.474409 0.574425 0.736924
0.574560 0.579479 0.741978
0.675339 0.584565 0.747064
0.776641 0.589678 0.752177
0.878394 0.594813 0.757312
0.111061 0.669217 0.735005
0.197300 0.673569 0.739358
0.294012 0.678450 0.744238
0.392332 0.683412 0.749200
0.491700 0.688427 0.754215
0.591852 0.693481 0.759270
0.692631 0.698567 0.764356
0.793933 0.703680 0.769468
0.895686 0.708815 0.774604
0.128442 0.783811 0.752387
0.214681 0.788163 0.756739
0.311394 0.793044 0.761620
0.409714 0.798006 0.766582
0.509082 0.803021 0.771597
0.609234 0.808075 0.776651
0.710012 0.813161 0.781737
0.811315 0.818274 0.786850
0.913067 0.823409 0.791985
0.145901 0.898914 0.769846
0.232140 0.903266 0.774198
0.328852 0.908147 0.779079
0.427172 0.913109 0.784041
0.526541 0.918124 0.789056
0.626692 0.923178 0.794110
0.727471 0.928264 0.799196
0.828774 0.933377 0.804309
0.930526 0.938512 0.809444
0.013117 0.013117 0.739834
0.099356 0.017470 0.744186
0.196069 0.022350 0.749067
0.294389 0.027312 0.754029
0.393757 0.032327 0.759044
0.493909 0.037382 0.764099
0.594687 0.042468 0.769185
0.695990 0.047580 0.774297
0.797742 0.052715 0.779432
0.027926 0.110748 0.754643
0.114165 0.115100 0.758995
0.210877 0.119981 0.763876
0.309197 0.124943 0.768838
0.408566 0.129958 0.773853
0.508717 0.135012 0.778907
0.609496 0.140098 0.783993
0.710798 0.145211 0.789106
0.812551 0.150346 0.794241
0.044520 0.220151 0.771237
0.130759 0.224503 0.775589
0.227471 0.229384 0.780470
0.325792 0.234346 0.785432
0.425160 0.239361 0.790447
0.525311 0.244415 0.795501
0.626090 0.249501 0.800587
0.727393 0.254614 0.805700
0.829145 0.259749 0.810835
0.061390 0.331371 0.788107
0.147629 0.335724 0.792459
0.244341 0.340604 0.797340
0.342661 0.345566 0.802302
0.442030 0.350581 0.807317
0.542181 0.355636 0.812371
0.642960 0.360722 0.817457
0.744263 0.365834 0.822570
0.846015 0.370969 0.827705
0.078440 0.443778 0.805157
0.164679 0.448130 0.809509
0.261391 0.453011 0.814390
0.359711 0.457973 0.819352
0.459080 0.462988 0.824367
0.559231 0.468042 0.829421
0.660010 0.473128 0.834507
0.761312 0.478241 0.839620
0.863065 0.483376 0.844755
0.095624 0.557070 0.822341
0.181863 0.561422 0.826693
0.278575 0.566303 0.831574
0.376895 0.571265 0.836536
0.476264 0.576280 0.841551
0.576415 0.581334 0.846605
0.677194 0.586420 0.851691
0.778496 0.591533 0.856804
0.880249 0.596668 0.861939
0.112916 0.671072 0.839632
0.199155 0.675424 0.843985
0.295867 0.680305 0.848866
0.394187 0.685267 0.853828
0.493555 0.690282 0.858842
0.593707 0.695336 0.863897
0.694486 0.700422 0.868983
0.795788 0.705535 0.874095
0.897541 0.710670 0.879231
0.130297 0.785666 0.857014
0.216536 0.790018 0.861366
0.313249 0.794899 0.866247
0.411569 0.799861 0.871209
0.510937 0.804876 0.876224
0.611089 0.809930 0.881278
0.711867 0.815016 0.886365
0.813170 0.820129 0.891477
0.914922 0.825264 0.896612
0.147756 0.900769 0.874473
0.233995 0.905121 0.878825
0.330707 0.910002 0.883706
0.429027 0.914964 0.888668
0.528396 0.919979 0.893683
0.628547 0.925033 0.898737
0.729326 0.930119 0.903823
0.830629 0.935232 0.908936
0.932381 0.940367 0.914071
0.013880 0.013880 0.782872
0.100119 0.018233 0.787224
0.196832 0.023113 0.792105
0.295152 0.028075 0.797067
0.394520 0.033090 0.802082
0.494672 0.038145 0.807136
0.595451 0.043231 0.812223
0.696753 0.048343 0.817335
0.798505 0.053478 0.822470
0.028689 0.111511 0.797681
0.114928 0.115863 0.802033
0.211640 0.120744 0.806914
0.309960 0.125706 0.811876
0.409329 0.130721 0.816891
0.509480 0.135775 0.821945
0.610259 0.140861 0.827031
0.711562 0.145974 0.832144
0.813314 0.151109 0.837279
0.045283 0.220914 0.814275
0.131522 0.225266 0.818627
0.228235 0.230147 0.823508
0.326555 0.235109 0.828470
0.425923 0.240124 0.833485
0.526075 0.245178 0.838539
0.626853 0.250264 0.843625
0.728156 0.255377 0.848738
0.829908 0.260512 0.853873
0.062153 0.332134 0.831145
0.148392 0.336487 0.835497
0.245104 0.341367 0.840378
0.343425 0.346329 0.845340
0.442793 0.351344 0.850355
0.542944 0.356399 0.855409
0.643723 0.361485 0.860495
0.745026 0.366597 0.865608
0.846778 0.371733 0.870743
0.079203 0.444541 0.848194
0.165442 0.448893 0.852547
0.262154 0.453774 0.857428
0.360474 0.458736 0.862390
0.459843 0.463751 0.867404
0.559994 0.468805 0.872459
0.660773 0.473891 0.877545
0.762075 0.479004 0.882657
0.863828 0.484139 0.887793
0.096387 0.557833 0.865379
0.182626 0.562185 0.869731
0.279338 0.567066 0.874612
0.377658 0.572028 0.879574
0.477027 0.577043 0.884589
0.577178 0.582097 0.889643
0.677957 0.587183 0.894729
0.779260 0.592296 0.899842
0.881012 0.597431 0.904977
0.113679 0.671835 0.882670
0.199918 0.676187 0.887023
0.296630 0.681068 0.891904
0.394950 0.686030 0.896865
0.494318 0.691045 0.901880
0.594470 0.696099 0.906935
0.695249 0.701185 0.912021
0.796551 0.706298 0.917133
0.898304 0.711433 0.922269
0.131060 0.786429 0.900052
0.217299 0.790781 0.904404
0.314012 0.795662 0.909285
0.412332 0.800624 0.914247
0.511700 0.805639 0.919262
0.611852 0.810693 0.924316
0.712630 0.815779 0.929402
0.813933 0.820892 0.934515
0.915685 0.826027 0.939650
0.148519 0.901532 0.917511
0.234758 0.905884 0.921863
0.331470 0.910765 0.926744
0.429791 0.915727 0.931706
0.529159 0.920742 0.936721
0.629310 0.925796 0.941775
0.730089 0.930882 0.946861
0.831392 0.935995 0.951974
0.933144 0.941130 0.957109
