public/luts/iphone/lk-iphone-vintage.cube
TITLE "LK iPhone Vintage"
LUT_3D_SIZE 5
DOMAIN_MIN 0.0 0.0 0.0
DOMAIN_MAX 1.0 1.0 1.0
0.058413 0.059880 0.055828
0.247349 0.071766 0.067715
0.428912 0.083189 0.079137
0.607151 0.094403 0.090351
0.763951 0.104267 0.100216
0.098375 0.276776 0.095789
0.287311 0.288663 0.107676
0.468874 0.300085 0.119099
0.647112 0.311299 0.130312
0.803913 0.321164 0.140177
0.136794 0.485304 0.134209
0.325730 0.497191 0.146095
0.507293 0.508613 0.157518
0.685531 0.519827 0.168732
0.842332 0.529692 0.178596
0.174513 0.690028 0.171928
0.363449 0.701915 0.183814
0.545012 0.713338 0.195237
0.723250 0.724551 0.206450
0.880051 0.734416 0.216315
0.207405 0.868555 0.204820
0.396341 0.880442 0.216706
0.577904 0.891864 0.228129
0.756142 0.903078 0.239342
0.912943 0.912943 0.249207
0.062010 0.063477 0.217178
0.250946 0.075363 0.229065
0.432509 0.086786 0.240487
0.610747 0.097999 0.251701
0.767548 0.107864 0.261566
0.101971 0.280373 0.257139
0.290907 0.292259 0.269026
0.472470 0.303682 0.280448
0.650709 0.314896 0.291662
0.807509 0.324760 0.301527
0.140391 0.488901 0.295559
0.329327 0.500787 0.307445
0.510890 0.512210 0.318868
0.689128 0.523423 0.330081
0.845929 0.533288 0.339946
0.178109 0.693625 0.333277
0.367046 0.705512 0.345164
0.548609 0.716934 0.356587
0.726847 0.728148 0.367800
0.883647 0.738013 0.377665
0.211001 0.872152 0.366169
0.399938 0.884038 0.378056
0.581501 0.895461 0.389479
0.759739 0.906675 0.400692
0.916539 0.916539 0.410557
0.065557 0.067024 0.376293
0.254493 0.078910 0.388180
0.436056 0.090333 0.399602
0.614294 0.101546 0.410816
0.771095 0.111411 0.420681
0.105518 0.283920 0.416254
0.294454 0.295806 0.428141
0.476017 0.307229 0.439564
0.654256 0.318443 0.450777
0.811056 0.328307 0.460642
0.143938 0.492448 0.454674
0.332874 0.504334 0.466560
0.514437 0.515757 0.477983
0.692675 0.526970 0.489197
0.849476 0.536835 0.499061
0.181656 0.697172 0.492392
0.370593 0.709059 0.504279
0.552155 0.720481 0.515702
0.730394 0.731695 0.526915
0.887194 0.741560 0.536780
0.214548 0.875699 0.525284
0.403485 0.887585 0.537171
0.585047 0.899008 0.548594
0.763286 0.910222 0.559807
0.920086 0.920086 0.569672
0.069075 0.070541 0.534088
0.258011 0.082428 0.545974
0.439574 0.093850 0.557397
0.617812 0.105064 0.568610
0.774613 0.114929 0.578475
0.109036 0.287437 0.574049
0.297972 0.299324 0.585935
0.479535 0.310747 0.597358
0.657773 0.321960 0.608572
0.814574 0.331825 0.618436
0.147455 0.495965 0.612468
0.336391 0.507852 0.624355
0.517954 0.519274 0.635778
0.696193 0.530488 0.646991
0.852993 0.540353 0.656856
0.185174 0.700690 0.650187
0.374110 0.712576 0.662074
0.555673 0.723999 0.673496
0.733911 0.735212 0.684710
0.890712 0.745077 0.694575
0.218066 0.879216 0.683079
0.407002 0.891103 0.694966
0.588565 0.902526 0.706388
0.766803 0.913739 0.717602
0.923604 0.923604 0.727467
0.072572 0.074038 0.690969
0.261508 0.085925 0.702856
0.443071 0.097347 0.714278
0.621309 0.108561 0.725492
0.778110 0.118426 0.735357
0.112533 0.290934 0.730930
0.301469 0.302821 0.742817
0.483032 0.314244 0.754240
0.661270 0.325457 0.765453
0.818071 0.335322 0.775318
0.150952 0.499462 0.769350
0.339889 0.511349 0.781236
0.521451 0.522772 0.792659
0.699690 0.533985 0.803873
0.856490 0.543850 0.813737
0.188671 0.704187 0.807068
0.377607 0.716073 0.818955
0.559170 0.727496 0.830378
0.737408 0.738709 0.841591
0.894209 0.748574 0.851456
0.221563 0.882714 0.839961
0.410499 0.894600 0.851847
0.592062 0.906023 0.863270
0.770300 0.917236 0.874483
0.927101 0.927101 0.884348
