public/luts/iphone/lk-iphone-natural.cube
TITLE "LK iPhone Natural"
LUT_3D_SIZE 9
DOMAIN_MIN 0.0 0.0 0.0
DOMAIN_MAX 1.0 1.0 1.0
0.003178 0.000000 0.000000
0.133158 0.000000 0.000000
0.261484 0.000000 0.000000
0.389155 0.000000 0.000000
0.516401 0.000000 0.000000
0.643331 0.000000 0.000000
0.770010 0.000000 0.000000
0.896479 0.000000 0.000000
1.000000 0.000000 0.000000
0.003178 0.125000 0.000000
0.133158 0.125000 0.000000
0.261484 0.125000 0.000000
0.389155 0.125000 0.000000
0.516401 0.125000 0.000000
0.643331 0.125000 0.000000
0.770010 0.125000 0.000000
0.896479 0.125000 0.000000
1.000000 0.125000 0.000000
0.003178 0.250000 0.000000
0.133158 0.250000 0.000000
0.261484 0.250000 0.000000
0.389155 0.250000 0.000000
0.516401 0.250000 0.000000
0.643331 0.250000 0.000000
0.770010 0.250000 0.000000
0.896479 0.250000 0.000000
1.000000 0.250000 0.000000
0.003178 0.375000 0.000000
0.133158 0.375000 0.000000
0.261484 0.375000 0.000000
0.389155 0.375000 0.000000
0.516401 0.375000 0.000000
0.643331 0.375000 0.000000
0.770010 0.375000 0.000000
0.896479 0.375000 0.000000
1.000000 0.375000 0.000000
0.003178 0.500000 0.000000
0.133158 0.500000 0.000000
0.261484 0.500000 0.000000
0.389155 0.500000 0.000000
0.516401 0.500000 0.000000
0.643331 0.500000 0.000000
0.770010 0.500000 0.000000
0.896479 0.500000 0.000000
1.000000 0.500000 0.000000
0.003178 0.625000 0.000000
0.133158 0.625000 0.000000
0.261484 0.625000 0.000000
0.389155 0.625000 0.000000
0.516401 0.625000 0.000000
0.643331 0.625000 0.000000
0.770010 0.625000 0.000000
0.896479 0.625000 0.000000
1.000000 0.625000 0.000000
0.003178 0.750000 0.000000
0.133158 0.750000 0.000000
0.261484 0.750000 0.000000
0.389155 0.750000 0.000000
0.516401 0.750000 0.000000
0.643331 0.750000 0.000000
0.770010 0.750000 0.000000
0.896479 0.750000 0.000000
1.000000 0.750000 0.000000
0.003178 0.875000 0.000000
0.133158 0.875000 0.000000
0.261484 0.875000 0.000000
0.389155 0.875000 0.000000
0.516401 0.875000 0.000000
0.643331 0.875000 0.000000
0.770010 0.875000 0.000000
0.896479 0.875000 0.000000
1.000000 0.875000 0.000000
0.003178 1.000000 0.000000
0.133158 1.000000 0.000000
0.261484 1.000000 0.000000
0.389155 1.000000 0.000000
0.516401 1.000000 0.000000
0.643331 1.000000 0.000000
0.770010 1.000000 0.000000
0.896479 1.000000 0.000000
1.000000 1.000000 0.000000
0.003178 0.000000 0.112515
0.133158 0.000000 0.112515
0.261484 0.000000 0.112515
0.389155 0.000000 0.112515
0.516401 0.000000 0.112515
0.643331 0.000000 0.112515
0.770010 0.000000 0.112515
0.896479 0.000000 0.112515
1.000000 0.000000 0.112515
0.003178 0.125000 0.112515
0.133158 0.125000 0.112515
0.261484 0.125000 0.112515
0.389155 0.125000 0.112515
0.516401 0.125000 0.112515
0.643331 0.125000 0.112515
0.770010 0.125000 0.112515
0.896479 0.125000 0.112515
1.000000 0.125000 0.112515
0.003178 0.250000 0.112515
0.133158 0.250000 0.112515
0.261484 0.250000 0.112515
0.389155 0.250000 0.112515
0.516401 0.250000 0.112515
0.643331 0.250000 0.112515
0.770010 0.250000 0.112515
0.896479 0.250000 0.112515
1.000000 0.250000 0.112515
0.003178 0.375000 0.112515
0.133158 0.375000 0.112515
0.261484 0.375000 0.112515
0.389155 0.375000 0.112515
0.516401 0.375000 0.112515
0.643331 0.375000 0.112515
0.770010 0.375000 0.112515
0.896479 0.375000 0.112515
1.000000 0.375000 0.112515
0.003178 0.500000 0.112515
0.133158 0.500000 0.112515
0.261484 0.500000 0.112515
0.389155 0.500000 0.112515
0.516401 0.500000 0.112515
0.643331 0.500000 0.112515
0.770010 0.500000 0.112515
0.896479 0.500000 0.112515
1.000000 0.500000 0.112515
0.003178 0.625000 0.112515
0.133158 0.625000 0.112515
0.261484 0.625000 0.112515
0.389155 0.625000 0.112515
0.516401 0.625000 0.112515
0.643331 0.625000 0.112515
0.770010 0.625000 0.112515
0.896479 0.625000 0.112515
1.000000 0.625000 0.112515
0.003178 0.750000 0.112515
0.133158 0.750000 0.112515
0.261484 0.750000 0.112515
0.389155 0.750000 0.112515
0.516401 0.750000 0.112515
0.643331 0.750000 0.112515
0.770010 0.750000 0.112515
0.896479 0.750000 0.112515
1.000000 0.750000 0.112515
0.003178 0.875000 0.112515
0.133158 0.875000 0.112515
0.261484 0.875000 0.112515
0.389155 0.875000 0.112515
0.516401 0.875000 0.112515
0.643331 0.875000 0.112515
0.770010 0.875000 0.112515
0.896479 0.875000 0.112515
1.000000 0.875000 0.112515
0.003178 1.000000 0.112515
0.133158 1.000000 0.112515
0.261484 1.000000 0.112515
0.389155 1.000000 0.112515
0.516401 1.000000 0.112515
0.643331 1.000000 0.112515
0.770010 1.000000 0.112515
0.896479 1.000000 0.112515
1.000000 1.000000 0.112515
0.003178 0.000000 0.231587
0.133158 0.000000 0.231587
0.261484 0.000000 0.231587
0.389155 0.000000 0.231587
0.516401 0.000000 0.231587
0.643331 0.000000 0.231587
0.770010 0.000000 0.231587
0.896479 0.000000 0.231587
1.000000 0.000000 0.231587
0.003178 0.125000 0.231587
0.133158 0.125000 0.231587
0.261484 0.125000 0.231587
0.389155 0.125000 0.231587
0.516401 0.125000 0.231587
0.643331 0.125000 0.231587
0.770010 0.125000 0.231587
0.896479 0.125000 0.231587
1.000000 0.125000 0.231587
0.003178 0.250000 0.231587
0.133158 0.250000 0.231587
0.261484 0.250000 0.231587
0.389155 0.250000 0.231587
0.516401 0.250000 0.231587
0.643331 0.250000 0.231587
0.770010 0.250000 0.231587
0.896479 0.250000 0.231587
1.000000 0.250000 0.231587
0.003178 0.375000 0.231587
0.133158 0.375000 0.231587
0.261484 0.375000 0.231587
0.389155 0.375000 0.231587
0.516401 0.375000 0.231587
0.643331 0.375000 0.231587
0.770010 0.375000 0.231587
0.896479 0.375000 0.231587
1.000000 0.375000 0.231587
0.003178 0.500000 0.231587
0.133158 0.500000 0.231587
0.261484 0.500000 0.231587
0.389155 0.500000 0.231587
0.516401 0.500000 0.231587
0.643331 0.500000 0.231587
0.770010 0.500000 0.231587
0.896479 0.500000 0.231587
1.000000 0.500000 0.231587
0.003178 0.625000 0.231587
0.133158 0.625000 0.231587
0.261484 0.625000 0.231587
0.389155 0.625000 0.231587
0.516401 0.625000 0.231587
0.643331 0.625000 0.231587
0.770010 0.625000 0.231587
0.896479 0.625000 0.231587
1.000000 0.625000 0.231587
0.003178 0.750000 0.231587
0.133158 0.750000 0.231587
0.261484 0.750000 0.231587
0.389155 0.750000 0.231587
0.516401 0.750000 0.231587
0.643331 0.750000 0.231587
0.770010 0.750000 0.231587
0.896479 0.750000 0.231587
1.000000 0.750000 0.231587
0.003178 0.875000 0.231587
0.133158 0.875000 0.231587
0.261484 0.875000 0.231587
0.389155 0.875000 0.231587
0.516401 0.875000 0.231587
0.643331 0.875000 0.231587
0.770010 0.875000 0.231587
0.896479 0.875000 0.231587
1.000000 0.875000 0.231587
0.003178 1.000000 0.231587
0.133158 1.000000 0.231587
0.261484 1.000000 0.231587
0.389155 1.000000 0.231587
0.516401 1.000000 0.231587
0.643331 1.000000 0.231587
0.770010 1.000000 0.231587
0.896479 1.000000 0.231587
1.000000 1.000000 0.231587
0.003178 0.000000 0.351306
0.133158 0.000000 0.351306
0.261484 0.000000 0.351306
0.389155 0.000000 0.351306
0.516401 0.000000 0.351306
0.643331 0.000000 0.351306
0.770010 0.000000 0.351306
0.896479 0.000000 0.351306
1.000000 0.000000 0.351306
0.003178 0.125000 0.351306
0.133158 0.125000 0.351306
0.261484 0.125000 0.351306
0.389155 0.125000 0.351306
0.516401 0.125000 0.351306
0.643331 0.125000 0.351306
0.770010 0.125000 0.351306
0.896479 0.125000 0.351306
1.000000 0.125000 0.351306
0.003178 0.250000 0.351306
0.133158 0.250000 0.351306
0.261484 0.250000 0.351306
0.389155 0.250000 0.351306
0.516401 0.250000 0.351306
0.643331 0.250000 0.351306
0.770010 0.250000 0.351306
0.896479 0.250000 0.351306
1.000000 0.250000 0.351306
0.003178 0.375000 0.351306
0.133158 0.375000 0.351306
0.261484 0.375000 0.351306
0.389155 0.375000 0.351306
0.516401 0.375000 0.351306
0.643331 0.375000 0.351306
0.770010 0.375000 0.351306
0.896479 0.375000 0.351306
1.000000 0.375000 0.351306
0.003178 0.500000 0.351306
0.133158 0.500000 0.351306
0.261484 0.500000 0.351306
0.389155 0.500000 0.351306
0.516401 0.500000 0.351306
0.643331 0.500000 0.351306
0.770010 0.500000 0.351306
0.896479 0.500000 0.351306
1.000000 0.500000 0.351306
0.003178 0.625000 0.351306
0.133158 0.625000 0.351306
0.261484 0.625000 0.351306
0.389155 0.625000 0.351306
0.516401 0.625000 0.351306
0.643331 0.625000 0.351306
0.770010 0.625000 0.351306
0.896479 0.625000 0.351306
1.000000 0.625000 0.351306
0.003178 0.750000 0.351306
0.133158 0.750000 0.351306
0.261484 0.750000 0.351306
0.389155 0.750000 0.351306
0.516401 0.750000 0.351306
0.643331 0.750000 0.351306
0.770010 0.750000 0.351306
0.896479 0.750000 0.351306
1.000000 0.750000 0.351306
0.003178 0.875000 0.351306
0.133158 0.875000 0.351306
0.261484 0.875000 0.351306
0.389155 0.875000 0.351306
0.516401 0.875000 0.351306
0.643331 0.875000 0.351306
0.770010 0.875000 0.351306
0.896479 0.875000 0.351306
1.000000 0.875000 0.351306
0.003178 1.000000 0.351306
0.133158 1.000000 0.351306
0.261484 1.000000 0.351306
0.389155 1.000000 0.351306
0.516401 1.000000 0.351306
0.643331 1.000000 0.351306
0.770010 1.000000 0.351306
0.896479 1.000000 0.351306
1.000000 1.000000 0.351306
0.003178 0.000000 0.471442
0.133158 0.000000 0.471442
0.261484 0.000000 0.471442
0.389155 0.000000 0.471442
0.516401 0.000000 0.471442
0.643331 0.000000 0.471442
0.770010 0.000000 0.471442
0.896479 0.000000 0.471442
1.000000 0.000000 0.471442
0.003178 0.125000 0.471442
0.133158 0.125000 0.471442
0.261484 0.125000 0.471442
0.389155 0.125000 0.471442
0.516401 0.125000 0.471442
0.643331 0.125000 0.471442
0.770010 0.125000 0.471442
0.896479 0.125000 0.471442
1.000000 0.125000 0.471442
0.003178 0.250000 0.471442
0.133158 0.250000 0.471442
0.261484 0.250000 0.471442
0.389155 0.250000 0.471442
0.516401 0.250000 0.471442
0.643331 0.250000 0.471442
0.770010 0.250000 0.471442
0.896479 0.250000 0.471442
1.000000 0.250000 0.471442
0.003178 0.375000 0.471442
0.133158 0.375000 0.471442
0.261484 0.375000 0.471442
0.389155 0.375000 0.471442
0.516401 0.375000 0.471442
0.643331 0.375000 0.471442
0.770010 0.375000 0.471442
0.896479 0.375000 0.471442
1.000000 0.375000 0.471442
0.003178 0.500000 0.471442
0.133158 0.500000 0.471442
0.261484 0.500000 0.471442
0.389155 0.500000 0.471442
0.516401 0.500000 0.471442
0.643331 0.500000 0.471442
0.770010 0.500000 0.471442
0.896479 0.500000 0.471442
1.000000 0.500000 0.471442
0.003178 0.625000 0.471442
0.133158 0.625000 0.471442
0.261484 0.625000 0.471442
0.389155 0.625000 0.471442
0.516401 0.625000 0.471442
0.643331 0.625000 0.471442
0.770010 0.625000 0.471442
0.896479 0.625000 0.471442
1.000000 0.625000 0.471442
0.003178 0.750000 0.471442
0.133158 0.750000 0.471442
0.261484 0.750000 0.471442
0.389155 0.750000 0.471442
0.516401 0.750000 0.471442
0.643331 0.750000 0.471442
0.770010 0.750000 0.471442
0.896479 0.750000 0.471442
1.000000 0.750000 0.471442
0.003178 0.875000 0.471442
0.133158 0.875000 0.471442
0.261484 0.875000 0.471442
0.389155 0.875000 0.471442
0.516401 0.875000 0.471442
0.643331 0.875000 0.471442
0.770010 0.875000 0.471442
0.896479 0.875000 0.471442
1.000000 0.875000 0.471442
0.003178 1.000000 0.471442
0.133158 1.000000 0.471442
0.261484 1.000000 0.471442
0.389155 1.000000 0.471442
0.516401 1.000000 0.471442
0.643331 1.000000 0.471442
0.770010 1.000000 0.471442
0.896479 1.000000 0.471442
1.000000 1.000000 0.471442
0.003178 0.000000 0.591888
0.133158 0.000000 0.591888
0.261484 0.000000 0.591888
0.389155 0.000000 0.591888
0.516401 0.000000 0.591888
0.643331 0.000000 0.591888
0.770010 0.000000 0.591888
0.896479 0.000000 0.591888
1.000000 0.000000 0.591888
0.003178 0.125000 0.591888
0.133158 0.125000 0.591888
0.261484 0.125000 0.591888
0.389155 0.125000 0.591888
0.516401 0.125000 0.591888
0.643331 0.125000 0.591888
0.770010 0.125000 0.591888
0.896479 0.125000 0.591888
1.000000 0.125000 0.591888
0.003178 0.250000 0.591888
0.133158 0.250000 0.591888
0.261484 0.250000 0.591888
0.389155 0.250000 0.591888
0.516401 0.250000 0.591888
0.643331 0.250000 0.591888
0.770010 0.250000 0.591888
0.896479 0.250000 0.591888
1.000000 0.250000 0.591888
0.003178 0.375000 0.591888
0.133158 0.375000 0.591888
0.261484 0.375000 0.591888
0.389155 0.375000 0.591888
0.516401 0.375000 0.591888
0.643331 0.375000 0.591888
0.770010 0.375000 0.591888
0.896479 0.375000 0.591888
1.000000 0.375000 0.591888
0.003178 0.500000 0.591888
0.133158 0.500000 0.591888
0.261484 0.500000 0.591888
0.389155 0.500000 0.591888
0.516401 0.500000 0.591888
0.643331 0.500000 0.591888
0.770010 0.500000 0.591888
0.896479 0.500000 0.591888
1.000000 0.500000 0.591888
0.003178 0.625000 0.591888
0.133158 0.625000 0.591888
0.261484 0.625000 0.591888
0.389155 0.625000 0.591888
0.516401 0.625000 0.591888
0.643331 0.625000 0.591888
0.770010 0.625000 0.591888
0.896479 0.625000 0.591888
1.000000 0.625000 0.591888
0.003178 0.750000 0.591888
0.133158 0.750000 0.591888
0.261484 0.750000 0.591888
0.389155 0.750000 0.591888
0.516401 0.750000 0.591888
0.643331 0.750000 0.591888
0.770010 0.750000 0.591888
0.896479 0.750000 0.591888
1.000000 0.750000 0.591888
0.003178 0.875000 0.591888
0.133158 0.875000 0.591888
0.261484 0.875000 0.591888
0.389155 0.875000 0.591888
0.516401 0.875000 0.591888
0.643331 0.875000 0.591888
0.770010 0.875000 0.591888
0.896479 0.875000 0.591888
1.000000 0.875000 0.591888
0.003178 1.000000 0.591888
0.133158 1.000000 0.591888
0.261484 1.000000 0.591888
0.389155 1.000000 0.591888
0.516401 1.000000 0.591888
0.643331 1.000000 0.591888
0.770010 1.000000 0.591888
0.896479 1.000000 0.591888
1.000000 1.000000 0.591888
0.003178 0.000000 0.712581
0.133158 0.000000 0.712581
0.261484 0.000000 0.712581
0.389155 0.000000 0.712581
0.516401 0.000000 0.712581
0.643331 0.000000 0.712581
0.770010 0.000000 0.712581
0.896479 0.000000 0.712581
1.000000 0.000000 0.712581
0.003178 0.125000 0.712581
0.133158 0.125000 0.712581
0.261484 0.125000 0.712581
0.389155 0.125000 0.712581
0.516401 0.125000 0.712581
0.643331 0.125000 0.712581
0.770010 0.125000 0.712581
0.896479 0.125000 0.712581
1.000000 0.125000 0.712581
0.003178 0.250000 0.712581
0.133158 0.250000 0.712581
0.261484 0.250000 0.712581
0.389155 0.250000 0.712581
0.516401 0.250000 0.712581
0.643331 0.250000 0.712581
0.770010 0.250000 0.712581
0.896479 0.250000 0.712581
1.000000 0.250000 0.712581
0.003178 0.375000 0.712581
0.133158 0.375000 0.712581
0.261484 0.375000 0.712581
0.389155 0.375000 0.712581
0.516401 0.375000 0.712581
0.643331 0.375000 0.712581
0.770010 0.375000 0.712581
0.896479 0.375000 0.712581
1.000000 0.375000 0.712581
0.003178 0.500000 0.712581
0.133158 0.500000 0.712581
0.261484 0.500000 0.712581
0.389155 0.500000 0.712581
0.516401 0.500000 0.712581
0.643331 0.500000 0.712581
0.770010 0.500000 0.712581
0.896479 0.500000 0.712581
1.000000 0.500000 0.712581
0.003178 0.625000 0.712581
0.133158 0.625000 0.712581
0.261484 0.625000 0.712581
0.389155 0.625000 0.712581
0.516401 0.625000 0.712581
0.643331 0.625000 0.712581
0.770010 0.625000 0.712581
0.896479 0.625000 0.712581
1.000000 0.625000 0.712581
0.003178 0.750000 0.712581
0.133158 0.750000 0.712581
0.261484 0.750000 0.712581
0.389155 0.750000 0.712581
0.516401 0.750000 0.712581
0.643331 0.750000 0.712581
0.770010 0.750000 0.712581
0.896479 0.750000 0.712581
1.000000 0.750000 0.712581
0.003178 0.875000 0.712581
0.133158 0.875000 0.712581
0.261484 0.875000 0.712581
0.389155 0.875000 0.712581
0.516401 0.875000 0.712581
0.643331 0.875000 0.712581
0.770010 0.875000 0.712581
0.896479 0.875000 0.712581
1.000000 0.875000 0.712581
0.003178 1.000000 0.712581
0.133158 1.000000 0.712581
0.261484 1.000000 0.712581
0.389155 1.000000 0.712581
0.516401 1.000000 0.712581
0.643331 1.000000 0.712581
0.770010 1.000000 0.712581
0.896479 1.000000 0.712581
1.000000 1.000000 0.712581
0.003178 0.000000 0.833480
0.133158 0.000000 0.833480
0.261484 0.000000 0.833480
0.389155 0.000000 0.833480
0.516401 0.000000 0.833480
0.643331 0.000000 0.833480
0.770010 0.000000 0.833480
0.896479 0.000000 0.833480
1.000000 0.000000 0.833480
0.003178 0.125000 0.833480
0.133158 0.125000 0.833480
0.261484 0.125000 0.833480
0.389155 0.125000 0.833480
0.516401 0.125000 0.833480
0.643331 0.125000 0.833480
0.770010 0.125000 0.833480
0.896479 0.125000 0.833480
1.000000 0.125000 0.833480
0.003178 0.250000 0.833480
0.133158 0.250000 0.833480
0.261484 0.250000 0.833480
0.389155 0.250000 0.833480
0.516401 0.250000 0.833480
0.643331 0.250000 0.833480
0.770010 0.250000 0.833480
0.896479 0.250000 0.833480
1.000000 0.250000 0.833480
0.003178 0.375000 0.833480
0.133158 0.375000 0.833480
0.261484 0.375000 0.833480
0.389155 0.375000 0.833480
0.516401 0.375000 0.833480
0.643331 0.375000 0.833480
0.770010 0.375000 0.833480
0.896479 0.375000 0.833480
1.000000 0.375000 0.833480
0.003178 0.500000 0.833480
0.133158 0.500000 0.833480
0.261484 0.500000 0.833480
0.389155 0.500000 0.833480
0.516401 0.500000 0.833480
0.643331 0.500000 0.833480
0.770010 0.500000 0.833480
0.896479 0.500000 0.833480
1.000000 0.500000 0.833480
0.003178 0.625000 0.833480
0.133158 0.625000 0.833480
0.261484 0.625000 0.833480
0.389155 0.625000 0.833480
0.516401 0.625000 0.833480
0.643331 0.625000 0.833480
0.770010 0.625000 0.833480
0.896479 0.625000 0.833480
1.000000 0.625000 0.833480
0.003178 0.750000 0.833480
0.133158 0.750000 0.833480
0.261484 0.750000 0.833480
0.389155 0.750000 0.833480
0.516401 0.750000 0.833480
0.643331 0.750000 0.833480
0.770010 0.750000 0.833480
0.896479 0.750000 0.833480
1.000000 0.750000 0.833480
0.003178 0.875000 0.833480
0.133158 0.875000 0.833480
0.261484 0.875000 0.833480
0.389155 0.875000 0.833480
0.516401 0.875000 0.833480
0.643331 0.875000 0.833480
0.770010 0.875000 0.833480
0.896479 0.875000 0.833480
1.000000 0.875000 0.833480
0.003178 1.000000 0.833480
0.133158 1.000000 0.833480
0.261484 1.000000 0.833480
0.389155 1.000000 0.833480
0.516401 1.000000 0.833480
0.643331 1.000000 0.833480
0.770010 1.000000 0.833480
0.896479 1.000000 0.833480
1.000000 1.000000 0.833480
0.003178 0.000000 0.954556
0.133158 0.000000 0.954556
0.261484 0.000000 0.954556
0.389155 0.000000 0.954556
0.516401 0.000000 0.954556
0.643331 0.000000 0.954556
0.770010 0.000000 0.954556
0.896479 0.000000 0.954556
1.000000 0.000000 0.954556
0.003178 0.125000 0.954556
0.133158 0.125000 0.954556
0.261484 0.125000 0.954556
0.389155 0.125000 0.954556
0.516401 0.125000 0.954556
0.643331 0.125000 0.954556
0.770010 0.125000 0.954556
0.896479 0.125000 0.954556
1.000000 0.125000 0.954556
0.003178 0.250000 0.954556
0.133158 0.250000 0.954556
0.261484 0.250000 0.954556
0.389155 0.250000 0.954556
0.516401 0.250000 0.954556
0.643331 0.250000 0.954556
0.770010 0.250000 0.954556
0.896479 0.250000 0.954556
1.000000 0.250000 0.954556
0.003178 0.375000 0.954556
0.133158 0.375000 0.954556
0.261484 0.375000 0.954556
0.389155 0.375000 0.954556
0.516401 0.375000 0.954556
0.643331 0.375000 0.954556
0.770010 0.375000 0.954556
0.896479 0.375000 0.954556
1.000000 0.375000 0.954556
0.003178 0.500000 0.954556
0.133158 0.500000 0.954556
0.261484 0.500000 0.954556
0.389155 0.500000 0.954556
0.516401 0.500000 0.954556
0.643331 0.500000 0.954556
0.770010 0.500000 0.954556
0.896479 0.500000 0.954556
1.000000 0.500000 0.954556
0.003178 0.625000 0.954556
0.133158 0.625000 0.954556
0.261484 0.625000 0.954556
0.389155 0.625000 0.954556
0.516401 0.625000 0.954556
0.643331 0.625000 0.954556
0.770010 0.625000 0.954556
0.896479 0.625000 0.954556
1.000000 0.625000 0.954556
0.003178 0.750000 0.954556
0.133158 0.750000 0.954556
0.261484 0.750000 0.954556
0.389155 0.750000 0.954556
0.516401 0.750000 0.954556
0.643331 0.750000 0.954556
0.770010 0.750000 0.954556
0.896479 0.750000 0.954556
1.000000 0.750000 0.954556
0.003178 0.875000 0.954556
0.133158 0.875000 0.954556
0.261484 0.875000 0.954556
0.389155 0.875000 0.954556
0.516401 0.875000 0.954556
0.643331 0.875000 0.954556
0.770010 0.875000 0.954556
0.896479 0.875000 0.954556
1.000000 0.875000 0.954556
0.003178 1.000000 0.954556
0.133158 1.000000 0.954556
0.261484 1.000000 0.954556
0.389155 1.000000 0.954556
0.516401 1.000000 0.954556
0.643331 1.000000 0.954556
0.770010 1.000000 0.954556
0.896479 1.000000 0.954556
1.000000 1.000000 0.954556
