public/luts/iphone/lk-iphone-night.cube
TITLE "LK iPhone Night"
LUT_3D_SIZE 17
DOMAIN_MIN 0.0 0.0 0.0
DOMAIN_MAX 1.0 1.0 1.0
0.000000 0.000000 0.000000
0.077382 0.000000 0.000000
0.158775 0.000000 0.000000
0.235238 0.000000 0.000000
0.308769 0.000000 0.000000
0.380223 0.000000 0.000000
0.450079 0.000000 0.000000
0.518640 0.000000 0.000000
0.586117 0.000000 0.000000
0.652661 0.000000 0.000000
0.718391 0.000000 0.000000
0.783396 0.000000 0.000000
0.847752 0.000000 0.000000
0.911519 0.000000 0.000000
0.974748 0.000000 0.000000
1.000000 0.000000 0.000000
1.000000 0.000000 0.000000
0.000000 0.064125 0.000000
0.072061 0.062322 0.000000
0.153453 0.060424 0.000000
0.229917 0.058642 0.000000
0.303447 0.056928 0.000000
0.374901 0.055263 0.000000
0.444757 0.053634 0.000000
0.513319 0.052036 0.000000
0.580795 0.050463 0.000000
0.647340 0.048912 0.000000
0.713069 0.047380 0.000000
0.778075 0.045865 0.000000
0.842431 0.044365 0.000000
0.906198 0.042878 0.000000
0.969427 0.041404 0.000000
1.000000 0.039942 0.000000
1.000000 0.039450 0.000000
0.000000 0.137944 0.000000
0.065935 0.136140 0.000000
0.147327 0.134243 0.000000
0.223791 0.132461 0.000000
0.297321 0.130747 0.000000
0.368775 0.129081 0.000000
0.438631 0.127453 0.000000
0.507193 0.125855 0.000000
0.574669 0.124282 0.000000
0.641214 0.122731 0.000000
0.706943 0.121198 0.000000
0.771949 0.119683 0.000000
0.836305 0.118183 0.000000
0.900072 0.116697 0.000000
0.963301 0.115223 0.000000
1.000000 0.113761 0.000000
1.000000 0.113268 0.000000
0.000000 0.207446 0.000000
0.060167 0.205642 0.000000
0.141560 0.203745 0.000000
0.218023 0.201962 0.000000
0.291553 0.200248 0.000000
0.363008 0.198583 0.000000
0.432864 0.196955 0.000000
0.501425 0.195356 0.000000
0.568901 0.193784 0.000000
0.635446 0.192232 0.000000
0.701175 0.190700 0.000000
0.766181 0.189185 0.000000
0.830537 0.187685 0.000000
0.894304 0.186199 0.000000
0.957533 0.184725 0.000000
1.000000 0.183262 0.000000
1.000000 0.182770 0.000000
0.000000 0.274424 0.000000
0.054609 0.272620 0.000000
0.136001 0.270723 0.000000
0.212464 0.268940 0.000000
0.285995 0.267226 0.000000
0.357449 0.265561 0.000000
0.427305 0.263933 0.000000
0.495867 0.262334 0.000000
0.563343 0.260762 0.000000
0.629888 0.259210 0.000000
0.695617 0.257678 0.000000
0.760623 0.256163 0.000000
0.824979 0.254663 0.000000
0.888746 0.253177 0.000000
0.951974 0.251703 0.000000
1.000000 0.250241 0.000000
1.000000 0.249748 0.000000
0.000000 0.339626 0.000000
0.049198 0.337823 0.000000
0.130590 0.335925 0.000000
0.207053 0.334143 0.000000
0.280584 0.332429 0.000000
0.352038 0.330764 0.000000
0.421894 0.329135 0.000000
0.490456 0.327537 0.000000
0.557932 0.325964 0.000000
0.624476 0.324413 0.000000
0.690206 0.322881 0.000000
0.755212 0.321366 0.000000
0.819568 0.319866 0.000000
0.883335 0.318379 0.000000
0.946563 0.316906 0.000000
1.000000 0.315443 0.000000
1.000000 0.314951 0.000000
0.000000 0.403466 0.000000
0.043900 0.401662 0.000000
0.125292 0.399765 0.000000
0.201755 0.397983 0.000000
0.275286 0.396269 0.000000
0.346740 0.394603 0.000000
0.416596 0.392975 0.000000
0.485158 0.391377 0.000000
0.552634 0.389804 0.000000
0.619179 0.388253 0.000000
0.684908 0.386721 0.000000
0.749914 0.385205 0.000000
0.814270 0.383705 0.000000
0.878037 0.382219 0.000000
0.941265 0.380745 0.000000
1.000000 0.379283 0.000000
1.000000 0.378790 0.000000
0.000000 0.466203 0.000000
0.038693 0.464400 0.000000
0.120086 0.462502 0.000000
0.196549 0.460720 0.000000
0.270079 0.459006 0.000000
0.341534 0.457340 0.000000
0.411390 0.455712 0.000000
0.479951 0.454114 0.000000
0.547428 0.452541 0.000000
0.613972 0.450990 0.000000
0.679701 0.449458 0.000000
0.744707 0.447943 0.000000
0.809063 0.446443 0.000000
0.872830 0.444956 0.000000
0.936059 0.443482 0.000000
0.998792 0.442020 0.000000
1.000000 0.441528 0.000000
0.000000 0.528017 0.000000
0.033563 0.526214 0.000000
0.114956 0.524316 0.000000
0.191419 0.522534 0.000000
0.264950 0.520820 0.000000
0.336404 0.519155 0.000000
0.406260 0.517526 0.000000
0.474821 0.515928 0.000000
0.542298 0.514355 0.000000
0.608842 0.512804 0.000000
0.674572 0.511272 0.000000
0.739577 0.509757 0.000000
0.803933 0.508257 0.000000
0.867700 0.506770 0.000000
0.930929 0.505296 0.000000
0.993663 0.503834 0.000000
1.000000 0.503342 0.000000
0.000000 0.589039 0.000000
0.028499 0.587235 0.000000
0.109892 0.585338 0.000000
0.186355 0.583556 0.000000
0.259886 0.581842 0.000000
0.331340 0.580176 0.000000
0.401196 0.578548 0.000000
0.469757 0.576950 0.000000
0.537234 0.575377 0.000000
0.603778 0.573826 0.000000
0.669508 0.572294 0.000000
0.734513 0.570778 0.000000
0.798869 0.569278 0.000000
0.862636 0.567792 0.000000
0.925865 0.566318 0.000000
0.988599 0.564856 0.000000
1.000000 0.564363 0.000000
0.000000 0.649367 0.000000
0.023493 0.647563 0.000000
0.104885 0.645666 0.000000
0.181349 0.643884 0.000000
0.254879 0.642170 0.000000
0.326333 0.640504 0.000000
0.396190 0.638876 0.000000
0.464751 0.637278 0.000000
0.532227 0.635705 0.000000
0.598772 0.634154 0.000000
0.664501 0.632622 0.000000
0.729507 0.631107 0.000000
0.793863 0.629607 0.000000
0.857630 0.628120 0.000000
0.920859 0.626646 0.000000
0.983592 0.625184 0.000000
1.000000 0.624692 0.000000
0.000000 0.709080 0.000000
0.018537 0.707277 0.000000
0.099930 0.705379 0.000000
0.176393 0.703597 0.000000
0.249924 0.701883 0.000000
0.321378 0.700218 0.000000
0.391234 0.698589 0.000000
0.459795 0.696991 0.000000
0.527272 0.695418 0.000000
0.593816 0.693867 0.000000
0.659546 0.692335 0.000000
0.724551 0.690820 0.000000
0.788907 0.689320 0.000000
0.852674 0.687833 0.000000
0.915903 0.686359 0.000000
0.978637 0.684897 0.000000
0.999764 0.684405 0.000000
0.000000 0.768241 0.000000
0.013628 0.766437 0.000000
0.095020 0.764540 0.000000
0.171484 0.762758 0.000000
0.245014 0.761044 0.000000
0.316468 0.759378 0.000000
0.386324 0.757750 0.000000
0.454886 0.756152 0.000000
0.522362 0.754579 0.000000
0.588907 0.753028 0.000000
0.654636 0.751496 0.000000
0.719642 0.749981 0.000000
0.783998 0.748480 0.000000
0.847765 0.746994 0.000000
0.910994 0.745520 0.000000
0.973727 0.744058 0.000000
0.994854 0.743565 0.000000
0.000000 0.826901 0.000000
0.008760 0.825097 0.000000
0.090152 0.823200 0.000000
0.166616 0.821418 0.000000
0.240146 0.819704 0.000000
0.311600 0.818038 0.000000
0.381456 0.816410 0.000000
0.450018 0.814812 0.000000
0.517494 0.813239 0.000000
0.584039 0.811688 0.000000
0.649768 0.810156 0.000000
0.714774 0.808640 0.000000
0.779130 0.807140 0.000000
0.842897 0.805654 0.000000
0.906126 0.804180 0.000000
0.968859 0.802718 0.000000
0.989986 0.802225 0.000000
0.000000 0.885103 0.000000
0.003930 0.883299 0.000000
0.085322 0.881402 0.000000
0.161786 0.879620 0.000000
0.235316 0.877906 0.000000
0.306770 0.876240 0.000000
0.376626 0.874612 0.000000
0.445188 0.873014 0.000000
0.512664 0.871441 0.000000
0.579209 0.869890 0.000000
0.644938 0.868357 0.000000
0.709944 0.866842 0.000000
0.774300 0.865342 0.000000
0.838067 0.863856 0.000000
0.901295 0.862382 0.000000
0.964029 0.860920 0.000000
0.985156 0.860427 0.000000
0.000000 0.942883 0.000000
0.000000 0.941080 0.000000
0.080527 0.939183 0.000000
0.156990 0.937400 0.000000
0.230521 0.935686 0.000000
0.301975 0.934021 0.000000
0.371831 0.932392 0.000000
0.440393 0.930794 0.000000
0.507869 0.929221 0.000000
0.574414 0.927670 0.000000
0.640143 0.926138 0.000000
0.705149 0.924623 0.000000
0.769505 0.923123 0.000000
0.833272 0.921636 0.000000
0.896500 0.920163 0.000000
0.959234 0.918700 0.000000
0.980361 0.918208 0.000000
0.000000 1.000000 0.000000
0.000000 0.998470 0.000000
0.075764 0.996573 0.000000
0.152228 0.994791 0.000000
0.225758 0.993077 0.000000
0.297212 0.991411 0.000000
0.367069 0.989783 0.000000
0.435630 0.988185 0.000000
0.503106 0.986612 0.000000
0.569651 0.985061 0.000000
0.635380 0.983529 0.000000
0.700386 0.982014 0.000000
0.764742 0.980513 0.000000
0.828509 0.979027 0.000000
0.891738 0.977553 0.000000
0.954471 0.976091 0.000000
0.975598 0.975598 0.000000
0.000000 0.000000 0.082065
0.076743 0.000000 0.080262
0.158135 0.000000 0.078364
0.234598 0.000000 0.076582
0.308129 0.000000 0.074868
0.379583 0.000000 0.073203
0.449439 0.000000 0.071574
0.518001 0.000000 0.069976
0.585477 0.000000 0.068403
0.652022 0.000000 0.066852
0.717751 0.000000 0.065320
0.782757 0.000000 0.063805
0.847113 0.000000 0.062305
0.910880 0.000000 0.060818
0.974108 0.000000 0.059344
1.000000 0.000000 0.057882
1.000000 0.000000 0.057390
0.000000 0.063486 0.076744
0.071421 0.061682 0.074940
0.152814 0.059785 0.073043
0.229277 0.058002 0.071260
0.302807 0.056288 0.069547
0.374262 0.054623 0.067881
0.444118 0.052994 0.066253
0.512679 0.051396 0.064655
0.580155 0.049823 0.063082
0.646700 0.048272 0.061531
0.712429 0.046740 0.059998
0.777435 0.045225 0.058483
0.841791 0.043725 0.056983
0.905558 0.042238 0.055497
0.968787 0.040765 0.054023
1.000000 0.039302 0.052561
1.000000 0.038810 0.052068
0.000000 0.137304 0.070618
0.065295 0.135500 0.068814
0.146688 0.133603 0.066917
0.223151 0.131821 0.065134
0.296681 0.130107 0.063420
0.368136 0.128441 0.061755
0.437992 0.126813 0.060127
0.506553 0.125215 0.058528
0.574029 0.123642 0.056956
0.640574 0.122091 0.055405
0.706303 0.120559 0.053872
0.771309 0.119043 0.052357
0.835665 0.117543 0.050857
0.899432 0.116057 0.049371
0.962661 0.114583 0.047897
1.000000 0.113121 0.046435
1.000000 0.112628 0.045942
0.000000 0.206806 0.064850
0.059527 0.205002 0.063046
0.140920 0.203105 0.061149
0.217383 0.201323 0.059367
0.290913 0.199609 0.057653
0.362368 0.197943 0.055987
0.432224 0.196315 0.054359
0.500785 0.194717 0.052761
0.568262 0.193144 0.051188
0.634806 0.191593 0.049637
0.700535 0.190061 0.048105
0.765541 0.188545 0.046589
0.829897 0.187045 0.045089
0.893664 0.185559 0.043603
0.956893 0.184085 0.042129
1.000000 0.182623 0.040667
1.000000 0.182130 0.040174
0.000000 0.273784 0.059292
0.053969 0.271980 0.057488
0.135361 0.270083 0.055591
0.211825 0.268301 0.053808
0.285355 0.266587 0.052094
0.356809 0.264921 0.050429
0.426666 0.263293 0.048800
0.495227 0.261695 0.047202
0.562703 0.260122 0.045629
0.629248 0.258571 0.044078
0.694977 0.257039 0.042546
0.759983 0.255523 0.041031
0.824339 0.254023 0.039531
0.888106 0.252537 0.038044
0.951335 0.251063 0.036571
1.000000 0.249601 0.035108
1.000000 0.249108 0.034616
0.000000 0.338987 0.053881
0.048558 0.337183 0.052077
0.129950 0.335286 0.050180
0.206414 0.333503 0.048397
0.279944 0.331789 0.046683
0.351398 0.330124 0.045018
0.421254 0.328496 0.043389
0.489816 0.326897 0.041791
0.557292 0.325325 0.040218
0.623837 0.323773 0.038667
0.689566 0.322241 0.037135
0.754572 0.320726 0.035620
0.818928 0.319226 0.034120
0.882695 0.317740 0.032633
0.945924 0.316266 0.031160
1.000000 0.314803 0.029697
1.000000 0.314311 0.029205
0.000000 0.402826 0.048583
0.043260 0.401023 0.046779
0.124652 0.399125 0.044882
0.201116 0.397343 0.043099
0.274646 0.395629 0.041385
0.346100 0.393963 0.039720
0.415957 0.392335 0.038091
0.484518 0.390737 0.036493
0.551994 0.389164 0.034921
0.618539 0.387613 0.033369
0.684268 0.386081 0.031837
0.749274 0.384566 0.030322
0.813630 0.383066 0.028822
0.877397 0.381579 0.027336
0.940626 0.380105 0.025862
1.000000 0.378643 0.024399
1.000000 0.378151 0.023907
0.000000 0.465564 0.043376
0.038053 0.463760 0.041572
0.119446 0.461863 0.039675
0.195909 0.460080 0.037893
0.269440 0.458366 0.036179
0.340894 0.456701 0.034513
0.410750 0.455072 0.032885
0.479312 0.453474 0.031287
0.546788 0.451901 0.029714
0.613332 0.450350 0.028163
0.679062 0.448818 0.026631
0.744067 0.447303 0.025116
0.808423 0.445803 0.023615
0.872191 0.444316 0.022129
0.935419 0.442843 0.020655
0.998153 0.441380 0.019193
1.000000 0.440888 0.018701
0.000000 0.527378 0.038246
0.032924 0.525574 0.036443
0.114316 0.523677 0.034545
0.190779 0.521894 0.032763
0.264310 0.520180 0.031049
0.335764 0.518515 0.029384
0.405620 0.516886 0.027755
0.474182 0.515288 0.026157
0.541658 0.513715 0.024584
0.608203 0.512164 0.023033
0.673932 0.510632 0.021501
0.738938 0.509117 0.019986
0.803294 0.507617 0.018486
0.867061 0.506130 0.016999
0.930289 0.504657 0.015525
0.993023 0.503194 0.014063
1.000000 0.502702 0.013571
0.000000 0.588399 0.033182
0.027860 0.586595 0.031379
0.109252 0.584698 0.029481
0.185715 0.582916 0.027699
0.259246 0.581202 0.025985
0.330700 0.579536 0.024320
0.400556 0.577908 0.022691
0.469118 0.576310 0.021093
0.536594 0.574737 0.019520
0.603139 0.573186 0.017969
0.668868 0.571654 0.016437
0.733874 0.570138 0.014922
0.798230 0.568638 0.013422
0.861997 0.567152 0.011935
0.925225 0.565678 0.010461
0.987959 0.564216 0.008999
1.000000 0.563723 0.008507
0.000000 0.648727 0.028176
0.022853 0.646924 0.026372
0.104246 0.645026 0.024475
0.180709 0.643244 0.022693
0.254239 0.641530 0.020979
0.325694 0.639865 0.019313
0.395550 0.638236 0.017685
0.464111 0.636638 0.016087
0.531587 0.635065 0.014514
0.598132 0.633514 0.012963
0.663861 0.631982 0.011430
0.728867 0.630467 0.009915
0.793223 0.628967 0.008415
0.856990 0.627480 0.006929
0.920219 0.626007 0.005455
0.982952 0.624544 0.003993
1.000000 0.624052 0.003500
0.000000 0.708441 0.023220
0.017898 0.706637 0.021417
0.099290 0.704740 0.019519
0.175753 0.702957 0.017737
0.249284 0.701243 0.016023
0.320738 0.699578 0.014358
0.390594 0.697949 0.012729
0.459156 0.696351 0.011131
0.526632 0.694779 0.009558
0.593177 0.693227 0.008007
0.658906 0.691695 0.006475
0.723912 0.690180 0.004960
0.788268 0.688680 0.003460
0.852035 0.687194 0.001973
0.915263 0.685720 0.000499
0.977997 0.684257 0.000000
0.999124 0.683765 0.000000
0.000000 0.767601 0.018311
0.012988 0.765798 0.016507
0.094381 0.763900 0.014610
0.170844 0.762118 0.012827
0.244374 0.760404 0.011113
0.315829 0.758739 0.009448
0.385685 0.757110 0.007820
0.454246 0.755512 0.006221
0.521722 0.753939 0.004649
0.588267 0.752388 0.003098
0.653996 0.750856 0.001565
0.719002 0.749341 0.000050
0.783358 0.747841 0.000000
0.847125 0.746354 0.000000
0.910354 0.744880 0.000000
0.973087 0.743418 0.000000
0.994215 0.742926 0.000000
0.000000 0.826261 0.013443
0.008120 0.824457 0.011639
0.089513 0.822560 0.009742
0.165976 0.820778 0.007959
0.239506 0.819064 0.006245
0.310961 0.817398 0.004580
0.380817 0.815770 0.002952
0.449378 0.814172 0.001353
0.516854 0.812599 0.000000
0.583399 0.811048 0.000000
0.649128 0.809516 0.000000
0.714134 0.808001 0.000000
0.778490 0.806500 0.000000
0.842257 0.805014 0.000000
0.905486 0.803540 0.000000
0.968219 0.802078 0.000000
0.989347 0.801585 0.000000
0.000000 0.884463 0.008613
0.003290 0.882659 0.006809
0.084682 0.880762 0.004912
0.161146 0.878980 0.003129
0.234676 0.877266 0.001415
0.306131 0.875600 0.000000
0.375987 0.873972 0.000000
0.444548 0.872374 0.000000
0.512024 0.870801 0.000000
0.578569 0.869250 0.000000
0.644298 0.867718 0.000000
0.709304 0.866202 0.000000
0.773660 0.864702 0.000000
0.837427 0.863216 0.000000
0.900656 0.861742 0.000000
0.963389 0.860280 0.000000
0.984516 0.859787 0.000000
0.000000 0.942244 0.003818
0.000000 0.940440 0.002014
0.079887 0.938543 0.000117
0.156351 0.936760 0.000000
0.229881 0.935046 0.000000
0.301335 0.933381 0.000000
0.371191 0.931753 0.000000
0.439753 0.930154 0.000000
0.507229 0.928582 0.000000
0.573774 0.927030 0.000000
0.639503 0.925498 0.000000
0.704509 0.923983 0.000000
0.768865 0.922483 0.000000
0.832632 0.920997 0.000000
0.895861 0.919523 0.000000
0.958594 0.918060 0.000000
0.979721 0.917568 0.000000
0.000000 0.999634 0.000000
0.000000 0.997831 0.000000
0.075125 0.995933 0.000000
0.151588 0.994151 0.000000
0.225118 0.992437 0.000000
0.296573 0.990772 0.000000
0.366429 0.989143 0.000000
0.434990 0.987545 0.000000
0.502466 0.985972 0.000000
0.569011 0.984421 0.000000
0.634740 0.982889 0.000000
0.699746 0.981374 0.000000
0.764102 0.979874 0.000000
0.827869 0.978387 0.000000
0.891098 0.976913 0.000000
0.953831 0.975451 0.000000
0.974959 0.974959 0.000000
0.000000 0.000000 0.165194
0.076095 0.000000 0.163390
0.157487 0.000000 0.161493
0.233950 0.000000 0.159711
0.307481 0.000000 0.157997
0.378935 0.000000 0.156331
0.448791 0.000000 0.154703
0.517353 0.000000 0.153105
0.584829 0.000000 0.151532
0.651373 0.000000 0.149981
0.717103 0.000000 0.148449
0.782109 0.000000 0.146934
0.846465 0.000000 0.145434
0.910232 0.000000 0.143947
0.973460 0.000000 0.142473
1.000000 0.000000 0.141011
1.000000 0.000000 0.140519
0.000000 0.062838 0.159873
0.070773 0.061034 0.158069
0.152166 0.059137 0.156172
0.228629 0.057354 0.154389
0.302159 0.055640 0.152675
0.373614 0.053975 0.151010
0.443470 0.052346 0.149381
0.512031 0.050748 0.147783
0.579507 0.049175 0.146210
0.646052 0.047624 0.144659
0.711781 0.046092 0.143127
0.776787 0.044577 0.141612
0.841143 0.043077 0.140112
0.904910 0.041590 0.138626
0.968139 0.040117 0.137152
1.000000 0.038654 0.135689
1.000000 0.038162 0.135197
0.000000 0.136656 0.153747
0.064647 0.134852 0.151943
0.146039 0.132955 0.150046
0.222503 0.131173 0.148263
0.296033 0.129459 0.146549
0.367488 0.127793 0.144884
0.437344 0.126165 0.143255
0.505905 0.124567 0.141657
0.573381 0.122994 0.140084
0.639926 0.121443 0.138533
0.705655 0.119911 0.137001
0.770661 0.118395 0.135486
0.835017 0.116895 0.133986
0.898784 0.115409 0.132499
0.962013 0.113935 0.131026
1.000000 0.112473 0.129563
1.000000 0.111980 0.129071
0.000000 0.206158 0.147979
0.058879 0.204354 0.146175
0.140272 0.202457 0.144278
0.216735 0.200675 0.142495
0.290265 0.198961 0.140782
0.361720 0.197295 0.139116
0.431576 0.195667 0.137488
0.500137 0.194069 0.135889
0.567614 0.192496 0.134317
0.634158 0.190945 0.132766
0.699887 0.189412 0.131233
0.764893 0.187897 0.129718
0.829249 0.186397 0.128218
0.893016 0.184911 0.126732
0.956245 0.183437 0.125258
1.000000 0.181975 0.123796
1.000000 0.181482 0.123303
0.000000 0.273136 0.142420
0.053321 0.271332 0.140617
0.134713 0.269435 0.138719
0.211177 0.267653 0.136937
0.284707 0.265939 0.135223
0.356161 0.264273 0.133558
0.426017 0.262645 0.131929
0.494579 0.261047 0.130331
0.562055 0.259474 0.128758
0.628600 0.257923 0.127207
0.694329 0.256391 0.125675
0.759335 0.254875 0.124160
0.823691 0.253375 0.122660
0.887458 0.251889 0.121173
0.950687 0.250415 0.119699
1.000000 0.248953 0.118237
1.000000 0.248460 0.117745
0.000000 0.338339 0.137009
0.047910 0.336535 0.135206
0.129302 0.334638 0.133308
0.205766 0.332855 0.131526
0.279296 0.331141 0.129812
0.350750 0.329476 0.128147
0.420606 0.327847 0.126518
0.489168 0.326249 0.124920
0.556644 0.324676 0.123347
0.623189 0.323125 0.121796
0.688918 0.321593 0.120264
0.753924 0.320078 0.118749
0.818280 0.318578 0.117249
0.882047 0.317091 0.115762
0.945275 0.315618 0.114288
1.000000 0.314155 0.112826
1.000000 0.313663 0.112334
0.000000 0.402178 0.131711
0.042612 0.400374 0.129908
0.124004 0.398477 0.128010
0.200468 0.396695 0.126228
0.273998 0.394981 0.124514
0.345452 0.393315 0.122849
0.415308 0.391687 0.121220
0.483870 0.390089 0.119622
0.551346 0.388516 0.118049
0.617891 0.386965 0.116498
0.683620 0.385433 0.114966
0.748626 0.383918 0.113451
0.812982 0.382418 0.111951
0.876749 0.380931 0.110464
0.939978 0.379457 0.108991
1.000000 0.377995 0.107528
1.000000 0.377503 0.107036
0.000000 0.464915 0.126505
0.037405 0.463112 0.124701
0.118798 0.461214 0.122804
0.195261 0.459432 0.121022
0.268792 0.457718 0.119308
0.340246 0.456053 0.117642
0.410102 0.454424 0.116014
0.478663 0.452826 0.114416
0.546140 0.451253 0.112843
0.612684 0.449702 0.111292
0.678414 0.448170 0.109760
0.743419 0.446655 0.108244
0.807775 0.445155 0.106744
0.871542 0.443668 0.105258
0.934771 0.442195 0.103784
0.997505 0.440732 0.102322
1.000000 0.440240 0.101829
0.000000 0.526729 0.121375
0.032276 0.524926 0.119571
0.113668 0.523028 0.117674
0.190131 0.521246 0.115892
0.263662 0.519532 0.114178
0.335116 0.517867 0.112512
0.404972 0.516238 0.110884
0.473534 0.514640 0.109286
0.541010 0.513067 0.107713
0.607554 0.511516 0.106162
0.673284 0.509984 0.104630
0.738290 0.508469 0.103115
0.802646 0.506969 0.101615
0.866413 0.505482 0.100128
0.929641 0.504009 0.098654
0.992375 0.502546 0.097192
1.000000 0.502054 0.096700
0.000000 0.587751 0.116311
0.027212 0.585947 0.114507
0.108604 0.584050 0.112610
0.185067 0.582268 0.110828
0.258598 0.580554 0.109114
0.330052 0.578888 0.107448
0.399908 0.577260 0.105820
0.468470 0.575662 0.104222
0.535946 0.574089 0.102649
0.602490 0.572538 0.101098
0.668220 0.571006 0.099566
0.733226 0.569490 0.098051
0.797582 0.567990 0.096550
0.861349 0.566504 0.095064
0.924577 0.565030 0.093590
0.987311 0.563568 0.092128
1.000000 0.563075 0.091636
0.000000 0.648079 0.111305
0.022205 0.646276 0.109501
0.103598 0.644378 0.107604
0.180061 0.642596 0.105821
0.253591 0.640882 0.104107
0.325046 0.639217 0.102442
0.394902 0.637588 0.100814
0.463463 0.635990 0.099215
0.530939 0.634417 0.097643
0.597484 0.632866 0.096091
0.663213 0.631334 0.094559
0.728219 0.629819 0.093044
0.792575 0.628319 0.091544
0.856342 0.626832 0.090058
0.919571 0.625358 0.088584
0.982304 0.623896 0.087121
1.000000 0.623404 0.086629
0.000000 0.707793 0.106349
0.017250 0.705989 0.104545
0.098642 0.704092 0.102648
0.175105 0.702309 0.100866
0.248636 0.700595 0.099152
0.320090 0.698930 0.097486
0.389946 0.697301 0.095858
0.458508 0.695703 0.094260
0.525984 0.694130 0.092687
0.592528 0.692579 0.091136
0.658258 0.691047 0.089604
0.723264 0.689532 0.088089
0.787620 0.688032 0.086588
0.851387 0.686545 0.085102
0.914615 0.685072 0.083628
0.977349 0.683609 0.082166
0.998476 0.683117 0.081674
0.000000 0.766953 0.101440
0.012340 0.765149 0.099636
0.093732 0.763252 0.097739
0.170196 0.761470 0.095956
0.243726 0.759756 0.094242
0.315181 0.758090 0.092577
0.385037 0.756462 0.090948
0.453598 0.754864 0.089350
0.521074 0.753291 0.087777
0.587619 0.751740 0.086226
0.653348 0.750208 0.084694
0.718354 0.748693 0.083179
0.782710 0.747193 0.081679
0.846477 0.745706 0.080192
0.909706 0.744232 0.078719
0.972439 0.742770 0.077256
0.993566 0.742278 0.076764
0.000000 0.825613 0.096572
0.007472 0.823809 0.094768
0.088864 0.821912 0.092871
0.165328 0.820130 0.091088
0.238858 0.818416 0.089374
0.310312 0.816750 0.087709
0.380169 0.815122 0.086080
0.448730 0.813524 0.084482
0.516206 0.811951 0.082909
0.582751 0.810400 0.081358
0.648480 0.808868 0.079826
0.713486 0.807352 0.078311
0.777842 0.805852 0.076811
0.841609 0.804366 0.075324
0.904838 0.802892 0.073851
0.967571 0.801430 0.072388
0.988698 0.800937 0.071896
0.000000 0.883815 0.091741
0.002642 0.882011 0.089938
0.084034 0.880114 0.088041
0.160498 0.878332 0.086258
0.234028 0.876618 0.084544
0.305482 0.874952 0.082879
0.375339 0.873324 0.081250
0.443900 0.871726 0.079652
0.511376 0.870153 0.078079
0.577921 0.868602 0.076528
0.643650 0.867070 0.074996
0.708656 0.865554 0.073481
0.773012 0.864054 0.071981
0.836779 0.862568 0.070494
0.900008 0.861094 0.069021
0.962741 0.859632 0.067558
0.983868 0.859139 0.067066
0.000000 0.941596 0.086946
0.000000 0.939792 0.085143
0.079239 0.937895 0.083245
0.155703 0.936112 0.081463
0.229233 0.934398 0.079749
0.300687 0.932733 0.078084
0.370543 0.931104 0.076455
0.439105 0.929506 0.074857
0.506581 0.927934 0.073284
0.573126 0.926382 0.071733
0.638855 0.924850 0.070201
0.703861 0.923335 0.068686
0.768217 0.921835 0.067186
0.831984 0.920349 0.065699
0.895213 0.918875 0.064225
0.957946 0.917412 0.062763
0.979073 0.916920 0.062271
0.000000 0.998986 0.082184
0.000000 0.997183 0.080380
0.074477 0.995285 0.078483
0.150940 0.993503 0.076700
0.224470 0.991789 0.074986
0.295925 0.990123 0.073321
0.365781 0.988495 0.071693
0.434342 0.986897 0.070094
0.501818 0.985324 0.068522
0.568363 0.983773 0.066970
0.634092 0.982241 0.065438
0.699098 0.980726 0.063923
0.763454 0.979226 0.062423
0.827221 0.977739 0.060937
0.890450 0.976265 0.059463
0.953183 0.974803 0.058000
0.974311 0.974311 0.057508
0.000000 0.000000 0.243382
0.075485 0.000000 0.241579
0.156878 0.000000 0.239681
0.233341 0.000000 0.237899
0.306871 0.000000 0.236185
0.378326 0.000000 0.234520
0.448182 0.000000 0.232891
0.516743 0.000000 0.231293
0.584219 0.000000 0.229720
0.650764 0.000000 0.228169
0.716493 0.000000 0.226637
0.781499 0.000000 0.225122
0.845855 0.000000 0.223622
0.909622 0.000000 0.222135
0.972851 0.000000 0.220661
1.000000 0.000000 0.219199
1.000000 0.000000 0.218707
0.000000 0.062228 0.238061
