public/luts/iphone/lk-iphone-warm-film.cube
TITLE "LK iPhone Warm Film"
LUT_3D_SIZE 17
DOMAIN_MIN 0.0 0.0 0.0
DOMAIN_MAX 1.0 1.0 1.0
0.024626 0.023117 0.019198
0.090350 0.024634 0.020715
0.152528 0.026069 0.022150
0.213069 0.027466 0.023547
0.272528 0.028838 0.024919
0.331181 0.030192 0.026272
0.389191 0.031531 0.027611
0.446669 0.032857 0.028937
0.503691 0.034173 0.030253
0.560318 0.035480 0.031560
0.616593 0.036778 0.032859
0.672555 0.038070 0.034150
0.728231 0.039355 0.035435
0.783646 0.040633 0.036714
0.838822 0.041907 0.037987
0.893777 0.043175 0.039255
0.910644 0.043564 0.039645
0.029270 0.086209 0.023843
0.094995 0.087726 0.025359
0.157172 0.089160 0.026794
0.217713 0.090558 0.028191
0.277173 0.091930 0.029563
0.335825 0.093283 0.030917
0.393836 0.094622 0.032256
0.451313 0.095948 0.033582
0.508336 0.097264 0.034898
0.564962 0.098571 0.036205
0.621238 0.099870 0.037503
0.677199 0.101161 0.038795
0.732875 0.102446 0.040080
0.788291 0.103725 0.041358
0.843467 0.104998 0.042632
0.898421 0.106266 0.043900
0.915288 0.106656 0.044289
0.033766 0.147276 0.028338
0.099490 0.148793 0.029855
0.161668 0.150228 0.031290
0.222209 0.151625 0.032687
0.281668 0.152997 0.034059
0.340321 0.154351 0.035412
0.398331 0.155689 0.036751
0.455809 0.157016 0.038078
0.512832 0.158332 0.039394
0.569458 0.159638 0.040700
0.625734 0.160937 0.041999
0.681695 0.162229 0.043290
0.737371 0.163513 0.044575
0.792786 0.164792 0.045854
0.847963 0.166066 0.047127
0.902917 0.167334 0.048396
0.919784 0.167723 0.048785
0.038185 0.207311 0.032758
0.103910 0.208828 0.034274
0.166087 0.210262 0.035709
0.226628 0.211660 0.037106
0.286088 0.213032 0.038478
0.344741 0.214385 0.039832
0.402751 0.215724 0.041171
0.460228 0.217050 0.042497
0.517251 0.218366 0.043813
0.573878 0.219673 0.045120
0.630153 0.220972 0.046419
0.686114 0.222263 0.047710
0.741790 0.223548 0.048995
0.797206 0.224827 0.050274
0.852382 0.226100 0.051547
0.907336 0.227368 0.052815
0.924203 0.227758 0.053204
0.042553 0.266645 0.037126
0.108278 0.268162 0.038642
0.170455 0.269597 0.040077
0.230996 0.270994 0.041474
0.290456 0.272366 0.042847
0.349109 0.273720 0.044200
0.407119 0.275059 0.045539
0.464596 0.276385 0.046865
0.521619 0.277701 0.048181
0.578246 0.279008 0.049488
0.634521 0.280306 0.050787
0.690482 0.281598 0.052078
0.746158 0.282883 0.053363
0.801574 0.284161 0.054642
0.856750 0.285435 0.055915
0.911704 0.286703 0.057183
0.928571 0.287092 0.057572
0.046882 0.325451 0.041455
0.112607 0.326967 0.042971
0.174784 0.328402 0.044406
0.235325 0.329799 0.045803
0.294785 0.331171 0.047176
0.353438 0.332525 0.048529
0.411448 0.333864 0.049868
0.468925 0.335190 0.051194
0.525948 0.336506 0.052510
0.582575 0.337813 0.053817
0.638850 0.339111 0.055116
0.694811 0.340403 0.056407
0.750487 0.341688 0.057692
0.805903 0.342967 0.058971
0.861079 0.344240 0.060244
0.916033 0.345508 0.061512
0.932900 0.345897 0.061901
0.051180 0.383830 0.045752
0.116905 0.385347 0.047269
0.179082 0.386782 0.048704
0.239623 0.388179 0.050101
0.299083 0.389551 0.051473
0.357735 0.390905 0.052827
0.415746 0.392244 0.054166
0.473223 0.393570 0.055492
0.530246 0.394886 0.056808
0.586872 0.396193 0.058115
0.643148 0.397491 0.059413
0.699109 0.398783 0.060705
0.754785 0.400068 0.061990
0.810201 0.401346 0.063268
0.865377 0.402620 0.064542
0.920331 0.403888 0.065810
0.937198 0.404277 0.066199
0.055452 0.441855 0.050024
0.121176 0.443372 0.051541
0.183354 0.444807 0.052976
0.243895 0.446204 0.054373
0.303354 0.447576 0.055745
0.362007 0.448930 0.057098
0.420017 0.450268 0.058437
0.477495 0.451595 0.059764
0.534517 0.452911 0.061079
0.591144 0.454218 0.062386
0.647420 0.455516 0.063685
0.703381 0.456808 0.064976
0.759057 0.458092 0.066261
0.814472 0.459371 0.067540
0.869648 0.460645 0.068813
0.924603 0.461913 0.070081
0.941470 0.462302 0.070471
0.059701 0.499576 0.054273
0.125426 0.501092 0.055790
0.187603 0.502527 0.057225
0.248144 0.503924 0.058622
0.307603 0.505296 0.059994
0.366256 0.506650 0.061348
0.424266 0.507989 0.062686
0.481744 0.509315 0.064013
0.538767 0.510631 0.065329
0.595393 0.511938 0.066635
0.651669 0.513236 0.067934
0.707630 0.514528 0.069225
0.763306 0.515813 0.070510
0.818721 0.517092 0.071789
0.873898 0.518365 0.073062
0.928852 0.519633 0.074331
0.945719 0.520022 0.074720
0.063930 0.557029 0.058503
0.129655 0.558546 0.060019
0.191832 0.559981 0.061454
0.252373 0.561378 0.062851
0.311833 0.562750 0.064224
0.370486 0.564104 0.065577
0.428496 0.565442 0.066916
0.485973 0.566769 0.068242
0.542996 0.568085 0.069558
0.599623 0.569391 0.070865
0.655898 0.570690 0.072164
0.711859 0.571982 0.073455
0.767535 0.573266 0.074740
0.822951 0.574545 0.076019
0.878127 0.575819 0.077292
0.933081 0.577087 0.078560
0.949948 0.577476 0.078949
0.068142 0.614246 0.062715
0.133867 0.615763 0.064232
0.196044 0.617198 0.065666
0.256585 0.618595 0.067064
0.316045 0.619967 0.068436
0.374698 0.621321 0.069789
0.432708 0.622659 0.071128
0.490186 0.623986 0.072454
0.547208 0.625302 0.073770
0.603835 0.626608 0.075077
0.660110 0.627907 0.076376
0.716071 0.629198 0.077667
0.771747 0.630483 0.078952
0.827163 0.631762 0.080231
0.882339 0.633035 0.081504
0.937294 0.634304 0.082772
0.954160 0.634693 0.083162
0.072339 0.671250 0.066911
0.138064 0.672767 0.068428
0.200241 0.674202 0.069863
0.260782 0.675599 0.071260
0.320241 0.676971 0.072632
0.378894 0.678325 0.073986
0.436905 0.679663 0.075324
0.494382 0.680990 0.076651
0.551405 0.682306 0.077967
0.608031 0.683612 0.079273
0.664307 0.684911 0.080572
0.720268 0.686202 0.081864
0.775944 0.687487 0.083148
0.831360 0.688766 0.084427
0.886536 0.690039 0.085701
0.941490 0.691308 0.086969
0.958357 0.691697 0.087358
0.076521 0.728061 0.071093
0.142246 0.729577 0.072610
0.204423 0.731012 0.074045
0.264964 0.732409 0.075442
0.324424 0.733782 0.076814
0.383076 0.735135 0.078168
0.441087 0.736474 0.079507
0.498564 0.737800 0.080833
0.555587 0.739116 0.082149
0.612213 0.740423 0.083456
0.668489 0.741722 0.084754
0.724450 0.743013 0.086046
0.780126 0.744298 0.087331
0.835542 0.745577 0.088609
0.890718 0.746850 0.089883
0.945672 0.748118 0.091151
0.962539 0.748507 0.091540
0.080690 0.784694 0.075263
0.146415 0.786211 0.076779
0.208592 0.787646 0.078214
0.269133 0.789043 0.079611
0.328593 0.790415 0.080983
0.387246 0.791769 0.082337
0.445256 0.793107 0.083676
0.502733 0.794434 0.085002
0.559756 0.795750 0.086318
0.616383 0.797056 0.087625
0.672658 0.798355 0.088924
0.728619 0.799646 0.090215
0.784295 0.800931 0.091500
0.839711 0.802210 0.092779
0.894887 0.803483 0.094052
0.949841 0.804752 0.095320
0.966708 0.805141 0.095709
0.084847 0.841164 0.079420
0.150572 0.842681 0.080936
0.212749 0.844116 0.082371
0.273290 0.845513 0.083768
0.332750 0.846885 0.085141
0.391403 0.848239 0.086494
0.449413 0.849577 0.087833
0.506891 0.850904 0.089159
0.563913 0.852220 0.090475
0.620540 0.853527 0.091782
0.676815 0.854825 0.093081
0.732776 0.856117 0.094372
0.788452 0.857401 0.095657
0.843868 0.858680 0.096936
0.899044 0.859954 0.098209
0.953999 0.861222 0.099477
0.970865 0.861611 0.099866
0.088993 0.897483 0.083566
0.154718 0.899000 0.085082
0.216895 0.900435 0.086517
0.277436 0.901832 0.087914
0.336896 0.903204 0.089287
0.395549 0.904557 0.090640
0.453559 0.905896 0.091979
0.511037 0.907222 0.093305
0.568059 0.908538 0.094621
0.624686 0.909845 0.095928
0.680961 0.911144 0.097227
0.736922 0.912435 0.098518
0.792598 0.913720 0.099803
0.848014 0.914999 0.101082
0.903190 0.916272 0.102355
0.958145 0.917540 0.103623
0.975011 0.917930 0.104012
0.093129 0.953660 0.087701
0.158854 0.955177 0.089218
0.221031 0.956612 0.090653
0.281572 0.958009 0.092050
0.341032 0.959381 0.093422
0.399684 0.960735 0.094776
0.457695 0.962074 0.096114
0.515172 0.963400 0.097441
0.572195 0.964716 0.098757
0.628821 0.966023 0.100064
0.685097 0.967321 0.101362
0.741058 0.968613 0.102654
0.796734 0.969898 0.103938
0.852150 0.971176 0.105217
0.907326 0.972450 0.106491
0.962280 0.973718 0.107759
0.979147 0.974107 0.108148
0.024976 0.023468 0.063258
0.090701 0.024985 0.064775
0.152878 0.026420 0.066209
0.213419 0.027817 0.067607
0.272879 0.029189 0.068979
0.331532 0.030543 0.070332
0.389542 0.031881 0.071671
0.447019 0.033208 0.072997
0.504042 0.034524 0.074313
0.560669 0.035830 0.075620
0.616944 0.037129 0.076919
0.672905 0.038420 0.078210
0.728581 0.039705 0.079495
0.783997 0.040984 0.080774
0.839173 0.042257 0.082047
0.894127 0.043526 0.083315
0.910994 0.043915 0.083705
0.029621 0.086559 0.067902
0.095346 0.088076 0.069419
0.157523 0.089511 0.070854
0.218064 0.090908 0.072251
0.277523 0.092280 0.073623
0.336176 0.093634 0.074977
0.394186 0.094973 0.076315
0.451664 0.096299 0.077642
0.508687 0.097615 0.078958
0.565313 0.098922 0.080265
0.621589 0.100220 0.081563
0.677550 0.101512 0.082855
0.733226 0.102797 0.084140
0.788641 0.104075 0.085418
0.843818 0.105349 0.086692
0.898772 0.106617 0.087960
0.915639 0.107006 0.088349
0.034116 0.147627 0.072398
0.099841 0.149144 0.073915
0.162018 0.150579 0.075350
0.222559 0.151976 0.076747
0.282019 0.153348 0.078119
0.340672 0.154701 0.079472
0.398682 0.156040 0.080811
0.456159 0.157366 0.082137
0.513182 0.158682 0.083453
0.569809 0.159989 0.084760
0.626084 0.161288 0.086059
0.682045 0.162579 0.087350
0.737721 0.163864 0.088635
0.793137 0.165143 0.089914
0.848313 0.166416 0.091187
0.903268 0.167684 0.092455
0.920134 0.168074 0.092845
0.038536 0.207662 0.076817
0.104261 0.209178 0.078334
0.166438 0.210613 0.079769
0.226979 0.212010 0.081166
0.286439 0.213382 0.082538
0.345091 0.214736 0.083892
0.403102 0.216075 0.085231
0.460579 0.217401 0.086557
0.517602 0.218717 0.087873
0.574228 0.220024 0.089180
0.630504 0.221322 0.090478
0.686465 0.222614 0.091770
0.742141 0.223899 0.093055
0.797557 0.225177 0.094333
0.852733 0.226451 0.095607
0.907687 0.227719 0.096875
0.924554 0.228108 0.097264
0.042904 0.266996 0.081185
0.108629 0.268513 0.082702
0.170806 0.269948 0.084137
0.231347 0.271345 0.085534
0.290807 0.272717 0.086906
0.349459 0.274070 0.088260
0.407470 0.275409 0.089599
0.464947 0.276736 0.090925
0.521970 0.278052 0.092241
0.578596 0.279358 0.093548
0.634872 0.280657 0.094846
0.690833 0.281948 0.096138
0.746509 0.283233 0.097423
0.801925 0.284512 0.098701
0.857101 0.285785 0.099975
0.912055 0.287054 0.101243
0.928922 0.287443 0.101632
0.047233 0.325801 0.085515
0.112958 0.327318 0.087031
0.175135 0.328753 0.088466
0.235676 0.330150 0.089863
0.295136 0.331522 0.091235
0.353788 0.332876 0.092589
0.411799 0.334214 0.093928
0.469276 0.335541 0.095254
0.526299 0.336857 0.096570
0.582925 0.338163 0.097877
0.639201 0.339462 0.099175
0.695162 0.340754 0.100467
0.750838 0.342038 0.101752
0.806254 0.343317 0.103031
0.861430 0.344591 0.104304
0.916384 0.345859 0.105572
0.933251 0.346248 0.105961
0.051531 0.384181 0.089812
0.117255 0.385698 0.091329
0.179433 0.387133 0.092764
0.239974 0.388530 0.094161
0.299433 0.389902 0.095533
0.358086 0.391256 0.096887
0.416096 0.392594 0.098225
0.473574 0.393921 0.099552
0.530597 0.395237 0.100868
0.587223 0.396543 0.102174
0.643499 0.397842 0.103473
0.699460 0.399133 0.104765
0.755136 0.400418 0.106049
0.810551 0.401697 0.107328
0.865727 0.402970 0.108602
0.920682 0.404239 0.109870
0.937549 0.404628 0.110259
0.055802 0.442206 0.094084
0.121527 0.443723 0.095601
0.183704 0.445158 0.097035
0.244245 0.446555 0.098433
0.303705 0.447927 0.099805
0.362358 0.449280 0.101158
0.420368 0.450619 0.102497
0.477845 0.451945 0.103823
0.534868 0.453261 0.105139
0.591495 0.454568 0.106446
0.647770 0.455867 0.107745
0.703731 0.457158 0.109036
0.759407 0.458443 0.110321
0.814823 0.459722 0.111600
0.869999 0.460995 0.112873
0.924953 0.462263 0.114141
0.941820 0.462653 0.114531
0.060051 0.499926 0.098333
0.125776 0.501443 0.099850
0.187953 0.502878 0.101285
0.248494 0.504275 0.102682
0.307954 0.505647 0.104054
0.366607 0.507001 0.105407
0.424617 0.508339 0.106746
0.482095 0.509666 0.108073
0.539117 0.510982 0.109388
0.595744 0.512288 0.110695
0.652019 0.513587 0.111994
0.707980 0.514878 0.113285
0.763656 0.516163 0.114570
0.819072 0.517442 0.115849
0.874248 0.518715 0.117122
0.929203 0.519984 0.118390
0.946069 0.520373 0.118780
0.064281 0.557380 0.102563
0.130006 0.558897 0.104079
0.192183 0.560331 0.105514
0.252724 0.561729 0.106911
0.312184 0.563101 0.108283
0.370836 0.564454 0.109637
0.428847 0.565793 0.110976
0.486324 0.567119 0.112302
0.543347 0.568435 0.113618
0.599973 0.569742 0.114925
0.656249 0.571041 0.116223
0.712210 0.572332 0.117515
0.767886 0.573617 0.118800
0.823302 0.574896 0.120079
0.878478 0.576169 0.121352
0.933432 0.577437 0.122620
0.950299 0.577827 0.123009
0.068493 0.614597 0.106775
0.134218 0.616114 0.108291
0.196395 0.617548 0.109726
0.256936 0.618946 0.111123
0.316396 0.620318 0.112496
0.375048 0.621671 0.113849
0.433059 0.623010 0.115188
0.490536 0.624336 0.116514
0.547559 0.625652 0.117830
0.604185 0.626959 0.119137
0.660461 0.628258 0.120436
0.716422 0.629549 0.121727
0.772098 0.630834 0.123012
0.827514 0.632113 0.124291
0.882690 0.633386 0.125564
0.937644 0.634654 0.126832
0.954511 0.635044 0.127221
0.072689 0.671601 0.110971
0.138414 0.673118 0.112488
0.200592 0.674552 0.113923
0.261133 0.675950 0.115320
0.320592 0.677322 0.116692
0.379245 0.678675 0.118046
0.437255 0.680014 0.119384
0.494733 0.681340 0.120711
0.551755 0.682656 0.122027
0.608382 0.683963 0.123333
0.664657 0.685262 0.124632
0.720618 0.686553 0.125923
0.776295 0.687838 0.127208
0.831710 0.689117 0.128487
0.886886 0.690390 0.129760
0.941841 0.691658 0.131029
0.958708 0.692048 0.131418
0.076872 0.728411 0.115153
0.142596 0.729928 0.116670
0.204774 0.731363 0.118105
0.265315 0.732760 0.119502
0.324774 0.734132 0.120874
0.383427 0.735486 0.122228
0.441437 0.736824 0.123566
0.498915 0.738151 0.124893
0.555938 0.739467 0.126209
0.612564 0.740774 0.127516
0.668840 0.742072 0.128814
0.724801 0.743364 0.130106
0.780477 0.744649 0.131390
0.835892 0.745927 0.132669
0.891069 0.747201 0.133943
0.946023 0.748469 0.135211
0.962890 0.748858 0.135600
0.081041 0.785045 0.119322
0.146766 0.786562 0.120839
0.208943 0.787996 0.122274
0.269484 0.789394 0.123671
0.328944 0.790766 0.125043
0.387596 0.792119 0.126397
0.445607 0.793458 0.127736
0.503084 0.794784 0.129062
0.560107 0.796100 0.130378
0.616733 0.797407 0.131685
0.673009 0.798706 0.132983
0.728970 0.799997 0.134275
0.784646 0.801282 0.135560
0.840062 0.802561 0.136838
0.895238 0.803834 0.138112
0.950192 0.805102 0.139380
0.967059 0.805492 0.139769
0.085198 0.841515 0.123480
0.150923 0.843032 0.124996
0.213100 0.844467 0.126431
0.273641 0.845864 0.127828
0.333101 0.847236 0.129200
0.391753 0.848589 0.130554
0.449764 0.849928 0.131893
0.507241 0.851254 0.133219
0.564264 0.852570 0.134535
0.620890 0.853877 0.135842
0.677166 0.855176 0.137141
0.733127 0.856467 0.138432
0.788803 0.857752 0.139717
0.844219 0.859031 0.140996
0.899395 0.860304 0.142269
0.954349 0.861572 0.143537
0.971216 0.861962 0.143926
0.089344 0.897834 0.127626
0.155069 0.899350 0.129142
0.217246 0.900785 0.130577
0.277787 0.902182 0.131974
0.337247 0.903554 0.133346
0.395899 0.904908 0.134700
0.453910 0.906247 0.136039
0.511387 0.907573 0.137365
0.568410 0.908889 0.138681
0.625036 0.910196 0.139988
0.681312 0.911495 0.141287
0.737273 0.912786 0.142578
0.792949 0.914071 0.143863
0.848365 0.915350 0.145142
0.903541 0.916623 0.146415
0.958495 0.917891 0.147683
0.975362 0.918280 0.148072
0.093480 0.954011 0.131761
0.159204 0.955528 0.133278
0.221382 0.956963 0.134713
0.281923 0.958360 0.136110
0.341382 0.959732 0.137482
0.400035 0.961085 0.138836
0.458045 0.962424 0.140174
0.515523 0.963751 0.141501
0.572545 0.965067 0.142817
0.629172 0.966373 0.144123
0.685448 0.967672 0.145422
0.741409 0.968963 0.146714
0.797085 0.970248 0.147998
0.852500 0.971527 0.149277
0.907676 0.972800 0.150550
0.962631 0.974069 0.151819
0.979498 0.974458 0.152208
0.025373 0.023865 0.113087
0.091097 0.025381 0.114603
0.153275 0.026816 0.116038
0.213816 0.028213 0.117435
0.273275 0.029586 0.118807
0.331928 0.030939 0.120161
0.389938 0.032278 0.121500
0.447416 0.033604 0.122826
0.504439 0.034920 0.124142
0.561065 0.036227 0.125449
0.617341 0.037526 0.126747
0.673302 0.038817 0.128039
0.728978 0.040102 0.129324
0.784393 0.041381 0.130603
0.839570 0.042654 0.131876
0.894524 0.043922 0.133144
0.911391 0.044311 0.133533
0.030017 0.086956 0.117731
0.095742 0.088473 0.119248
0.157919 0.089908 0.120683
0.218460 0.091305 0.122080
0.277920 0.092677 0.123452
0.336573 0.094030 0.124806
0.394583 0.095369 0.126144
0.452060 0.096696 0.127471
0.509083 0.098011 0.128787
0.565710 0.099318 0.130093
0.621985 0.100617 0.131392
0.677946 0.101908 0.132683
0.733622 0.103193 0.133968
0.789038 0.104472 0.135247
0.844214 0.105745 0.136520
0.899168 0.107014 0.137789
0.916035 0.107403 0.138178
0.034513 0.148023 0.122227
0.100238 0.149540 0.123743
0.162415 0.150975 0.125178
0.222956 0.152372 0.126575
0.282416 0.153744 0.127948
0.341068 0.155098 0.129301
0.399079 0.156437 0.130640
0.456556 0.157763 0.131966
0.513579 0.159079 0.133282
0.570205 0.160386 0.134589
0.626481 0.161684 0.135888
0.682442 0.162976 0.137179
0.738118 0.164261 0.138464
0.793534 0.165539 0.139743
0.848710 0.166813 0.141016
0.903664 0.168081 0.142284
0.920531 0.168470 0.142673
0.038932 0.208058 0.126646
0.104657 0.209575 0.128163
0.166834 0.211010 0.129598
0.227376 0.212407 0.130995
0.286835 0.213779 0.132367
0.345488 0.215132 0.133721
0.403498 0.216471 0.135059
0.460976 0.217798 0.136386
0.517998 0.219114 0.137702
0.574625 0.220420 0.139008
0.630900 0.221719 0.140307
0.686861 0.223010 0.141599
0.742537 0.224295 0.142883
0.797953 0.225574 0.144162
0.853129 0.226847 0.145436
0.908084 0.228116 0.146704
0.924950 0.228505 0.147093
0.043300 0.267393 0.131014
0.109025 0.268909 0.132531
0.171202 0.270344 0.133966
0.231744 0.271741 0.135363
0.291203 0.273113 0.136735
0.349856 0.274467 0.138089
0.407866 0.275806 0.139427
0.465344 0.277132 0.140754
0.522366 0.278448 0.142070
0.578993 0.279755 0.143376
0.635268 0.281054 0.144675
0.691229 0.282345 0.145967
0.746905 0.283630 0.147251
0.802321 0.284909 0.148530
0.857497 0.286182 0.149804
0.912452 0.287450 0.151072
0.929318 0.287839 0.151461
0.047629 0.326198 0.135343
0.113354 0.327715 0.136860
0.175532 0.329149 0.138295
0.236073 0.330547 0.139692
0.295532 0.331919 0.141064
0.354185 0.333272 0.142418
0.412195 0.334611 0.143756
0.469673 0.335937 0.145083
0.526695 0.337253 0.146399
0.583322 0.338560 0.147705
0.639597 0.339859 0.149004
0.695558 0.341150 0.150296
0.751235 0.342435 0.151580
0.806650 0.343714 0.152859
0.861826 0.344987 0.154133
0.916781 0.346255 0.155401
0.933648 0.346645 0.155790
0.051927 0.384578 0.139641
0.117652 0.386094 0.141158
0.179829 0.387529 0.142593
0.240370 0.388926 0.143990
0.299830 0.390299 0.145362
0.358483 0.391652 0.146715
0.416493 0.392991 0.148054
0.473970 0.394317 0.149381
0.530993 0.395633 0.150696
0.587620 0.396940 0.152003
0.643895 0.398239 0.153302
0.699856 0.399530 0.154593
0.755532 0.400815 0.155878
0.810948 0.402094 0.157157
0.866124 0.403367 0.158430
0.921078 0.404635 0.159698
0.937945 0.405024 0.160088
0.056199 0.442602 0.143913
0.121924 0.444119 0.145429
0.184101 0.445554 0.146864
0.244642 0.446951 0.148261
0.304101 0.448323 0.149633
0.362754 0.449677 0.150987
0.420764 0.451016 0.152326
0.478242 0.452342 0.153652
0.535265 0.453658 0.154968
0.591891 0.454965 0.156275
0.648167 0.456263 0.157573
0.704128 0.457555 0.158865
0.759804 0.458840 0.160150
0.815220 0.460118 0.161429
0.870396 0.461392 0.162702
0.925350 0.462660 0.163970
0.942217 0.463049 0.164359
0.060448 0.500323 0.148162
0.126173 0.501839 0.149678
0.188350 0.503274 0.151113
0.248891 0.504671 0.152510
0.308351 0.506044 0.153883
0.367003 0.507397 0.155236
0.425014 0.508736 0.156575
0.482491 0.510062 0.157901
0.539514 0.511378 0.159217
0.596140 0.512685 0.160524
0.652416 0.513984 0.161823
0.708377 0.515275 0.163114
0.764053 0.516560 0.164399
0.819469 0.517839 0.165678
0.874645 0.519112 0.166951
0.929599 0.520380 0.168219
0.946466 0.520769 0.168608
0.064677 0.557776 0.152391
0.130402 0.559293 0.153908
0.192580 0.560728 0.155343
0.253121 0.562125 0.156740
0.312580 0.563497 0.158112
0.371233 0.564851 0.159466
0.429243 0.566190 0.160804
0.486721 0.567516 0.162131
0.543743 0.568832 0.163447
0.600370 0.570139 0.164754
0.656645 0.571437 0.166052
0.712606 0.572729 0.167344
0.768283 0.574014 0.168628
0.823698 0.575292 0.169907
0.878874 0.576566 0.171181
0.933829 0.577834 0.172449
0.950696 0.578223 0.172838
0.068890 0.614993 0.156603
0.134614 0.616510 0.158120
0.196792 0.617945 0.159555
0.257333 0.619342 0.160952
0.316792 0.620714 0.162324
0.375445 0.622068 0.163678
0.433455 0.623406 0.165017
0.490933 0.624733 0.166343
0.547956 0.626049 0.167659
0.604582 0.627356 0.168966
0.660858 0.628654 0.170264
0.716819 0.629946 0.171556
0.772495 0.631231 0.172841
0.827910 0.632509 0.174119
0.883086 0.633783 0.175393
0.938041 0.635051 0.176661
0.954908 0.635440 0.177050
0.073086 0.671997 0.160800
0.138811 0.673514 0.162317
0.200988 0.674949 0.163751
0.261529 0.676346 0.165149
0.320989 0.677718 0.166521
0.379641 0.679072 0.167874
0.437652 0.680410 0.169213
0.495129 0.681737 0.170539
0.552152 0.683053 0.171855
0.608778 0.684360 0.173162
0.665054 0.685658 0.174461
0.721015 0.686950 0.175752
0.776691 0.688235 0.177037
0.832107 0.689513 0.178316
0.887283 0.690787 0.179589
0.942237 0.692055 0.180857
0.959104 0.692444 0.181247
0.077268 0.728808 0.164982
0.142993 0.730325 0.166499
0.205170 0.731760 0.167934
0.265711 0.733157 0.169331
0.325171 0.734529 0.170703
0.383824 0.735882 0.172056
0.441834 0.737221 0.173395
0.499311 0.738547 0.174722
0.556334 0.739863 0.176038
0.612961 0.741170 0.177344
0.669236 0.742469 0.178643
0.725197 0.743760 0.179934
0.780873 0.745045 0.181219
0.836289 0.746324 0.182498
0.891465 0.747597 0.183771
0.946419 0.748865 0.185040
0.963286 0.749255 0.185429
0.081437 0.785441 0.169151
0.147162 0.786958 0.170668
0.209339 0.788393 0.172103
0.269880 0.789790 0.173500
0.329340 0.791162 0.174872
0.387993 0.792516 0.176226
0.446003 0.793854 0.177564
0.503481 0.795181 0.178891
0.560503 0.796497 0.180207
0.617130 0.797804 0.181513
0.673405 0.799102 0.182812
0.729366 0.800394 0.184104
0.785042 0.801679 0.185388
0.840458 0.802957 0.186667
0.895634 0.804231 0.187941
0.950589 0.805499 0.189209
0.967455 0.805888 0.189598
0.085595 0.841912 0.173308
0.151319 0.843428 0.174825
0.213497 0.844863 0.176260
0.274038 0.846260 0.177657
0.333497 0.847632 0.179029
0.392150 0.848986 0.180383
0.450160 0.850325 0.181721
0.507638 0.851651 0.183048
0.564660 0.852967 0.184364
0.621287 0.854274 0.185671
0.677563 0.855572 0.186969
0.733524 0.856864 0.188261
0.789200 0.858149 0.189546
0.844615 0.859427 0.190824
0.899791 0.860701 0.192098
0.954746 0.861969 0.193366
0.971613 0.862358 0.193755
0.089741 0.898230 0.177454
0.155465 0.899747 0.178971
0.217643 0.901182 0.180406
0.278184 0.902579 0.181803
0.337643 0.903951 0.183175
0.396296 0.905305 0.184529
0.454306 0.906643 0.185867
0.511784 0.907970 0.187194
0.568806 0.909286 0.188510
0.625433 0.910592 0.189817
0.681709 0.911891 0.191115
0.737670 0.913182 0.192407
0.793346 0.914467 0.193692
0.848761 0.915746 0.194970
0.903937 0.917019 0.196244
0.958892 0.918288 0.197512
0.975759 0.918677 0.197901
0.093876 0.954408 0.181590
0.159601 0.955924 0.183107
0.221778 0.957359 0.184542
0.282319 0.958756 0.185939
0.341779 0.960128 0.187311
0.400431 0.961482 0.188664
0.458442 0.962821 0.190003
0.515919 0.964147 0.191329
0.572942 0.965463 0.192645
0.629568 0.966770 0.193952
0.685844 0.968069 0.195251
0.741805 0.969360 0.196542
0.797481 0.970645 0.197827
0.852897 0.971924 0.199106
0.908073 0.973197 0.200379
0.963027 0.974465 0.201647
0.979894 0.974854 0.202037
0.025769 0.024261 0.162844
0.091493 0.025777 0.164361
0.153671 0.027212 0.165796
0.214212 0.028609 0.167193
0.273671 0.029982 0.168565
0.332324 0.031335 0.169919
0.390334 0.032674 0.171257
0.447812 0.034000 0.172584
0.504835 0.035316 0.173900
0.561461 0.036623 0.175206
0.617737 0.037922 0.176505
0.673698 0.039213 0.177797
0.729374 0.040498 0.179081
0.784789 0.041777 0.180360
0.839966 0.043050 0.181634
0.894920 0.044318 0.182902
0.911787 0.044707 0.183291
0.030413 0.087352 0.167489
