public/luts/iphone/lk-iphone-moody.cube
TITLE "LK iPhone Moody"
LUT_3D_SIZE 9
DOMAIN_MIN 0.0 0.0 0.0
DOMAIN_MAX 1.0 1.0 1.0
0.000000 0.000000 0.000000
0.067490 0.002078 0.002078
0.163828 0.005044 0.005044
0.263810 0.008123 0.008123
0.366124 0.011273 0.011273
0.470173 0.014476 0.014476
0.575610 0.017723 0.017723
0.682209 0.021005 0.021005
0.789806 0.024318 0.024318
0.006990 0.072402 0.006990
0.074480 0.074480 0.009068
0.170818 0.077446 0.012035
0.270800 0.080525 0.015113
0.373114 0.083675 0.018263
0.477163 0.086879 0.021467
0.582601 0.090125 0.024713
0.689199 0.093407 0.027995
0.796796 0.096720 0.031308
0.016969 0.175753 0.016969
0.084459 0.177831 0.019047
0.180797 0.180797 0.022013
0.280779 0.183875 0.025092
0.383093 0.187026 0.028242
0.487142 0.190229 0.031446
0.592579 0.193476 0.034692
0.699178 0.196758 0.037974
0.806775 0.200071 0.041287
0.027325 0.283012 0.027325
0.094815 0.285090 0.029403
0.191153 0.288057 0.032369
0.291135 0.291135 0.035448
0.393449 0.294285 0.038598
0.497498 0.297489 0.041802
0.602935 0.300735 0.045048
0.709534 0.304017 0.048330
0.817131 0.307330 0.051643
0.037923 0.392774 0.037923
0.105412 0.394852 0.040001
0.201750 0.397818 0.042967
0.301733 0.400896 0.046045
0.404046 0.404046 0.049195
0.508095 0.407250 0.052399
0.613533 0.410496 0.055645
0.720131 0.413779 0.058928
0.827728 0.417091 0.062240
0.048700 0.504396 0.048700
0.116190 0.506474 0.050778
0.212528 0.509440 0.053744
0.312510 0.512519 0.056822
0.414824 0.515669 0.059973
0.518873 0.518873 0.063176
0.624310 0.522119 0.066423
0.730908 0.525401 0.069705
0.838506 0.528714 0.073018
0.059621 0.617508 0.059621
0.127111 0.619586 0.061699
0.223449 0.622553 0.064665
0.323431 0.625631 0.067743
0.425745 0.628781 0.070894
0.529794 0.631985 0.074097
0.635231 0.635231 0.077344
0.741830 0.638513 0.080626
0.849427 0.641826 0.083939
0.070662 0.731866 0.070662
0.138152 0.733944 0.072740
0.234490 0.736910 0.075706
0.334472 0.739988 0.078785
0.436786 0.743139 0.081935
0.540835 0.746342 0.085139
0.646273 0.749589 0.088385
0.752871 0.752871 0.091667
0.860468 0.756184 0.094980
0.081807 0.847295 0.081807
0.149297 0.849373 0.083885
0.245635 0.852339 0.086851
0.345617 0.855417 0.089930
0.447931 0.858568 0.093080
0.551980 0.861771 0.096283
0.657417 0.865018 0.099530
0.764016 0.868300 0.102812
0.871613 0.871613 0.106125
0.000914 0.000914 0.085606
0.068403 0.002992 0.087684
0.164742 0.005958 0.090651
0.264724 0.009036 0.093729
0.367038 0.012187 0.096879
0.471086 0.015390 0.100083
0.576524 0.018637 0.103329
0.683122 0.021919 0.106611
0.790720 0.025232 0.109924
0.007904 0.073316 0.092597
0.075394 0.075394 0.094675
0.171732 0.078360 0.097641
0.271714 0.081439 0.100720
0.374028 0.084589 0.103870
0.478077 0.087792 0.107073
0.583515 0.091039 0.110320
0.690113 0.094321 0.113602
0.797710 0.097634 0.116915
0.017883 0.176666 0.102575
0.085373 0.178744 0.104653
0.181711 0.181711 0.107620
0.281693 0.184789 0.110698
0.384007 0.187939 0.113848
0.488056 0.191143 0.117052
0.593493 0.194389 0.120298
0.700091 0.197671 0.123580
0.807689 0.200984 0.126893
0.028239 0.283926 0.112931
0.095729 0.286004 0.115009
0.192067 0.288970 0.117976
0.292049 0.292049 0.121054
0.394363 0.295199 0.124204
0.498412 0.298403 0.127408
0.603849 0.301649 0.130654
0.710447 0.304931 0.133936
0.818045 0.308244 0.137249
0.038836 0.393687 0.123529
0.106326 0.395765 0.125607
0.202664 0.398731 0.128573
0.302646 0.401810 0.131652
0.404960 0.404960 0.134802
0.509009 0.408164 0.138005
0.614447 0.411410 0.141252
0.721045 0.414692 0.144534
0.828642 0.418005 0.147847
0.049613 0.505310 0.134306
0.117103 0.507388 0.136384
0.213441 0.510354 0.139350
0.313424 0.513432 0.142429
0.415737 0.516583 0.145579
0.519786 0.519786 0.148783
0.625224 0.523033 0.152029
0.731822 0.526315 0.155311
0.839419 0.529628 0.158624
0.060535 0.618422 0.145227
0.128024 0.620500 0.147305
0.224362 0.623466 0.150271
0.324345 0.626545 0.153350
0.426658 0.629695 0.156500
0.530707 0.632899 0.159704
0.636145 0.636145 0.162950
0.742743 0.639427 0.166232
0.850340 0.642740 0.169545
0.071576 0.732780 0.156269
0.139066 0.734857 0.158347
0.235404 0.737824 0.161313
0.335386 0.740902 0.164391
0.437700 0.744052 0.167541
0.541749 0.747256 0.170745
0.647186 0.750502 0.173991
0.753785 0.753785 0.177274
0.861382 0.757097 0.180586
0.082721 0.848209 0.167413
0.150210 0.850287 0.169491
0.246548 0.853253 0.172458
0.346531 0.856331 0.175536
0.448844 0.859481 0.178686
0.552893 0.862685 0.181890
0.658331 0.865931 0.185136
0.764929 0.869214 0.188418
0.872526 0.872526 0.191731
0.002030 0.002030 0.190177
0.069520 0.004108 0.192254
0.165858 0.007074 0.195221
0.265840 0.010152 0.198299
0.368154 0.013303 0.201449
0.472203 0.016506 0.204653
0.577640 0.019753 0.207899
0.684238 0.023035 0.211182
0.791836 0.026348 0.214494
0.009020 0.074432 0.197167
0.076510 0.076510 0.199245
0.172848 0.079476 0.202211
0.272830 0.082555 0.205290
0.375144 0.085705 0.208440
0.479193 0.088909 0.211643
0.584631 0.092155 0.214890
0.691229 0.095437 0.218172
0.798826 0.098750 0.221485
0.018999 0.177783 0.207146
0.086489 0.179860 0.209224
0.182827 0.182827 0.212190
0.282809 0.185905 0.215268
0.385123 0.189055 0.218418
0.489172 0.192259 0.221622
0.594609 0.195505 0.224868
0.701208 0.198787 0.228151
0.808805 0.202100 0.231463
0.029355 0.285042 0.217502
0.096845 0.287120 0.219580
0.193183 0.290086 0.222546
0.293165 0.293165 0.225624
0.395479 0.296315 0.228774
0.499528 0.299519 0.231978
0.604965 0.302765 0.235224
0.711564 0.306047 0.238507
0.819161 0.309360 0.241819
0.039952 0.394803 0.228099
0.107442 0.396881 0.230177
0.203780 0.399848 0.233143
0.303762 0.402926 0.236222
0.406076 0.406076 0.239372
0.510125 0.409280 0.242576
0.615563 0.412526 0.245822
0.722161 0.415808 0.249104
0.829758 0.419121 0.252417
0.050730 0.506426 0.238876
0.118219 0.508504 0.240954
0.214557 0.511470 0.243921
0.314540 0.514549 0.246999
0.416853 0.517699 0.250149
0.520902 0.520902 0.253353
0.626340 0.524149 0.256599
0.732938 0.527431 0.259881
0.840535 0.530744 0.263194
0.061651 0.619538 0.249797
0.129140 0.621616 0.251875
0.225479 0.624582 0.254842
0.325461 0.627661 0.257920
0.427774 0.630811 0.261070
0.531823 0.634015 0.264274
0.637261 0.637261 0.267520
0.743859 0.640543 0.270802
0.851456 0.643856 0.274115
0.072692 0.733896 0.260839
0.140182 0.735974 0.262917
0.236520 0.738940 0.265883
0.336502 0.742018 0.268961
0.438816 0.745168 0.272112
0.542865 0.748372 0.275315
0.648302 0.751618 0.278562
0.754901 0.754901 0.281844
0.862498 0.758214 0.285157
0.083837 0.849325 0.271983
0.151326 0.851403 0.274061
0.247665 0.854369 0.277028
0.347647 0.857447 0.280106
0.449961 0.860597 0.283256
0.554009 0.863801 0.286460
0.659447 0.867048 0.289706
0.766045 0.870330 0.292988
0.873643 0.873643 0.296301
0.003174 0.003174 0.297329
0.070663 0.005251 0.299407
0.167001 0.008218 0.302374
0.266984 0.011296 0.305452
0.369297 0.014446 0.308602
0.473346 0.017650 0.311806
0.578784 0.020896 0.315052
0.685382 0.024178 0.318334
0.792979 0.027491 0.321647
0.010164 0.075576 0.304320
0.077654 0.077654 0.306398
0.173992 0.080620 0.309364
0.273974 0.083698 0.312443
0.376288 0.086849 0.315593
0.480337 0.090052 0.318796
0.585774 0.093299 0.322043
0.692373 0.096581 0.325325
0.799970 0.099894 0.328638
0.020143 0.178926 0.314298
0.087632 0.181004 0.316376
0.183970 0.183970 0.319343
0.283953 0.187049 0.322421
0.386266 0.190199 0.325571
0.490315 0.193403 0.328775
0.595753 0.196649 0.332021
0.702351 0.199931 0.335303
0.809948 0.203244 0.338616
0.030499 0.286186 0.324654
0.097988 0.288264 0.326732
0.194326 0.291230 0.329699
0.294309 0.294309 0.332777
0.396622 0.297459 0.335927
0.500671 0.300662 0.339131
0.606109 0.303909 0.342377
0.712707 0.307191 0.345659
0.820304 0.310504 0.348972
0.041096 0.395947 0.335252
0.108586 0.398025 0.337330
0.204924 0.400991 0.340296
0.304906 0.404070 0.343375
0.407220 0.407220 0.346525
0.511269 0.410423 0.349728
0.616706 0.413670 0.352975
0.723305 0.416952 0.356257
0.830902 0.420265 0.359570
0.051873 0.507570 0.346029
0.119363 0.509648 0.348107
0.215701 0.512614 0.351073
0.315683 0.515692 0.354152
0.417997 0.518842 0.357302
0.522046 0.522046 0.360506
0.627484 0.525292 0.363752
0.734082 0.528575 0.367034
0.841679 0.531887 0.370347
0.062794 0.620682 0.356950
0.130284 0.622760 0.359028
0.226622 0.625726 0.361995
0.326604 0.628804 0.365073
0.428918 0.631955 0.368223
0.532967 0.635158 0.371427
0.638405 0.638405 0.374673
0.745003 0.641687 0.377955
0.852600 0.645000 0.381268
0.073836 0.735039 0.367992
0.141325 0.737117 0.370070
0.237664 0.740084 0.373036
0.337646 0.743162 0.376114
0.439959 0.746312 0.379264
0.544008 0.749516 0.382468
0.649446 0.752762 0.385714
0.756044 0.756044 0.388997
0.863641 0.759357 0.392309
0.084980 0.850468 0.379136
0.152470 0.852546 0.381214
0.248808 0.855513 0.384181
0.348790 0.858591 0.387259
0.451104 0.861741 0.390409
0.555153 0.864945 0.393613
0.660591 0.868191 0.396859
0.767189 0.871473 0.400141
0.874786 0.874786 0.403454
0.004335 0.004335 0.406132
0.071825 0.006413 0.408210
0.168163 0.009379 0.411176
0.268145 0.012457 0.414254
0.370459 0.015608 0.417405
0.474508 0.018811 0.420608
0.579945 0.022058 0.423855
0.686543 0.025340 0.427137
0.794141 0.028653 0.430450
0.011325 0.076737 0.413122
0.078815 0.078815 0.415200
0.175153 0.081781 0.418166
0.275135 0.084860 0.421245
0.377449 0.088010 0.424395
0.481498 0.091214 0.427599
0.586936 0.094460 0.430845
0.693534 0.097742 0.434127
0.801131 0.101055 0.437440
0.021304 0.180087 0.423101
0.088794 0.182165 0.425179
0.185132 0.185132 0.428145
0.285114 0.188210 0.431223
0.387428 0.191360 0.434374
0.491477 0.194564 0.437577
0.596914 0.197810 0.440824
0.703512 0.201092 0.444106
0.811110 0.204405 0.447419
0.031660 0.287347 0.433457
0.099150 0.289425 0.435535
0.195488 0.292391 0.438501
0.295470 0.295470 0.441579
0.397784 0.298620 0.444730
0.501833 0.301824 0.447933
0.607270 0.305070 0.451180
0.713868 0.308352 0.454462
0.821466 0.311665 0.457775
0.042257 0.397108 0.444054
0.109747 0.399186 0.446132
0.206085 0.402153 0.449099
0.306067 0.405231 0.452177
0.408381 0.408381 0.455327
0.512430 0.411585 0.458531
0.617868 0.414831 0.461777
0.724466 0.418113 0.465059
0.832063 0.421426 0.468372
0.053035 0.508731 0.454832
0.120524 0.510809 0.456910
0.216862 0.513775 0.459876
0.316845 0.516853 0.462954
0.419158 0.520004 0.466104
0.523207 0.523207 0.469308
0.628645 0.526454 0.472554
0.735243 0.529736 0.475837
0.842840 0.533049 0.479149
0.063956 0.621843 0.465753
0.131445 0.623921 0.467831
0.227783 0.626887 0.470797
0.327766 0.629966 0.473875
0.430079 0.633116 0.477025
0.534128 0.636320 0.480229
0.639566 0.639566 0.483475
0.746164 0.642848 0.486758
0.853761 0.646161 0.490071
0.074997 0.736201 0.476794
0.142487 0.738279 0.478872
0.238825 0.741245 0.481838
0.338807 0.744323 0.484917
0.441121 0.747473 0.488067
0.545170 0.750677 0.491270
0.650607 0.753923 0.494517
0.757206 0.757206 0.497799
0.864803 0.760518 0.501112
0.086142 0.851630 0.487939
0.153631 0.853708 0.490017
0.249970 0.856674 0.492983
0.349952 0.859752 0.496061
0.452265 0.862902 0.499212
0.556314 0.866106 0.502415
0.661752 0.869352 0.505662
0.768350 0.872635 0.508944
0.875947 0.875947 0.512257
0.005509 0.005509 0.516157
0.072999 0.007587 0.518235
0.169337 0.010553 0.521201
0.269319 0.013632 0.524279
0.371633 0.016782 0.527430
0.475682 0.019986 0.530633
0.581119 0.023232 0.533880
0.687718 0.026514 0.537162
0.795315 0.029827 0.540475
0.012500 0.077911 0.523147
0.079989 0.079989 0.525225
0.176327 0.082956 0.528191
0.276310 0.086034 0.531270
0.378623 0.089184 0.534420
0.482672 0.092388 0.537624
0.588110 0.095634 0.540870
0.694708 0.098916 0.544152
0.802305 0.102229 0.547465
0.022478 0.181262 0.533126
0.089968 0.183340 0.535204
0.186306 0.186306 0.538170
0.286288 0.189384 0.541248
0.388602 0.192535 0.544399
0.492651 0.195738 0.547602
0.598089 0.198985 0.550849
0.704687 0.202267 0.554131
0.812284 0.205580 0.557444
0.032834 0.288522 0.543482
0.100324 0.290600 0.545560
0.196662 0.293566 0.548526
0.296644 0.296644 0.551604
0.398958 0.299794 0.554755
0.503007 0.302998 0.557958
0.608445 0.306244 0.561205
0.715043 0.309527 0.564487
0.822640 0.312839 0.567800
0.043432 0.398283 0.554079
0.110921 0.400361 0.556157
0.207260 0.403327 0.559123
0.307242 0.406405 0.562202
0.409555 0.409555 0.565352
0.513604 0.412759 0.568556
0.619042 0.416006 0.571802
0.725640 0.419288 0.575084
0.833237 0.422601 0.578397
0.054209 0.509905 0.564856
0.121699 0.511983 0.566934
0.218037 0.514949 0.569901
0.318019 0.518028 0.572979
0.420333 0.521178 0.576129
0.524382 0.524382 0.579333
0.629819 0.527628 0.582579
0.736418 0.530910 0.585861
0.844015 0.534223 0.589174
0.065130 0.623017 0.575778
0.132620 0.625095 0.577856
0.228958 0.628062 0.580822
0.328940 0.631140 0.583900
0.431254 0.634290 0.587050
0.535303 0.637494 0.590254
0.640740 0.640740 0.593500
0.747339 0.644022 0.596783
0.854936 0.647335 0.600095
0.076171 0.737375 0.586819
0.143661 0.739453 0.588897
0.239999 0.742419 0.591863
0.339981 0.745498 0.594941
0.442295 0.748648 0.598092
0.546344 0.751851 0.601295
0.651782 0.755098 0.604542
0.758380 0.758380 0.607824
0.865977 0.761693 0.611137
0.087316 0.852804 0.597964
0.154806 0.854882 0.600042
0.251144 0.857848 0.603008
0.351126 0.860927 0.606086
0.453440 0.864077 0.609236
0.557489 0.867280 0.612440
0.662926 0.870527 0.615686
0.769525 0.873809 0.618969
0.877122 0.877122 0.622281
0.006694 0.006694 0.627156
0.074184 0.008772 0.629234
0.170522 0.011738 0.632201
0.270504 0.014816 0.635279
0.372818 0.017967 0.638429
0.476867 0.021170 0.641633
0.582304 0.024417 0.644879
0.688903 0.027699 0.648161
0.796500 0.031012 0.651474
0.013684 0.079096 0.634147
0.081174 0.081174 0.636225
0.177512 0.084140 0.639191
0.277494 0.087219 0.642269
0.379808 0.090369 0.645420
0.483857 0.093573 0.648623
0.589295 0.096819 0.651870
0.695893 0.100101 0.655152
0.803490 0.103414 0.658465
0.023663 0.182447 0.644125
0.091153 0.184525 0.646203
0.187491 0.187491 0.649170
0.287473 0.190569 0.652248
0.389787 0.193719 0.655398
0.493836 0.196923 0.658602
0.599273 0.200169 0.661848
0.705872 0.203452 0.665130
0.813469 0.206764 0.668443
0.034019 0.289706 0.654481
0.101509 0.291784 0.656559
0.197847 0.294750 0.659526
0.297829 0.297829 0.662604
0.400143 0.300979 0.665754
0.504192 0.304183 0.668958
0.609629 0.307429 0.672204
0.716228 0.310711 0.675486
0.823825 0.314024 0.678799
0.044616 0.399467 0.665079
0.112106 0.401545 0.667157
0.208444 0.404512 0.670123
0.308426 0.407590 0.673202
0.410740 0.410740 0.676352
0.514789 0.413944 0.679555
0.620227 0.417190 0.682802
0.726825 0.420472 0.686084
0.834422 0.423785 0.689397
0.055394 0.511090 0.675856
0.122883 0.513168 0.677934
0.219222 0.516134 0.680900
0.319204 0.519213 0.683979
0.421517 0.522363 0.687129
0.525566 0.525566 0.690333
0.631004 0.528813 0.693579
0.737602 0.532095 0.696861
0.845199 0.535408 0.700174
0.066315 0.624202 0.686777
0.133804 0.626280 0.688855
0.230143 0.629246 0.691821
0.330125 0.632325 0.694900
0.432439 0.635475 0.698050
0.536487 0.638679 0.701254
0.641925 0.641925 0.704500
0.748523 0.645207 0.707782
0.856121 0.648520 0.711095
0.077356 0.738560 0.697818
0.144846 0.740638 0.699896
0.241184 0.743604 0.702863
0.341166 0.746682 0.705941
0.443480 0.749833 0.709091
0.547529 0.753036 0.712295
0.652966 0.756283 0.715541
0.759565 0.759565 0.718823
0.867162 0.762878 0.722136
0.088501 0.853989 0.708963
0.155991 0.856067 0.711041
0.252329 0.859033 0.714007
0.352311 0.862111 0.717086
0.454625 0.865262 0.720236
0.558674 0.868465 0.723440
0.664111 0.871712 0.726686
0.770709 0.874994 0.729968
0.878307 0.878307 0.733281
0.007887 0.007887 0.738968
0.075377 0.009965 0.741046
0.171715 0.012931 0.744012
0.271697 0.016010 0.747091
0.374011 0.019160 0.750241
0.478060 0.022364 0.753445
0.583498 0.025610 0.756691
0.690096 0.028892 0.759973
0.797693 0.032205 0.763286
0.014878 0.080290 0.745959
0.082368 0.082368 0.748037
0.178706 0.085334 0.751003
0.278688 0.088412 0.754081
0.381002 0.091562 0.757231
0.485051 0.094766 0.760435
0.590488 0.098012 0.763681
0.697086 0.101295 0.766964
0.804684 0.104607 0.770276
0.024856 0.183640 0.755937
0.092346 0.185718 0.758015
0.188684 0.188684 0.760981
0.288666 0.191763 0.764060
0.390980 0.194913 0.767210
0.495029 0.198116 0.770414
0.600467 0.201363 0.773660
0.707065 0.204645 0.776942
0.814662 0.207958 0.780255
0.035212 0.290900 0.766293
0.102702 0.292978 0.768371
0.199040 0.295944 0.771337
0.299022 0.299022 0.774416
0.401336 0.302173 0.777566
0.505385 0.305376 0.780770
0.610823 0.308623 0.784016
0.717421 0.311905 0.787298
0.825018 0.315218 0.790611
0.045810 0.400661 0.776891
0.113300 0.402739 0.778969
0.209638 0.405705 0.781935
0.309620 0.408783 0.785013
0.411934 0.411934 0.788163
0.515983 0.415137 0.791367
0.621420 0.418384 0.794613
0.728018 0.421666 0.797896
0.835616 0.424979 0.801208
0.056587 0.512283 0.787668
0.124077 0.514361 0.789746
0.220415 0.517328 0.792712
0.320397 0.520406 0.795790
0.422711 0.523556 0.798941
0.526760 0.526760 0.802144
0.632197 0.530006 0.805391
0.738796 0.533288 0.808673
0.846393 0.536601 0.811986
0.067508 0.625396 0.798589
0.134998 0.627474 0.800667
0.231336 0.630440 0.803633
0.331318 0.633518 0.806712
0.433632 0.636668 0.809862
0.537681 0.639872 0.813065
0.643118 0.643118 0.816312
0.749717 0.646401 0.819594
0.857314 0.649713 0.822907
0.078549 0.739753 0.809630
0.146039 0.741831 0.811708
0.242377 0.744797 0.814674
0.342359 0.747876 0.817753
0.444673 0.751026 0.820903
0.548722 0.754230 0.824107
0.654160 0.757476 0.827353
0.760758 0.760758 0.830635
0.868355 0.764071 0.833948
0.089694 0.855182 0.820775
0.157184 0.857260 0.822853
0.253522 0.860226 0.825819
0.353504 0.863305 0.828898
0.455818 0.866455 0.832048
0.559867 0.869659 0.835251
0.665305 0.872905 0.838498
0.771903 0.876187 0.841780
0.879500 0.879500 0.845093
0.008538 0.008538 0.799964
0.076028 0.010616 0.802042
0.172366 0.013583 0.805008
0.272348 0.016661 0.808086
0.374662 0.019811 0.811237
0.478711 0.023015 0.814440
0.584149 0.026261 0.817687
0.690747 0.029543 0.820969
0.798344 0.032856 0.824282
0.015529 0.080941 0.806954
0.083019 0.083019 0.809032
0.179357 0.085985 0.811998
0.279339 0.089063 0.815077
0.381653 0.092213 0.818227
0.485702 0.095417 0.821431
0.591139 0.098663 0.824677
0.697737 0.101946 0.827959
0.805335 0.105258 0.831272
0.025507 0.184291 0.816933
0.092997 0.186369 0.819011
0.189335 0.189335 0.821977
0.289317 0.192414 0.825055
0.391631 0.195564 0.828206
0.495680 0.198767 0.831409
0.601118 0.202014 0.834656
0.707716 0.205296 0.837938
0.815313 0.208609 0.841251
0.035863 0.291551 0.827289
0.103353 0.293629 0.829367
0.199691 0.296595 0.832333
0.299673 0.299673 0.835411
0.401987 0.302824 0.838562
0.506036 0.306027 0.841765
0.611474 0.309274 0.845012
0.718072 0.312556 0.848294
0.825669 0.315869 0.851607
0.046461 0.401312 0.837886
0.113951 0.403390 0.839964
0.210289 0.406356 0.842930
0.310271 0.409434 0.846009
0.412585 0.412585 0.849159
0.516634 0.415788 0.852363
0.622071 0.419035 0.855609
0.728669 0.422317 0.858891
0.836267 0.425630 0.862204
0.057238 0.512934 0.848663
0.124728 0.515012 0.850741
0.221066 0.517979 0.853708
0.321048 0.521057 0.856786
0.423362 0.524207 0.859936
0.527411 0.527411 0.863140
0.632848 0.530657 0.866386
0.739447 0.533939 0.869668
0.847044 0.537252 0.872981
0.068159 0.626047 0.859585
0.135649 0.628125 0.861663
0.231987 0.631091 0.864629
0.331969 0.634169 0.867707
0.434283 0.637319 0.870857
0.538332 0.640523 0.874061
0.643770 0.643770 0.877307
0.750368 0.647052 0.880590
0.857965 0.650365 0.883902
0.079200 0.740404 0.870626
0.146690 0.742482 0.872704
0.243028 0.745448 0.875670
0.343010 0.748527 0.878748
0.445324 0.751677 0.881899
0.549373 0.754881 0.885102
0.654811 0.758127 0.888349
0.761409 0.761409 0.891631
0.869006 0.764722 0.894944
0.090345 0.855833 0.881771
0.157835 0.857911 0.883849
0.254173 0.860877 0.886815
0.354155 0.863956 0.889893
0.456469 0.867106 0.893043
0.560518 0.870310 0.896247
0.665956 0.873556 0.899493
0.772554 0.876838 0.902776
0.880151 0.880151 0.906088
