public/luts/iphone/lk-iphone-golden.cube
TITLE "LK iPhone Golden"
LUT_3D_SIZE 5
DOMAIN_MIN 0.0 0.0 0.0
DOMAIN_MAX 1.0 1.0 1.0
0.020404 0.012455 0.009873
0.313472 0.009458 0.006876
0.583466 0.006697 0.004115
0.844487 0.004027 0.001445
1.000000 0.002262 0.000000
0.011091 0.276594 0.000560
0.304159 0.273596 0.000000
0.574153 0.270835 0.000000
0.835174 0.268165 0.000000
1.000000 0.266400 0.000000
0.002433 0.522164 0.000000
0.295501 0.519167 0.000000
0.565495 0.516406 0.000000
0.826516 0.513736 0.000000
0.999126 0.511971 0.000000
0.000000 0.760638 0.000000
0.287093 0.757641 0.000000
0.557087 0.754879 0.000000
0.818108 0.752210 0.000000
0.990718 0.750444 0.000000
0.000000 0.992728 0.000000
0.278910 0.989731 0.000000
0.548904 0.986969 0.000000
0.809925 0.984300 0.000000
0.982535 0.982535 0.000000
0.019665 0.011716 0.224076
0.312733 0.008719 0.221079
0.582727 0.005958 0.218317
0.843748 0.003288 0.215648
1.000000 0.001523 0.213882
0.010352 0.275855 0.214763
0.303420 0.272857 0.211766
0.573414 0.270096 0.209004
0.834435 0.267426 0.206335
1.000000 0.265661 0.204570
0.001694 0.521425 0.206105
0.294762 0.518428 0.203107
0.564756 0.515667 0.200346
0.825777 0.512997 0.197677
0.998387 0.511232 0.195911
0.000000 0.759899 0.197697
0.286354 0.756902 0.194699
0.556348 0.754140 0.191938
0.817369 0.751471 0.189268
0.989979 0.749705 0.187503
0.000000 0.991989 0.189514
0.278171 0.988992 0.186516
0.548165 0.986230 0.183755
0.809186 0.983561 0.181085
0.981796 0.981796 0.179320
0.018893 0.010945 0.447680
0.311962 0.007947 0.444683
0.581956 0.005186 0.441922
0.842977 0.002517 0.439252
1.000000 0.000751 0.437487
0.009581 0.275083 0.438367
0.302649 0.272086 0.435370
0.572643 0.269324 0.432609
0.833664 0.266655 0.429939
1.000000 0.264890 0.428174
0.000922 0.520654 0.429709
0.293990 0.517657 0.426712
0.563985 0.514895 0.423950
0.825006 0.512226 0.421281
0.997615 0.510461 0.419515
0.000000 0.759128 0.421301
0.285582 0.756130 0.418303
0.555576 0.753369 0.415542
0.816598 0.750699 0.412873
0.989207 0.748934 0.411107
0.000000 0.991218 0.413118
0.277399 0.988220 0.410120
0.547393 0.985459 0.407359
0.808414 0.982789 0.404690
0.981024 0.981024 0.402924
0.018125 0.010176 0.670462
0.311193 0.007179 0.667464
0.581187 0.004418 0.664703
0.842208 0.001748 0.662034
1.000000 0.000000 0.660268
0.008812 0.274315 0.661149
0.301880 0.271317 0.658151
0.571874 0.268556 0.655390
0.832895 0.265886 0.652721
1.000000 0.264121 0.650955
0.000154 0.519885 0.652490
0.293222 0.516888 0.649493
0.563216 0.514127 0.646732
0.824237 0.511457 0.644062
0.996847 0.509692 0.642297
0.000000 0.758359 0.644082
0.284814 0.755362 0.641085
0.554808 0.752600 0.638324
0.815829 0.749931 0.635654
0.988439 0.748165 0.633889
0.000000 0.990449 0.635899
0.276631 0.987452 0.632902
0.546625 0.984690 0.630141
0.807646 0.982021 0.627471
0.980256 0.980256 0.625706
0.017358 0.009410 0.892684
0.310426 0.006412 0.889687
0.580421 0.003651 0.886926
0.841442 0.000981 0.884256
1.000000 0.000000 0.882491
0.008045 0.273548 0.883371
0.301113 0.270551 0.880374
0.571108 0.267789 0.877613
0.832129 0.265120 0.874943
1.000000 0.263354 0.873178
0.000000 0.519119 0.874713
0.292455 0.516121 0.871716
0.562449 0.513360 0.868954
0.823470 0.510691 0.866285
0.996080 0.508925 0.864519
0.000000 0.757592 0.866305
0.284047 0.754595 0.863308
0.554041 0.751834 0.860546
0.815062 0.749164 0.857877
0.987672 0.747399 0.856111
0.000000 0.989682 0.858122
0.275864 0.986685 0.855125
0.545858 0.983924 0.852363
0.806879 0.981254 0.849694
0.979489 0.979489 0.847928
