public/luts/iphone/lk-iphone-portrait.cube
TITLE "LK iPhone Portrait"
LUT_3D_SIZE 17
DOMAIN_MIN 0.0 0.0 0.0
DOMAIN_MAX 1.0 1.0 1.0
0.018219 0.015360 0.011949
0.089921 0.016153 0.012742
0.156323 0.016888 0.013477
0.220385 0.017597 0.014186
0.282925 0.018289 0.014878
0.344339 0.018969 0.015557
0.404864 0.019638 0.016227
0.464655 0.020300 0.016889
0.523821 0.020955 0.017543
0.582446 0.021604 0.018192
0.640592 0.022247 0.018836
0.698309 0.022886 0.019474
0.755640 0.023520 0.020109
0.812619 0.024151 0.020739
0.869273 0.024777 0.021366
0.925627 0.025401 0.021990
0.951249 0.025685 0.022273
0.020705 0.083894 0.014435
0.092407 0.084687 0.015228
0.158809 0.085422 0.015963
0.222871 0.086131 0.016672
0.285411 0.086823 0.017364
0.346826 0.087503 0.018044
0.407351 0.088172 0.018713
0.467141 0.088834 0.019375
0.526308 0.089489 0.020030
0.584932 0.090137 0.020678
0.643078 0.090781 0.021322
0.700796 0.091420 0.021960
0.758127 0.092054 0.022595
0.815105 0.092684 0.023225
0.871759 0.093311 0.023852
0.928114 0.093935 0.024476
0.953735 0.094218 0.024759
0.023056 0.148704 0.016786
0.094758 0.149497 0.017579
0.161160 0.150232 0.018314
0.225222 0.150941 0.019023
0.287762 0.151633 0.019715
0.349177 0.152313 0.020395
0.409702 0.152982 0.021064
0.469492 0.153644 0.021726
0.528659 0.154299 0.022381
0.587283 0.154947 0.023029
0.645429 0.155591 0.023673
0.703147 0.156230 0.024312
0.760478 0.156864 0.024946
0.817456 0.157494 0.025576
0.874110 0.158121 0.026203
0.930465 0.158745 0.026827
0.956086 0.159029 0.027110
0.025345 0.211800 0.019075
0.097047 0.212594 0.019868
0.163449 0.213329 0.020603
0.227511 0.214038 0.021312
0.290051 0.214730 0.022004
0.351466 0.215409 0.022684
0.411991 0.216079 0.023353
0.471781 0.216741 0.024015
0.530948 0.217395 0.024670
0.589572 0.218044 0.025318
0.647718 0.218687 0.025962
0.705436 0.219326 0.026600
0.762767 0.219961 0.027235
0.819745 0.220591 0.027865
0.876399 0.221218 0.028492
0.932754 0.221842 0.029116
0.958375 0.222125 0.029399
0.027593 0.273770 0.021323
0.099295 0.274563 0.022116
0.165697 0.275298 0.022851
0.229759 0.276007 0.023560
0.292299 0.276699 0.024252
0.353714 0.277379 0.024932
0.414239 0.278048 0.025601
0.474029 0.278710 0.026263
0.533196 0.279365 0.026918
0.591820 0.280013 0.027566
0.649966 0.280657 0.028210
0.707684 0.281295 0.028849
0.765015 0.281930 0.029483
0.821993 0.282560 0.030113
0.878647 0.283187 0.030740
0.935002 0.283811 0.031364
0.960623 0.284094 0.031647
0.029811 0.334900 0.023540
0.101513 0.335694 0.024334
0.167915 0.336429 0.025069
0.231977 0.337137 0.025778
0.294517 0.337830 0.026470
0.355931 0.338509 0.027149
0.416456 0.339179 0.027819
0.476247 0.339840 0.028481
0.535413 0.340495 0.029135
0.594038 0.341144 0.029784
0.652183 0.341787 0.030427
0.709901 0.342426 0.031066
0.767232 0.343060 0.031701
0.824210 0.343691 0.032331
0.880865 0.344318 0.032958
0.937219 0.344941 0.033582
0.962841 0.345225 0.033865
0.032004 0.395364 0.025734
0.103706 0.396158 0.026527
0.170108 0.396892 0.027262
0.234170 0.397601 0.027971
0.296710 0.398293 0.028663
0.358125 0.398973 0.029343
0.418650 0.399643 0.030012
0.478440 0.400304 0.030674
0.537607 0.400959 0.031329
0.596231 0.401608 0.031977
0.654377 0.402251 0.032621
0.712095 0.402890 0.033260
0.769426 0.403524 0.033894
0.826404 0.404155 0.034524
0.883058 0.404782 0.035151
0.939413 0.405405 0.035775
0.965034 0.405689 0.036058
0.034177 0.455276 0.027907
0.105879 0.456069 0.028701
0.172282 0.456804 0.029435
0.236344 0.457513 0.030144
0.298883 0.458205 0.030836
0.360298 0.458884 0.031516
0.420823 0.459554 0.032186
0.480614 0.460216 0.032847
0.539780 0.460870 0.033502
0.598404 0.461519 0.034151
0.656550 0.462163 0.034794
0.714268 0.462801 0.035433
0.771599 0.463436 0.036067
0.828577 0.464066 0.036698
0.885231 0.464693 0.037325
0.941586 0.465317 0.037948
0.967208 0.465600 0.038232
0.036334 0.514716 0.030064
0.108036 0.515509 0.030857
0.174438 0.516244 0.031592
0.238500 0.516953 0.032301
0.301040 0.517645 0.032993
0.362454 0.518325 0.033672
0.422979 0.518994 0.034342
0.482770 0.519656 0.035004
0.541936 0.520311 0.035658
0.600561 0.520960 0.036307
0.658707 0.521603 0.036951
0.716424 0.522242 0.037589
0.773755 0.522876 0.038224
0.830734 0.523507 0.038854
0.887388 0.524133 0.039481
0.943742 0.524757 0.040105
0.969364 0.525041 0.040388
0.038475 0.573746 0.032205
0.110177 0.574540 0.032998
0.176580 0.575274 0.033733
0.240641 0.575983 0.034442
0.303181 0.576675 0.035134
0.364596 0.577355 0.035814
0.425121 0.578025 0.036483
0.484911 0.578686 0.037145
0.544078 0.579341 0.037800
0.602702 0.579990 0.038449
0.660848 0.580633 0.039092
0.718566 0.581272 0.039731
0.775897 0.581906 0.040365
0.832875 0.582537 0.040996
0.889529 0.583164 0.041622
0.945884 0.583787 0.042246
0.971505 0.584071 0.042530
0.040603 0.632413 0.034333
0.112305 0.633207 0.035127
0.178708 0.633942 0.035861
0.242770 0.634650 0.036570
0.305309 0.635342 0.037262
0.366724 0.636022 0.037942
0.427249 0.636692 0.038612
0.487040 0.637353 0.039273
0.546206 0.638008 0.039928
0.604830 0.638657 0.040577
0.662976 0.639300 0.041220
0.720694 0.639939 0.041859
0.778025 0.640573 0.042493
0.835003 0.641204 0.043124
0.891657 0.641831 0.043751
0.948012 0.642454 0.044374
0.973634 0.642738 0.044658
0.042720 0.690755 0.036450
0.114422 0.691549 0.037243
0.180824 0.692283 0.037978
0.244886 0.692992 0.038687
0.307426 0.693684 0.039379
0.368840 0.694364 0.040058
0.429365 0.695034 0.040728
0.489156 0.695695 0.041390
0.548322 0.696350 0.042044
0.606947 0.696999 0.042693
0.665093 0.697642 0.043337
0.722811 0.698281 0.043975
0.780141 0.698915 0.044610
0.837120 0.699546 0.045240
0.893774 0.700173 0.045867
0.950128 0.700796 0.046491
0.975750 0.701080 0.046774
0.044826 0.748802 0.038555
0.116527 0.749596 0.039349
0.182930 0.750331 0.040084
0.246992 0.751039 0.040793
0.309532 0.751731 0.041485
0.370946 0.752411 0.042164
0.431471 0.753081 0.042834
0.491262 0.753742 0.043496
0.550428 0.754397 0.044150
0.609053 0.755046 0.044799
0.667198 0.755689 0.045442
0.724916 0.756328 0.046081
0.782247 0.756962 0.046715
0.839225 0.757593 0.047346
0.895880 0.758220 0.047973
0.952234 0.758843 0.048596
0.977856 0.759127 0.048880
0.046922 0.806580 0.040651
0.118623 0.807374 0.041445
0.185026 0.808109 0.042180
0.249088 0.808817 0.042889
0.311628 0.809509 0.043581
0.373042 0.810189 0.044260
0.433567 0.810859 0.044930
0.493358 0.811520 0.045592
0.552524 0.812175 0.046246
0.611149 0.812824 0.046895
0.669294 0.813467 0.047538
0.727012 0.814106 0.048177
0.784343 0.814740 0.048811
0.841321 0.815371 0.049442
0.897976 0.815998 0.050069
0.954330 0.816621 0.050692
0.979952 0.816905 0.050976
0.049009 0.864111 0.042738
0.120710 0.864904 0.043532
0.187113 0.865639 0.044267
0.251175 0.866348 0.044976
0.313715 0.867040 0.045668
0.375129 0.867720 0.046347
0.435654 0.868389 0.047017
0.495445 0.869051 0.047679
0.554611 0.869706 0.048333
0.613236 0.870354 0.048982
0.671381 0.870998 0.049625
0.729099 0.871636 0.050264
0.786430 0.872271 0.050898
0.843408 0.872901 0.051529
0.900063 0.873528 0.052156
0.956417 0.874152 0.052779
0.982039 0.874435 0.053063
0.051087 0.921412 0.044817
0.122789 0.922206 0.045611
0.189192 0.922940 0.046345
0.253254 0.923649 0.047054
0.315793 0.924341 0.047746
0.377208 0.925021 0.048426
0.437733 0.925691 0.049096
0.497523 0.926352 0.049757
0.556690 0.927007 0.050412
0.615314 0.927656 0.051061
0.673460 0.928299 0.051704
0.731178 0.928938 0.052343
0.788509 0.929572 0.052977
0.845487 0.930203 0.053608
0.902141 0.930830 0.054235
0.958496 0.931453 0.054858
0.984118 0.931737 0.055142
0.053059 0.975765 0.046789
0.124761 0.976558 0.047582
0.191163 0.977293 0.048317
0.255225 0.978002 0.049026
0.317765 0.978694 0.049718
0.379180 0.979373 0.050398
0.439705 0.980043 0.051067
0.499495 0.980705 0.051729
0.558662 0.981360 0.052384
0.617286 0.982008 0.053032
0.675432 0.982652 0.053676
0.733150 0.983290 0.054314
0.790481 0.983925 0.054949
0.847459 0.984555 0.055579
0.904113 0.985182 0.056206
0.960468 0.985806 0.056830
0.986089 0.986089 0.057113
0.018443 0.015585 0.071279
0.090145 0.016378 0.072072
0.156548 0.017113 0.072807
0.220610 0.017822 0.073516
0.283149 0.018514 0.074208
0.344564 0.019193 0.074887
0.405089 0.019863 0.075557
0.464880 0.020525 0.076219
0.524046 0.021179 0.076873
0.582670 0.021828 0.077522
0.640816 0.022472 0.078166
0.698534 0.023110 0.078804
0.755865 0.023745 0.079439
0.812843 0.024375 0.080069
0.869497 0.025002 0.080696
0.925852 0.025626 0.081320
0.951474 0.025909 0.081603
0.020930 0.084118 0.073765
0.092631 0.084912 0.074558
0.159034 0.085647 0.075293
0.223096 0.086356 0.076002
0.285636 0.087048 0.076694
0.347050 0.087727 0.077374
0.407575 0.088397 0.078043
0.467366 0.089059 0.078705
0.526532 0.089713 0.079360
0.585157 0.090362 0.080008
0.643302 0.091005 0.080652
0.701020 0.091644 0.081290
0.758351 0.092279 0.081925
0.815329 0.092909 0.082555
0.871984 0.093536 0.083182
0.928338 0.094160 0.083806
0.953960 0.094443 0.084089
0.023281 0.148929 0.076116
0.094983 0.149722 0.076909
0.161385 0.150457 0.077644
0.225447 0.151166 0.078353
0.287987 0.151858 0.079045
0.349401 0.152537 0.079725
0.409926 0.153207 0.080394
0.469717 0.153869 0.081056
0.528883 0.154523 0.081711
0.587508 0.155172 0.082359
0.645654 0.155815 0.083003
0.703371 0.156454 0.083642
0.760702 0.157089 0.084276
0.817680 0.157719 0.084906
0.874335 0.158346 0.085533
0.930689 0.158970 0.086157
0.956311 0.159253 0.086440
0.025570 0.212025 0.078405
0.097271 0.212819 0.079198
0.163674 0.213553 0.079933
0.227736 0.214262 0.080642
0.290276 0.214954 0.081334
0.351690 0.215634 0.082014
0.412215 0.216304 0.082683
0.472006 0.216965 0.083345
0.531172 0.217620 0.084000
0.589797 0.218269 0.084648
0.647942 0.218912 0.085292
0.705660 0.219551 0.085930
0.762991 0.220185 0.086565
0.819969 0.220816 0.087195
0.876624 0.221443 0.087822
0.932978 0.222066 0.088446
0.958600 0.222350 0.088729
0.027818 0.273994 0.080653
0.099520 0.274788 0.081446
0.165922 0.275523 0.082181
0.229984 0.276232 0.082890
0.292524 0.276924 0.083582
0.353938 0.277603 0.084262
0.414463 0.278273 0.084931
0.474254 0.278935 0.085593
0.533420 0.279589 0.086248
0.592045 0.280238 0.086896
0.650190 0.280881 0.087540
0.707908 0.281520 0.088178
0.765239 0.282154 0.088813
0.822217 0.282785 0.089443
0.878872 0.283412 0.090070
0.935226 0.284035 0.090694
0.960848 0.284319 0.090977
0.030035 0.335125 0.082870
0.101737 0.335918 0.083664
0.168140 0.336653 0.084399
0.232202 0.337362 0.085108
0.294741 0.338054 0.085800
0.356156 0.338734 0.086479
0.416681 0.339403 0.087149
0.476471 0.340065 0.087811
0.535638 0.340720 0.088465
0.594262 0.341368 0.089114
0.652408 0.342012 0.089757
0.710126 0.342651 0.090396
0.767457 0.343285 0.091031
0.824435 0.343916 0.091661
0.881089 0.344542 0.092288
0.937444 0.345166 0.092912
0.963066 0.345450 0.093195
0.032229 0.395589 0.085064
0.103931 0.396382 0.085857
0.170333 0.397117 0.086592
0.234395 0.397826 0.087301
0.296935 0.398518 0.087993
0.358349 0.399198 0.088673
0.418874 0.399867 0.089342
0.478665 0.400529 0.090004
0.537831 0.401184 0.090659
0.596456 0.401832 0.091307
0.654602 0.402476 0.091951
0.712319 0.403114 0.092590
0.769650 0.403749 0.093224
0.826628 0.404379 0.093854
0.883283 0.405006 0.094481
0.939637 0.405630 0.095105
0.965259 0.405913 0.095388
0.034402 0.455500 0.087237
0.106104 0.456294 0.088031
0.172506 0.457028 0.088765
0.236568 0.457737 0.089474
0.299108 0.458429 0.090166
0.360523 0.459109 0.090846
0.421048 0.459779 0.091516
0.480838 0.460440 0.092177
0.540005 0.461095 0.092832
0.598629 0.461744 0.093481
0.656775 0.462387 0.094124
0.714493 0.463026 0.094763
0.771824 0.463660 0.095397
0.828802 0.464291 0.096028
0.885456 0.464918 0.096655
0.941811 0.465541 0.097278
0.967432 0.465825 0.097562
0.036558 0.514941 0.089394
0.108260 0.515734 0.090187
0.174663 0.516469 0.090922
0.238725 0.517178 0.091631
0.301264 0.517870 0.092323
0.362679 0.518549 0.093002
0.423204 0.519219 0.093672
0.482995 0.519881 0.094334
0.542161 0.520535 0.094988
0.600785 0.521184 0.095637
0.658931 0.521828 0.096281
0.716649 0.522466 0.096919
0.773980 0.523101 0.097554
0.830958 0.523731 0.098184
0.887612 0.524358 0.098811
0.943967 0.524982 0.099435
0.969589 0.525265 0.099718
0.038700 0.573971 0.091535
0.110402 0.574764 0.092328
0.176804 0.575499 0.093063
0.240866 0.576208 0.093772
0.303406 0.576900 0.094464
0.364820 0.577580 0.095144
0.425345 0.578249 0.095813
0.485136 0.578911 0.096475
0.544302 0.579566 0.097130
0.602927 0.580214 0.097779
0.661073 0.580858 0.098422
0.718790 0.581496 0.099061
0.776121 0.582131 0.099695
0.833100 0.582761 0.100326
0.889754 0.583388 0.100952
0.946108 0.584012 0.101576
0.971730 0.584295 0.101860
0.040828 0.632638 0.093663
0.112530 0.633431 0.094457
0.178932 0.634166 0.095191
0.242994 0.634875 0.095900
0.305534 0.635567 0.096592
0.366949 0.636247 0.097272
0.427474 0.636916 0.097942
0.487264 0.637578 0.098603
0.546431 0.638233 0.099258
0.605055 0.638881 0.099907
0.663201 0.639525 0.100550
0.720919 0.640164 0.101189
0.778250 0.640798 0.101823
0.835228 0.641428 0.102454
0.891882 0.642055 0.103081
0.948237 0.642679 0.103704
0.973858 0.642963 0.103988
0.042944 0.690980 0.095780
0.114646 0.691773 0.096573
0.181049 0.692508 0.097308
0.245111 0.693217 0.098017
0.307650 0.693909 0.098709
0.369065 0.694588 0.099388
0.429590 0.695258 0.100058
0.489381 0.695920 0.100720
0.548547 0.696575 0.101374
0.607171 0.697223 0.102023
0.665317 0.697867 0.102667
0.723035 0.698505 0.103305
0.780366 0.699140 0.103940
0.837344 0.699770 0.104570
0.893998 0.700397 0.105197
0.950353 0.701021 0.105821
0.975975 0.701304 0.106104
0.045050 0.749027 0.097885
0.116752 0.749820 0.098679
0.183155 0.750555 0.099414
0.247217 0.751264 0.100123
0.309756 0.751956 0.100815
0.371171 0.752636 0.101494
0.431696 0.753305 0.102164
0.491486 0.753967 0.102826
0.550653 0.754622 0.103480
0.609277 0.755270 0.104129
0.667423 0.755914 0.104772
0.725141 0.756553 0.105411
0.782472 0.757187 0.106045
0.839450 0.757817 0.106676
0.896104 0.758444 0.107303
0.952459 0.759068 0.107926
0.978080 0.759351 0.108210
0.047146 0.806805 0.099981
0.118848 0.807598 0.100775
0.185251 0.808333 0.101510
0.249313 0.809042 0.102218
0.311852 0.809734 0.102911
0.373267 0.810414 0.103590
0.433792 0.811083 0.104260
0.493582 0.811745 0.104921
0.552749 0.812400 0.105576
0.611373 0.813048 0.106225
0.669519 0.813692 0.106868
0.727237 0.814331 0.107507
0.784568 0.814965 0.108141
0.841546 0.815596 0.108772
0.898200 0.816222 0.109399
0.954555 0.816846 0.110022
0.980176 0.817130 0.110306
0.049233 0.864335 0.102068
0.120935 0.865129 0.102862
0.187338 0.865864 0.103597
0.251400 0.866573 0.104306
0.313939 0.867265 0.104998
0.375354 0.867944 0.105677
0.435879 0.868614 0.106347
0.495669 0.869276 0.107009
0.554836 0.869930 0.107663
0.613460 0.870579 0.108312
0.671606 0.871222 0.108955
0.729324 0.871861 0.109594
0.786655 0.872495 0.110228
0.843633 0.873126 0.110859
0.900287 0.873753 0.111486
0.956642 0.874376 0.112109
0.982263 0.874660 0.112393
0.051312 0.921637 0.104147
0.123014 0.922430 0.104941
0.189416 0.923165 0.105675
0.253478 0.923874 0.106384
0.316018 0.924566 0.107076
0.377433 0.925245 0.107756
0.437957 0.925915 0.108426
0.497748 0.926577 0.109087
0.556914 0.927232 0.109742
0.615539 0.927880 0.110391
0.673685 0.928524 0.111034
0.731403 0.929162 0.111673
0.788733 0.929797 0.112307
0.845712 0.930427 0.112938
0.902366 0.931054 0.113565
0.958721 0.931678 0.114188
0.984342 0.931961 0.114472
0.053284 0.975989 0.106119
0.124986 0.976783 0.106912
0.191388 0.977518 0.107647
0.255450 0.978226 0.108356
0.317990 0.978918 0.109048
0.379404 0.979598 0.109728
0.439929 0.980268 0.110397
0.499720 0.980929 0.111059
0.558886 0.981584 0.111714
0.617511 0.982233 0.112362
0.675656 0.982876 0.113006
0.733374 0.983515 0.113644
0.790705 0.984149 0.114279
0.847683 0.984780 0.114909
0.904338 0.985407 0.115536
0.960692 0.986030 0.116160
0.986314 0.986314 0.116443
0.018669 0.015811 0.130987
0.090371 0.016604 0.131781
0.156774 0.017339 0.132516
0.220836 0.018048 0.133224
0.283375 0.018740 0.133916
0.344790 0.019419 0.134596
0.405315 0.020089 0.135266
0.465106 0.020751 0.135927
0.524272 0.021405 0.136582
0.582896 0.022054 0.137231
0.641042 0.022698 0.137874
0.698760 0.023336 0.138513
0.756091 0.023971 0.139147
0.813069 0.024601 0.139778
0.869723 0.025228 0.140405
0.926078 0.025852 0.141028
0.951700 0.026135 0.141312
0.021156 0.084345 0.133473
0.092858 0.085138 0.134267
0.159260 0.085873 0.135002
0.223322 0.086582 0.135711
0.285862 0.087274 0.136403
0.347276 0.087953 0.137082
0.407801 0.088623 0.137752
0.467592 0.089285 0.138414
0.526758 0.089939 0.139068
0.585383 0.090588 0.139717
0.643528 0.091231 0.140360
0.701246 0.091870 0.140999
0.758577 0.092505 0.141634
0.815555 0.093135 0.142264
0.872210 0.093762 0.142891
0.928564 0.094386 0.143515
0.954186 0.094669 0.143798
0.023507 0.149155 0.135825
0.095209 0.149948 0.136618
0.161611 0.150683 0.137353
0.225673 0.151392 0.138062
0.288213 0.152084 0.138754
0.349627 0.152763 0.139433
0.410152 0.153433 0.140103
0.469943 0.154095 0.140765
0.529109 0.154749 0.141419
0.587734 0.155398 0.142068
0.645880 0.156042 0.142712
0.703597 0.156680 0.143350
0.760928 0.157315 0.143985
0.817907 0.157945 0.144615
0.874561 0.158572 0.145242
0.930915 0.159196 0.145866
0.956537 0.159479 0.146149
0.025796 0.212251 0.138114
0.097498 0.213045 0.138907
0.163900 0.213779 0.139642
0.227962 0.214488 0.140351
0.290502 0.215180 0.141043
0.351916 0.215860 0.141722
0.412441 0.216530 0.142392
0.472232 0.217191 0.143054
0.531398 0.217846 0.143708
0.590023 0.218495 0.144357
0.648168 0.219138 0.145000
0.705886 0.219777 0.145639
0.763217 0.220411 0.146274
0.820195 0.221042 0.146904
0.876850 0.221669 0.147531
0.933204 0.222292 0.148155
0.958826 0.222576 0.148438
0.028044 0.274220 0.140362
0.099746 0.275014 0.141155
0.166148 0.275749 0.141890
0.230210 0.276458 0.142599
0.292750 0.277150 0.143291
0.354164 0.277829 0.143970
0.414689 0.278499 0.144640
0.474480 0.279161 0.145302
0.533646 0.279815 0.145956
0.592271 0.280464 0.146605
0.650417 0.281107 0.147248
0.708134 0.281746 0.147887
0.765465 0.282380 0.148522
0.822443 0.283011 0.149152
0.879098 0.283638 0.149779
0.935452 0.284262 0.150403
0.961074 0.284545 0.150686
0.030261 0.335351 0.142579
0.101963 0.336144 0.143373
0.168366 0.336879 0.144107
0.232428 0.337588 0.144816
0.294967 0.338280 0.145508
0.356382 0.338960 0.146188
0.416907 0.339629 0.146858
0.476697 0.340291 0.147519
0.535864 0.340946 0.148174
0.594488 0.341595 0.148823
0.652634 0.342238 0.149466
0.710352 0.342877 0.150105
0.767683 0.343511 0.150739
0.824661 0.344142 0.151370
0.881315 0.344768 0.151997
0.937670 0.345392 0.152620
0.963292 0.345676 0.152904
0.032455 0.395815 0.144773
0.104157 0.396608 0.145566
0.170559 0.397343 0.146301
0.234621 0.398052 0.147010
0.297161 0.398744 0.147702
0.358575 0.399424 0.148381
0.419100 0.400093 0.149051
0.478891 0.400755 0.149713
0.538057 0.401410 0.150367
0.596682 0.402058 0.151016
0.654828 0.402702 0.151660
0.712545 0.403340 0.152298
0.769876 0.403975 0.152933
0.826854 0.404605 0.153563
0.883509 0.405232 0.154190
0.939863 0.405856 0.154814
0.965485 0.406139 0.155097
0.034628 0.455726 0.146946
0.106330 0.456520 0.147739
0.172732 0.457254 0.148474
0.236794 0.457963 0.149183
0.299334 0.458655 0.149875
0.360749 0.459335 0.150555
0.421274 0.460005 0.151224
0.481064 0.460666 0.151886
0.540231 0.461321 0.152541
0.598855 0.461970 0.153189
0.657001 0.462613 0.153833
0.714719 0.463252 0.154472
0.772050 0.463886 0.155106
0.829028 0.464517 0.155736
0.885682 0.465144 0.156363
0.942037 0.465767 0.156987
0.967658 0.466051 0.157271
0.036784 0.515167 0.149102
0.108486 0.515960 0.149896
0.174889 0.516695 0.150630
0.238951 0.517404 0.151339
0.301490 0.518096 0.152031
0.362905 0.518775 0.152711
0.423430 0.519445 0.153381
0.483221 0.520107 0.154042
0.542387 0.520761 0.154697
0.601011 0.521410 0.155346
0.659157 0.522054 0.155989
0.716875 0.522692 0.156628
0.774206 0.523327 0.157262
0.831184 0.523957 0.157893
0.887838 0.524584 0.158520
0.944193 0.525208 0.159143
0.969815 0.525491 0.159427
0.038926 0.574197 0.151244
0.110628 0.574990 0.152037
0.177030 0.575725 0.152772
0.241092 0.576434 0.153481
0.303632 0.577126 0.154173
0.365046 0.577806 0.154852
0.425571 0.578475 0.155522
0.485362 0.579137 0.156184
0.544528 0.579792 0.156838
0.603153 0.580440 0.157487
0.661299 0.581084 0.158131
0.719016 0.581722 0.158769
0.776347 0.582357 0.159404
0.833326 0.582987 0.160034
0.889980 0.583614 0.160661
0.946334 0.584238 0.161285
0.971956 0.584521 0.161568
0.041054 0.632864 0.153372
0.112756 0.633657 0.154165
0.179158 0.634392 0.154900
0.243220 0.635101 0.155609
0.305760 0.635793 0.156301
0.367175 0.636473 0.156981
0.427700 0.637142 0.157650
0.487490 0.637804 0.158312
0.546657 0.638459 0.158967
0.605281 0.639108 0.159615
0.663427 0.639751 0.160259
0.721145 0.640390 0.160898
0.778476 0.641024 0.161532
0.835454 0.641655 0.162162
0.892108 0.642281 0.162789
0.948463 0.642905 0.163413
0.974084 0.643189 0.163696
0.043170 0.691206 0.155488
0.114872 0.691999 0.156282
0.181275 0.692734 0.157017
0.245337 0.693443 0.157725
0.307876 0.694135 0.158417
0.369291 0.694815 0.159097
0.429816 0.695484 0.159767
0.489607 0.696146 0.160428
0.548773 0.696801 0.161083
0.607397 0.697449 0.161732
0.665543 0.698093 0.162375
0.723261 0.698731 0.163014
0.780592 0.699366 0.163648
0.837570 0.699996 0.164279
0.894224 0.700623 0.164906
0.950579 0.701247 0.165529
0.976201 0.701530 0.165813
0.045276 0.749253 0.157594
0.116978 0.750046 0.158388
0.183381 0.750781 0.159122
0.247443 0.751490 0.159831
0.309982 0.752182 0.160523
0.371397 0.752862 0.161203
0.431922 0.753531 0.161873
0.491712 0.754193 0.162534
0.550879 0.754848 0.163189
0.609503 0.755496 0.163838
0.667649 0.756140 0.164481
0.725367 0.756779 0.165120
0.782698 0.757413 0.165754
0.839676 0.758043 0.166385
0.896330 0.758670 0.167012
0.952685 0.759294 0.167635
0.978307 0.759578 0.167919
0.047372 0.807031 0.159690
0.119074 0.807824 0.160484
0.185477 0.808559 0.161218
0.249539 0.809268 0.161927
0.312078 0.809960 0.162619
0.373493 0.810640 0.163299
0.434018 0.811309 0.163969
0.493808 0.811971 0.164630
0.552975 0.812626 0.165285
0.611599 0.813275 0.165934
0.669745 0.813918 0.166577
0.727463 0.814557 0.167216
0.784794 0.815191 0.167850
0.841772 0.815822 0.168481
0.898426 0.816448 0.169108
0.954781 0.817072 0.169731
0.980402 0.817356 0.170015
0.049459 0.864561 0.161777
0.121161 0.865355 0.162571
0.187564 0.866090 0.163305
0.251626 0.866799 0.164014
0.314165 0.867491 0.164706
0.375580 0.868170 0.165386
0.436105 0.868840 0.166056
0.495895 0.869502 0.166717
0.555062 0.870156 0.167372
0.613686 0.870805 0.168021
0.671832 0.871448 0.168664
0.729550 0.872087 0.169303
0.786881 0.872722 0.169937
0.843859 0.873352 0.170568
0.900513 0.873979 0.171195
0.956868 0.874603 0.171818
0.982490 0.874886 0.172102
0.051538 0.921863 0.163856
0.123240 0.922656 0.164649
0.189642 0.923391 0.165384
0.253704 0.924100 0.166093
0.316244 0.924792 0.166785
0.377659 0.925472 0.167465
0.438183 0.926141 0.168134
0.497974 0.926803 0.168796
0.557141 0.927458 0.169451
0.615765 0.928106 0.170099
0.673911 0.928750 0.170743
0.731629 0.929388 0.171381
0.788960 0.930023 0.172016
0.845938 0.930653 0.172646
0.902592 0.931280 0.173273
0.958947 0.931904 0.173897
0.984568 0.932187 0.174180
0.053510 0.976215 0.165828
0.125212 0.977009 0.166621
0.191614 0.977744 0.167356
0.255676 0.978452 0.168065
0.318216 0.979144 0.168757
0.379630 0.979824 0.169436
0.440155 0.980494 0.170106
0.499946 0.981155 0.170768
0.559112 0.981810 0.171422
0.617737 0.982459 0.172071
0.675882 0.983102 0.172714
0.733600 0.983741 0.173353
0.790931 0.984375 0.173988
0.847909 0.985006 0.174618
0.904564 0.985633 0.175245
0.960918 0.986256 0.175869
0.986540 0.986540 0.176152
0.018890 0.016032 0.189347
0.090592 0.016825 0.190140
0.156995 0.017560 0.190875
0.221057 0.018269 0.191584
0.283596 0.018961 0.192276
0.345011 0.019640 0.192956
0.405536 0.020310 0.193625
0.465327 0.020972 0.194287
0.524493 0.021626 0.194942
0.583117 0.022275 0.195591
0.641263 0.022919 0.196234
0.698981 0.023557 0.196873
0.756312 0.024192 0.197507
0.813290 0.024822 0.198138
0.869944 0.025449 0.198764
0.926299 0.026073 0.199388
0.951921 0.026356 0.199672
0.021377 0.084565 0.191833
