public/luts/iphone/lk-iphone-cinema.cube
TITLE "LK iPhone Cinema"
LUT_3D_SIZE 9
DOMAIN_MIN 0.0 0.0 0.0
DOMAIN_MAX 1.0 1.0 1.0
0.038153 0.038153 0.039496
0.129449 0.043318 0.044661
0.222291 0.048570 0.049913
0.315965 0.053869 0.055212
0.410219 0.059202 0.060544
0.504919 0.064559 0.065902
0.599983 0.069937 0.071280
0.695354 0.075332 0.076675
0.781132 0.080185 0.081527
0.055354 0.140623 0.056697
0.146650 0.145788 0.061861
0.239491 0.151040 0.067114
0.333166 0.156340 0.072413
0.427420 0.161672 0.077745
0.522120 0.167029 0.083102
0.617184 0.172407 0.088480
0.712555 0.177802 0.093876
0.798332 0.182655 0.098728
0.072845 0.244822 0.074188
0.164141 0.249987 0.079352
0.256982 0.255239 0.084605
0.350657 0.260539 0.089904
0.444911 0.265871 0.095236
0.539611 0.271228 0.100593
0.634675 0.276606 0.105971
0.730046 0.282001 0.111367
0.815823 0.286854 0.116219
0.090493 0.349954 0.091835
0.181789 0.355119 0.097000
0.274630 0.360371 0.102252
0.368304 0.365671 0.107552
0.462558 0.371003 0.112884
0.557259 0.376360 0.118241
0.652323 0.381738 0.123619
0.747694 0.387133 0.129014
0.833471 0.391986 0.133867
0.108249 0.455736 0.109592
0.199545 0.460901 0.114757
0.292387 0.466153 0.120009
0.386061 0.471453 0.125308
0.480315 0.476785 0.130640
0.575016 0.482142 0.135998
0.670080 0.487520 0.141376
0.765450 0.492916 0.146771
0.851228 0.497768 0.151624
0.126090 0.562019 0.127433
0.217386 0.567184 0.132597
0.310228 0.572436 0.137850
0.403902 0.577735 0.143149
0.498156 0.583067 0.148481
0.592856 0.588425 0.153839
0.687920 0.593803 0.159216
0.783291 0.599198 0.164612
0.869069 0.604051 0.169464
0.143999 0.668709 0.145342
0.235295 0.673874 0.150507
0.328137 0.679126 0.155759
0.421811 0.684426 0.161058
0.516065 0.689758 0.166390
0.610766 0.695115 0.171748
0.705829 0.700493 0.177126
0.801200 0.705888 0.182521
0.886978 0.710741 0.187374
0.161966 0.775744 0.163309
0.253262 0.780909 0.168474
0.346104 0.786161 0.173726
0.439778 0.791460 0.179025
0.534032 0.796792 0.184357
0.628733 0.802150 0.189715
0.723796 0.807528 0.195093
0.819167 0.812923 0.200488
0.904945 0.817775 0.205341
0.179550 0.880497 0.180893
0.270846 0.885662 0.186058
0.363688 0.890914 0.191310
0.457362 0.896213 0.196609
0.551616 0.901546 0.201941
0.646317 0.906903 0.207299
0.741380 0.912281 0.212677
0.836751 0.917676 0.218072
0.922529 0.922529 0.222925
0.039908 0.039908 0.127418
0.131204 0.045073 0.132583
0.224045 0.050325 0.137835
0.317720 0.055624 0.143135
0.411974 0.060956 0.148467
0.506674 0.066314 0.153824
0.601738 0.071692 0.159202
0.697109 0.077087 0.164597
0.782886 0.081940 0.169450
0.057109 0.142378 0.144619
0.148405 0.147543 0.149784
0.241246 0.152795 0.155036
0.334920 0.158094 0.160335
0.429175 0.163426 0.165667
0.523875 0.168784 0.171025
0.618939 0.174162 0.176403
0.714310 0.179557 0.181798
0.800087 0.184410 0.186651
0.074600 0.246577 0.162110
0.165896 0.251742 0.167275
0.258737 0.256994 0.172527
0.352411 0.262293 0.177826
0.446666 0.267625 0.183158
0.541366 0.272983 0.188516
0.636430 0.278361 0.193894
0.731801 0.283756 0.199289
0.817578 0.288609 0.204142
0.092247 0.351709 0.179758
0.183543 0.356874 0.184922
0.276385 0.362126 0.190175
0.370059 0.367425 0.195474
0.464313 0.372758 0.200806
0.559014 0.378115 0.206164
0.654078 0.383493 0.211541
0.749448 0.388888 0.216937
0.835226 0.393741 0.221789
0.110004 0.457491 0.197514
0.201300 0.462656 0.202679
0.294141 0.467908 0.207931
0.387816 0.473208 0.213231
0.482070 0.478540 0.218563
0.576770 0.483897 0.223920
0.671834 0.489275 0.229298
0.767205 0.494670 0.234693
0.852983 0.499523 0.239546
0.127845 0.563774 0.215355
0.219141 0.568939 0.220520
0.311982 0.574191 0.225772
0.405657 0.579490 0.231072
0.499911 0.584822 0.236404
0.594611 0.590180 0.241761
0.689675 0.595558 0.247139
0.785046 0.600953 0.252534
0.870823 0.605805 0.257387
0.145754 0.670464 0.233264
0.237050 0.675629 0.238429
0.329891 0.680881 0.243681
0.423566 0.686180 0.248981
0.517820 0.691512 0.254313
0.612520 0.696870 0.259670
0.707584 0.702248 0.265048
0.802955 0.707643 0.270443
0.888732 0.712496 0.275296
0.163721 0.777498 0.251231
0.255017 0.782663 0.256396
0.347858 0.787915 0.261648
0.441533 0.793215 0.266948
0.535787 0.798547 0.272280
0.630487 0.803904 0.277637
0.725551 0.809282 0.283015
0.820922 0.814678 0.288410
0.906699 0.819530 0.293263
0.181305 0.882252 0.268815
0.272601 0.887417 0.273980
0.365442 0.892669 0.279232
0.459117 0.897968 0.284532
0.553371 0.903300 0.289864
0.648071 0.908658 0.295221
0.743135 0.914036 0.300599
0.838506 0.919431 0.305994
0.924283 0.924283 0.310847
0.041692 0.041692 0.216807
0.132988 0.046857 0.221972
0.225829 0.052109 0.227224
0.319504 0.057408 0.232523
0.413758 0.062740 0.237856
0.508458 0.068098 0.243213
0.603522 0.073476 0.248591
0.698893 0.078871 0.253986
0.784670 0.083723 0.258839
0.058893 0.144162 0.234008
0.150189 0.149327 0.239173
0.243030 0.154579 0.244425
0.336704 0.159878 0.249724
0.430959 0.165210 0.255056
0.525659 0.170568 0.260414
0.620723 0.175946 0.265792
0.716094 0.181341 0.271187
0.801871 0.186194 0.276040
0.076384 0.248361 0.251499
0.167680 0.253526 0.256664
0.260521 0.258778 0.261916
0.354195 0.264077 0.267215
0.448450 0.269409 0.272547
0.543150 0.274767 0.277905
0.638214 0.280145 0.283283
0.733585 0.285540 0.288678
0.819362 0.290393 0.293530
0.094031 0.353493 0.269147
0.185327 0.358658 0.274311
0.278169 0.363910 0.279563
0.371843 0.369209 0.284863
0.466097 0.374542 0.290195
0.560798 0.379899 0.295552
0.655862 0.385277 0.300930
0.751232 0.390672 0.306326
0.837010 0.395525 0.311178
0.111788 0.459275 0.286903
0.203084 0.464440 0.292068
0.295925 0.469692 0.297320
0.389600 0.474992 0.302620
0.483854 0.480324 0.307952
0.578554 0.485681 0.313309
0.673618 0.491059 0.318687
0.768989 0.496454 0.324082
0.854766 0.501307 0.328935
0.129629 0.565558 0.304744
0.220925 0.570723 0.309909
0.313766 0.575975 0.315161
0.407441 0.581274 0.320460
0.501695 0.586606 0.325792
0.596395 0.591964 0.331150
0.691459 0.597342 0.336528
0.786830 0.602737 0.341923
0.872607 0.607589 0.346776
0.147538 0.672248 0.322653
0.238834 0.677413 0.327818
0.331675 0.682665 0.333070
0.425350 0.687964 0.338370
0.519604 0.693296 0.343702
0.614304 0.698654 0.349059
0.709368 0.704032 0.354437
0.804739 0.709427 0.359832
0.890516 0.714280 0.364685
0.165505 0.779282 0.340620
0.256801 0.784447 0.345785
0.349642 0.789699 0.351037
0.443317 0.794999 0.356336
0.537571 0.800331 0.361669
0.632271 0.805688 0.367026
0.727335 0.811066 0.372404
0.822706 0.816462 0.377799
0.908483 0.821314 0.382652
0.183089 0.884036 0.358204
0.274385 0.889201 0.363369
0.367226 0.894453 0.368621
0.460901 0.899752 0.373921
0.555155 0.905084 0.379253
0.649855 0.910442 0.384610
0.744919 0.915820 0.389988
0.840290 0.921215 0.395383
0.926067 0.926067 0.400236
0.043492 0.043492 0.306992
0.134788 0.048657 0.312157
0.227629 0.053909 0.317409
0.321304 0.059208 0.322708
0.415558 0.064540 0.328041
0.510258 0.069898 0.333398
0.605322 0.075275 0.338776
0.700693 0.080671 0.344171
0.786470 0.085523 0.349024
0.060693 0.145962 0.324193
0.151988 0.151127 0.329358
0.244830 0.156379 0.334610
0.338504 0.161678 0.339909
0.432758 0.167010 0.345241
0.527459 0.172368 0.350599
0.622523 0.177746 0.355977
0.717894 0.183141 0.361372
0.803671 0.187994 0.366225
0.078184 0.250161 0.341684
0.169479 0.255326 0.346849
0.262321 0.260578 0.352101
0.355995 0.265877 0.357400
0.450249 0.271209 0.362732
0.544950 0.276567 0.368090
0.640014 0.281945 0.373468
0.735385 0.287340 0.378863
0.821162 0.292192 0.383716
0.095831 0.355293 0.359332
0.187127 0.360458 0.364496
0.279969 0.365710 0.369749
0.373643 0.371009 0.375048
0.467897 0.376341 0.380380
0.562597 0.381699 0.385737
0.657661 0.387077 0.391115
0.753032 0.392472 0.396511
0.838810 0.397325 0.401363
0.113588 0.461075 0.377088
0.204884 0.466240 0.382253
0.297725 0.471492 0.387505
0.391400 0.476791 0.392805
0.485654 0.482124 0.398137
0.580354 0.487481 0.403494
0.675418 0.492859 0.408872
0.770789 0.498254 0.414267
0.856566 0.503107 0.419120
0.131429 0.567358 0.394929
0.222725 0.572522 0.400094
0.315566 0.577775 0.405346
0.409241 0.583074 0.410645
0.503495 0.588406 0.415977
0.598195 0.593763 0.421335
0.693259 0.599141 0.426713
0.788630 0.604537 0.432108
0.874407 0.609389 0.436961
0.149338 0.674048 0.412838
0.240634 0.679213 0.418003
0.333475 0.684465 0.423255
0.427150 0.689764 0.428555
0.521404 0.695096 0.433887
0.616104 0.700454 0.439244
0.711168 0.705832 0.444622
0.806539 0.711227 0.450017
0.892316 0.716080 0.454870
0.167305 0.781082 0.430805
0.258601 0.786247 0.435970
0.351442 0.791499 0.441222
0.445117 0.796799 0.446521
0.539371 0.802131 0.451854
0.634071 0.807488 0.457211
0.729135 0.812866 0.462589
0.824506 0.818261 0.467984
0.910283 0.823114 0.472837
0.184889 0.885836 0.448389
0.276185 0.891000 0.453554
0.369026 0.896253 0.458806
0.462701 0.901552 0.464106
0.556955 0.906884 0.469438
0.651655 0.912242 0.474795
0.746719 0.917619 0.480173
0.842090 0.923015 0.485568
0.927867 0.927867 0.490421
0.045303 0.045303 0.397732
0.136599 0.050467 0.402897
0.229440 0.055720 0.408149
0.323115 0.061019 0.413449
0.417369 0.066351 0.418781
0.512069 0.071709 0.424138
0.607133 0.077086 0.429516
0.702504 0.082482 0.434912
0.788281 0.087334 0.439764
0.062503 0.147773 0.414933
0.153799 0.152938 0.420098
0.246641 0.158190 0.425350
0.340315 0.163489 0.430650
0.434569 0.168821 0.435982
0.529270 0.174179 0.441339
0.624334 0.179557 0.446717
0.719704 0.184952 0.452112
0.805482 0.189804 0.456965
0.079994 0.251972 0.432424
0.171290 0.257137 0.437589
0.264132 0.262389 0.442841
0.357806 0.267688 0.448141
0.452060 0.273020 0.453473
0.546761 0.278378 0.458830
0.641825 0.283756 0.464208
0.737195 0.289151 0.469603
0.822973 0.294003 0.474456
0.097642 0.357104 0.450072
0.188938 0.362269 0.455237
0.281780 0.367521 0.460489
0.375454 0.372820 0.465788
0.469708 0.378152 0.471120
0.564408 0.383510 0.476478
0.659472 0.388888 0.481856
0.754843 0.394283 0.487251
0.840621 0.399136 0.492104
0.115399 0.462886 0.467829
0.206695 0.468051 0.472993
0.299536 0.473303 0.478246
0.393211 0.478602 0.483545
0.487465 0.483934 0.488877
0.582165 0.489292 0.494234
0.677229 0.494670 0.499612
0.772600 0.500065 0.505008
0.858377 0.504918 0.509860
0.133240 0.569169 0.485669
0.224536 0.574333 0.490834
0.317377 0.579586 0.496086
0.411051 0.584885 0.501386
0.505306 0.590217 0.506718
0.600006 0.595574 0.512075
0.695070 0.600952 0.517453
0.790441 0.606348 0.522848
0.876218 0.611200 0.527701
0.151149 0.675859 0.503579
0.242445 0.681024 0.508743
0.335286 0.686276 0.513996
0.428961 0.691575 0.519295
0.523215 0.696907 0.524627
0.617915 0.702265 0.529984
0.712979 0.707643 0.535362
0.808350 0.713038 0.540758
0.894127 0.717891 0.545610
0.169116 0.782893 0.521546
0.260412 0.788058 0.526710
0.353253 0.793310 0.531963
0.446928 0.798610 0.537262
0.541182 0.803942 0.542594
0.635882 0.809299 0.547951
0.730946 0.814677 0.553329
0.826317 0.820072 0.558725
0.912094 0.824925 0.563577
0.186700 0.887647 0.539130
0.277996 0.892811 0.544294
0.370837 0.898064 0.549547
0.464512 0.903363 0.554846
0.558766 0.908695 0.560178
0.653466 0.914052 0.565535
0.748530 0.919430 0.570913
0.843901 0.924826 0.576309
0.929678 0.929678 0.581161
0.047122 0.047122 0.488901
0.138418 0.052287 0.494066
0.231260 0.057539 0.499318
0.324934 0.062839 0.504617
0.419188 0.068171 0.509949
0.513889 0.073528 0.515307
0.608952 0.078906 0.520685
0.704323 0.084301 0.526080
0.790101 0.089154 0.530933
0.064323 0.149592 0.506102
0.155619 0.154757 0.511267
0.248460 0.160009 0.516519
0.342135 0.165309 0.521818
0.436389 0.170641 0.527150
0.531089 0.175998 0.532508
0.626153 0.181376 0.537886
0.721524 0.186771 0.543281
0.807301 0.191624 0.548133
0.081814 0.253791 0.523593
0.173110 0.258956 0.528758
0.265951 0.264208 0.534010
0.359626 0.269508 0.539309
0.453880 0.274840 0.544641
0.548580 0.280197 0.549999
0.643644 0.285575 0.555377
0.739015 0.290970 0.560772
0.824792 0.295823 0.565624
0.099462 0.358923 0.541240
0.190758 0.364088 0.546405
0.283599 0.369340 0.551657
0.377273 0.374640 0.556957
0.471528 0.379972 0.562289
0.566228 0.385329 0.567646
0.661292 0.390707 0.573024
0.756663 0.396103 0.578419
0.842440 0.400955 0.583272
0.117218 0.464706 0.558997
0.208514 0.469870 0.564162
0.301356 0.475123 0.569414
0.395030 0.480422 0.574713
0.489284 0.485754 0.580046
0.583985 0.491111 0.585403
0.679049 0.496489 0.590781
0.774419 0.501885 0.596176
0.860197 0.506737 0.601029
0.135059 0.570988 0.576838
0.226355 0.576153 0.582003
0.319197 0.581405 0.587255
0.412871 0.586704 0.592554
0.507125 0.592037 0.597886
0.601825 0.597394 0.603244
0.696889 0.602772 0.608622
0.792260 0.608167 0.614017
0.878038 0.613020 0.618870
0.152968 0.677678 0.594747
0.244264 0.682843 0.599912
0.337106 0.688095 0.605164
0.430780 0.693395 0.610463
0.525034 0.698727 0.615796
0.619735 0.704084 0.621153
0.714799 0.709462 0.626531
0.810169 0.714857 0.631926
0.895947 0.719710 0.636779
0.170935 0.784713 0.612714
0.262231 0.789878 0.617879
0.355073 0.795130 0.623131
0.448747 0.800429 0.628430
0.543001 0.805761 0.633763
0.637702 0.811119 0.639120
0.732766 0.816497 0.644498
0.828136 0.821892 0.649893
0.913914 0.826745 0.654746
0.188519 0.889466 0.630298
0.279815 0.894631 0.635463
0.372657 0.899883 0.640715
0.466331 0.905183 0.646014
0.560585 0.910515 0.651347
0.655286 0.915872 0.656704
0.750350 0.921250 0.662082
0.845720 0.926645 0.667477
0.931498 0.931498 0.672330
0.048949 0.048949 0.580418
0.140245 0.054113 0.585583
0.233086 0.059366 0.590835
0.326761 0.064665 0.596135
0.421015 0.069997 0.601467
0.515715 0.075355 0.606824
0.610779 0.080732 0.612202
0.706150 0.086128 0.617597
0.791927 0.090980 0.622450
0.066149 0.151419 0.597619
0.157445 0.156584 0.602784
0.250287 0.161836 0.608036
0.343961 0.167135 0.613335
0.438215 0.172467 0.618668
0.532916 0.177825 0.624025
0.627980 0.183203 0.629403
0.723350 0.188598 0.634798
0.809128 0.193450 0.639651
0.083640 0.255618 0.615110
0.174936 0.260783 0.620275
0.267778 0.266035 0.625527
0.361452 0.271334 0.630826
0.455706 0.276666 0.636159
0.550407 0.282024 0.641516
0.645471 0.287402 0.646894
0.740841 0.292797 0.652289
0.826619 0.297649 0.657142
0.101288 0.360750 0.632758
0.192584 0.365915 0.637923
0.285426 0.371167 0.643175
0.379100 0.376466 0.648474
0.473354 0.381798 0.653806
0.568054 0.387156 0.659164
0.663118 0.392534 0.664542
0.758489 0.397929 0.669937
0.844267 0.402782 0.674789
0.119045 0.466532 0.650515
0.210341 0.471697 0.655679
0.303182 0.476949 0.660932
0.396857 0.482248 0.666231
0.491111 0.487580 0.671563
0.585811 0.492938 0.676920
0.680875 0.498316 0.682298
0.776246 0.503711 0.687694
0.862023 0.508564 0.692546
0.136886 0.572815 0.668355
0.228182 0.577979 0.673520
0.321023 0.583232 0.678772
0.414697 0.588531 0.684072
0.508952 0.593863 0.689404
0.603652 0.599220 0.694761
0.698716 0.604598 0.700139
0.794087 0.609994 0.705534
0.879864 0.614846 0.710387
0.154795 0.679505 0.686264
0.246091 0.684670 0.691429
0.338932 0.689922 0.696681
0.432607 0.695221 0.701981
0.526861 0.700553 0.707313
0.621561 0.705911 0.712670
0.716625 0.711289 0.718048
0.811996 0.716684 0.723444
0.897773 0.721537 0.728296
0.172762 0.786539 0.704231
0.264058 0.791704 0.709396
0.356899 0.796956 0.714648
0.450574 0.802256 0.719948
0.544828 0.807588 0.725280
0.639528 0.812945 0.730637
0.734592 0.818323 0.736015
0.829963 0.823718 0.741411
0.915740 0.828571 0.746263
0.190346 0.891293 0.721816
0.281642 0.896457 0.726980
0.374483 0.901710 0.732233
0.468158 0.907009 0.737532
0.562412 0.912341 0.742864
0.657112 0.917698 0.748221
0.752176 0.923076 0.753599
0.847547 0.928472 0.758995
0.933324 0.933324 0.763847
0.050781 0.050781 0.672230
0.142077 0.055946 0.677395
0.234918 0.061198 0.682647
0.328593 0.066497 0.687947
0.422847 0.071829 0.693279
0.517547 0.077187 0.698636
0.612611 0.082565 0.704014
0.707982 0.087960 0.709410
0.793760 0.092813 0.714262
0.067982 0.153251 0.689431
0.159278 0.158416 0.694596
0.252119 0.163668 0.699848
0.345794 0.168968 0.705148
0.440048 0.174300 0.710480
0.534748 0.179657 0.715837
0.629812 0.185035 0.721215
0.725183 0.190430 0.726610
0.810960 0.195283 0.731463
0.085473 0.257450 0.706922
0.176769 0.262615 0.712087
0.269610 0.267867 0.717339
0.363285 0.273166 0.722639
0.457539 0.278499 0.727971
0.552239 0.283856 0.733328
0.647303 0.289234 0.738706
0.742674 0.294629 0.744101
0.828451 0.299482 0.748954
0.103120 0.362582 0.724570
0.194416 0.367747 0.729735
0.287258 0.372999 0.734987
0.380932 0.378299 0.740286
0.475186 0.383631 0.745618
0.569887 0.388988 0.750976
0.664951 0.394366 0.756354
0.760321 0.399761 0.761749
0.846099 0.404614 0.766602
0.120877 0.468364 0.742327
0.212173 0.473529 0.747491
0.305015 0.478781 0.752744
0.398689 0.484081 0.758043
0.492943 0.489413 0.763375
0.587644 0.494770 0.768732
0.682707 0.500148 0.774110
0.778078 0.505543 0.779506
0.863856 0.510396 0.784358
0.138718 0.574647 0.760167
0.230014 0.579812 0.765332
0.322855 0.585064 0.770584
0.416530 0.590363 0.775884
0.510784 0.595695 0.781216
0.605484 0.601053 0.786573
0.700548 0.606431 0.791951
0.795919 0.611826 0.797346
0.881696 0.616679 0.802199
0.156627 0.681337 0.778077
0.247923 0.686502 0.783241
0.340765 0.691754 0.788494
0.434439 0.697054 0.793793
0.528693 0.702386 0.799125
0.623393 0.707743 0.804482
0.718457 0.713121 0.809860
0.813828 0.718516 0.815256
0.899606 0.723369 0.820108
0.174594 0.788372 0.796044
0.265890 0.793536 0.801208
0.358732 0.798789 0.806461
0.452406 0.804088 0.811760
0.546660 0.809420 0.817092
0.641360 0.814778 0.822449
0.736424 0.820155 0.827827
0.831795 0.825551 0.833223
0.917573 0.830403 0.838075
0.192178 0.893125 0.813628
0.283474 0.898290 0.818792
0.376316 0.903542 0.824045
0.469990 0.908841 0.829344
0.564244 0.914173 0.834676
0.658945 0.919531 0.840033
0.754008 0.924909 0.845411
0.849379 0.930304 0.850807
0.935157 0.935157 0.855659
0.052400 0.052400 0.753347
0.143696 0.057565 0.758512
0.236537 0.062817 0.763764
0.330212 0.068116 0.769063
0.424466 0.073448 0.774395
0.519166 0.078806 0.779753
0.614230 0.084184 0.785131
0.709601 0.089579 0.790526
0.795378 0.094432 0.795378
0.069601 0.154870 0.770548
0.160897 0.160035 0.775712
0.253738 0.165287 0.780965
0.347413 0.170586 0.786264
0.441667 0.175919 0.791596
0.536367 0.181276 0.796953
0.631431 0.186654 0.802331
0.726802 0.192049 0.807727
0.812579 0.196902 0.812579
0.087092 0.259069 0.788039
0.178388 0.264234 0.793203
0.271229 0.269486 0.798456
0.364904 0.274785 0.803755
0.459158 0.280117 0.809087
0.553858 0.285475 0.814444
0.648922 0.290853 0.819822
0.744293 0.296248 0.825218
0.830070 0.301101 0.830070
0.104739 0.364201 0.805686
0.196035 0.369366 0.810851
0.288877 0.374618 0.816103
0.382551 0.379918 0.821403
0.476805 0.385250 0.826735
0.571506 0.390607 0.832092
0.666570 0.395985 0.837470
0.761940 0.401380 0.842865
0.847718 0.406233 0.847718
0.122496 0.469983 0.823443
0.213792 0.475148 0.828608
0.306634 0.480400 0.833860
0.400308 0.485700 0.839159
0.494562 0.491032 0.844491
0.589262 0.496389 0.849849
0.684326 0.501767 0.855227
0.779697 0.507162 0.860622
0.865475 0.512015 0.865475
0.140337 0.576266 0.841284
0.231633 0.581431 0.846448
0.324474 0.586683 0.851701
0.418149 0.591982 0.857000
0.512403 0.597314 0.862332
0.607103 0.602672 0.867690
0.702167 0.608050 0.873067
0.797538 0.613445 0.878463
0.883315 0.618298 0.883315
0.158246 0.682956 0.859193
0.249542 0.688121 0.864358
0.342384 0.693373 0.869610
0.436058 0.698672 0.874909
0.530312 0.704005 0.880241
0.625012 0.709362 0.885599
0.720076 0.714740 0.890977
0.815447 0.720135 0.896372
0.901225 0.724988 0.901225
0.176213 0.789991 0.877160
0.267509 0.795155 0.882325
0.360350 0.800408 0.887577
0.454025 0.805707 0.892876
0.548279 0.811039 0.898208
0.642979 0.816396 0.903566
0.738043 0.821774 0.908944
0.833414 0.827170 0.914339
0.919192 0.832022 0.919192
0.193797 0.894744 0.894744
0.285093 0.899909 0.899909
0.377935 0.905161 0.905161
0.471609 0.910460 0.910460
0.565863 0.915792 0.915792
0.660563 0.921150 0.921150
0.755627 0.926528 0.926528
0.850998 0.931923 0.931923
0.936776 0.936776 0.936776
