public/luts/iphone/lk-iphone-vintage.cube
TITLE "LK iPhone Vintage"
LUT_3D_SIZE 17
DOMAIN_MIN 0.0 0.0 0.0
DOMAIN_MAX 1.0 1.0 1.0
0.058413 0.059880 0.055828
0.107075 0.062941 0.058890
0.154465 0.065923 0.061871
0.201154 0.068860 0.064808
0.247349 0.071766 0.067715
0.293162 0.074649 0.070597
0.338663 0.077511 0.073460
0.383901 0.080357 0.076306
0.428912 0.083189 0.079137
0.473723 0.086008 0.081957
0.518356 0.088816 0.084765
0.562827 0.091614 0.087562
0.607151 0.094403 0.090351
0.651340 0.097183 0.093131
0.695405 0.099955 0.095903
0.739353 0.102720 0.098668
0.763951 0.104267 0.100216
0.068699 0.115705 0.066114
0.117360 0.118767 0.069175
0.164751 0.121748 0.072156
0.211440 0.124686 0.075094
0.257635 0.127592 0.078000
0.303448 0.130474 0.080882
0.348949 0.133337 0.083745
0.394187 0.136183 0.086591
0.439198 0.139015 0.089423
0.484009 0.141834 0.092242
0.528641 0.144642 0.095050
0.573112 0.147440 0.097848
0.617436 0.150228 0.100636
0.661625 0.153008 0.103416
0.705690 0.155781 0.106189
0.749639 0.158545 0.108954
0.774237 0.160093 0.110501
0.078723 0.170113 0.076138
0.127384 0.173174 0.079199
0.174775 0.176156 0.082181
0.221464 0.179093 0.085118
0.267659 0.182000 0.088024
0.313472 0.184882 0.090906
0.358973 0.187744 0.093769
0.404211 0.190590 0.096615
0.449222 0.193422 0.099447
0.494033 0.196241 0.102266
0.538665 0.199049 0.105074
0.583136 0.201847 0.107872
0.627460 0.204636 0.110660
0.671649 0.207416 0.113441
0.715714 0.210188 0.116213
0.759663 0.212953 0.118978
0.784261 0.214501 0.120525
0.088600 0.223726 0.086015
0.137262 0.226787 0.089077
0.184652 0.229769 0.092058
0.231342 0.232706 0.094996
0.277537 0.235612 0.097902
0.323349 0.238495 0.100784
0.368851 0.241357 0.103647
0.414089 0.244203 0.106493
0.459100 0.247035 0.109325
0.503910 0.249854 0.112144
0.548543 0.252662 0.114952
0.593014 0.255460 0.117750
0.637338 0.258249 0.120538
0.681527 0.261029 0.123318
0.725592 0.263801 0.126090
0.769541 0.266566 0.128855
0.794139 0.268113 0.130403
0.098375 0.276776 0.095789
0.147036 0.279837 0.098851
0.194426 0.282819 0.101832
0.241116 0.285756 0.104770
0.287311 0.288663 0.107676
0.333123 0.291545 0.110558
0.378625 0.294407 0.113421
0.423863 0.297253 0.116267
0.468874 0.300085 0.119099
0.513684 0.302904 0.121918
0.558317 0.305712 0.124726
0.602788 0.308510 0.127524
0.647112 0.311299 0.130312
0.691301 0.314079 0.133092
0.735366 0.316851 0.135864
0.779315 0.319616 0.138629
0.803913 0.321164 0.140177
0.108068 0.329390 0.105483
0.156730 0.332452 0.108545
0.204120 0.335433 0.111526
0.250809 0.338371 0.114463
0.297004 0.341277 0.117370
0.342817 0.344159 0.120252
0.388318 0.347022 0.123115
0.433556 0.349868 0.125961
0.478567 0.352699 0.128792
0.523378 0.355519 0.131612
0.568010 0.358327 0.134419
0.612482 0.361124 0.137217
0.656806 0.363913 0.140006
0.700995 0.366693 0.142786
0.745060 0.369465 0.145558
0.789008 0.372230 0.148323
0.813606 0.373778 0.149871
0.117696 0.381648 0.115111
0.166358 0.384710 0.118173
0.213748 0.387691 0.121154
0.260438 0.390629 0.124092
0.306633 0.393535 0.126998
0.352445 0.396417 0.129880
0.397946 0.399280 0.132743
0.443185 0.402126 0.135589
0.488195 0.404958 0.138420
0.533006 0.407777 0.141240
0.577639 0.410585 0.144048
0.622110 0.413383 0.146845
0.666434 0.416171 0.149634
0.710623 0.418951 0.152414
0.754688 0.421724 0.155186
0.798636 0.424489 0.157951
0.823234 0.426036 0.159499
0.127269 0.433606 0.124684
0.175931 0.436668 0.127745
0.223321 0.439649 0.130727
0.270010 0.442586 0.133664
0.316205 0.445493 0.136571
0.362018 0.448375 0.139453
0.407519 0.451238 0.142315
0.452757 0.454084 0.145161
0.497768 0.456915 0.147993
0.542579 0.459735 0.150812
0.587211 0.462543 0.153620
0.631682 0.465340 0.156418
0.676007 0.468129 0.159207
0.720196 0.470909 0.161987
0.764260 0.473681 0.164759
0.808209 0.476446 0.167524
0.832807 0.477994 0.169072
0.136794 0.485304 0.134209
0.185456 0.488365 0.137270
0.232846 0.491347 0.140252
0.279535 0.494284 0.143189
0.325730 0.497191 0.146095
0.371543 0.500073 0.148978
0.417044 0.502935 0.151840
0.462282 0.505781 0.154686
0.507293 0.508613 0.157518
0.552104 0.511432 0.160337
0.596736 0.514240 0.163145
0.641207 0.517038 0.165943
0.685531 0.519827 0.168732
0.729721 0.522607 0.171512
0.773785 0.525379 0.174284
0.817734 0.528144 0.177049
0.842332 0.529692 0.178596
0.146277 0.536773 0.143692
0.194938 0.539834 0.146753
0.242329 0.542816 0.149734
0.289018 0.545753 0.152672
0.335213 0.548659 0.155578
0.381026 0.551542 0.158460
0.426527 0.554404 0.161323
0.471765 0.557250 0.164169
0.516776 0.560082 0.167001
0.561587 0.562901 0.169820
0.606219 0.565709 0.172628
0.650690 0.568507 0.175426
0.695014 0.571296 0.178214
0.739203 0.574076 0.180994
0.783268 0.576848 0.183767
0.827217 0.579613 0.186532
0.851815 0.581160 0.188079
0.155722 0.588037 0.153137
0.204383 0.591099 0.156198
0.251774 0.594080 0.159179
0.298463 0.597017 0.162117
0.344658 0.599924 0.165023
0.390471 0.602806 0.167905
0.435972 0.605669 0.170768
0.481210 0.608515 0.173614
0.526221 0.611346 0.176446
0.571032 0.614166 0.179265
0.615664 0.616973 0.182073
0.660135 0.619771 0.184871
0.704459 0.622560 0.187659
0.748648 0.625340 0.190439
0.792713 0.628112 0.193212
0.836662 0.630877 0.195977
0.861260 0.632425 0.197524
0.165133 0.639117 0.162548
0.213794 0.642178 0.165609
0.261185 0.645160 0.168590
0.307874 0.648097 0.171528
0.354069 0.651003 0.174434
0.399882 0.653886 0.177316
0.445383 0.656748 0.180179
0.490621 0.659594 0.183025
0.535632 0.662426 0.185857
0.580443 0.665245 0.188676
0.625075 0.668053 0.191484
0.669546 0.670851 0.194282
0.713870 0.673640 0.197070
0.758059 0.676420 0.199850
0.802124 0.679192 0.202623
0.846073 0.681957 0.205388
0.870671 0.683504 0.206935
0.174513 0.690028 0.171928
0.223174 0.693090 0.174989
0.270565 0.696071 0.177970
0.317254 0.699009 0.180908
0.363449 0.701915 0.183814
0.409262 0.704797 0.186696
0.454763 0.707660 0.189559
0.500001 0.710506 0.192405
0.545012 0.713338 0.195237
0.589823 0.716157 0.198056
0.634455 0.718965 0.200864
0.678926 0.721762 0.203662
0.723250 0.724551 0.206450
0.767439 0.727331 0.209230
0.811504 0.730103 0.212003
0.855453 0.732868 0.214768
0.880051 0.734416 0.216315
0.183864 0.740785 0.181279
0.232526 0.743847 0.184340
0.279916 0.746828 0.187322
0.326605 0.749765 0.190259
0.372800 0.752672 0.193166
0.418613 0.755554 0.196048
0.464114 0.758417 0.198910
0.509352 0.761263 0.201757
0.554363 0.764094 0.204588
0.599174 0.766914 0.207407
0.643806 0.769722 0.210215
0.688277 0.772519 0.213013
0.732602 0.775308 0.215802
0.776791 0.778088 0.218582
0.820855 0.780860 0.221354
0.864804 0.783625 0.224119
0.889402 0.785173 0.225667
0.193189 0.791399 0.190604
0.241851 0.794461 0.193666
0.289241 0.797442 0.196647
0.335931 0.800380 0.199585
0.382126 0.803286 0.202491
0.427938 0.806168 0.205373
0.473439 0.809031 0.208236
0.518678 0.811877 0.211082
0.563688 0.814708 0.213913
0.608499 0.817528 0.216733
0.653132 0.820336 0.219541
0.697603 0.823133 0.222338
0.741927 0.825922 0.225127
0.786116 0.828702 0.227907
0.830181 0.831474 0.230679
0.874129 0.834239 0.233444
0.898727 0.835787 0.234992
0.202490 0.841880 0.199905
0.251152 0.844942 0.202966
0.298542 0.847923 0.205948
0.345231 0.850861 0.208885
0.391426 0.853767 0.211792
0.437239 0.856649 0.214674
0.482740 0.859512 0.217536
0.527978 0.862358 0.220382
0.572989 0.865190 0.223214
0.617800 0.868009 0.226033
0.662432 0.870817 0.228841
0.706903 0.873615 0.231639
0.751228 0.876403 0.234428
0.795417 0.879183 0.237208
0.839481 0.881956 0.239980
0.883430 0.884721 0.242745
0.908028 0.886268 0.244293
0.207405 0.868555 0.204820
0.256066 0.871617 0.207881
0.303457 0.874598 0.210862
0.350146 0.877535 0.213800
0.396341 0.880442 0.216706
0.442154 0.883324 0.219588
0.487655 0.886187 0.222451
0.532893 0.889033 0.225297
0.577904 0.891864 0.228129
0.622715 0.894684 0.230948
0.667347 0.897492 0.233756
0.711818 0.900289 0.236554
0.756142 0.903078 0.239342
0.800331 0.905858 0.242122
0.844396 0.908630 0.244895
0.888345 0.911395 0.247660
0.912943 0.912943 0.249207
0.059318 0.060785 0.096420
0.107980 0.063846 0.099481
0.155370 0.066828 0.102462
0.202059 0.069765 0.105400
0.248254 0.072671 0.108306
0.294067 0.075553 0.111188
0.339568 0.078416 0.114051
0.384806 0.081262 0.116897
0.429817 0.084094 0.119729
0.474628 0.086913 0.122548
0.519260 0.089721 0.125356
0.563731 0.092519 0.128154
0.608056 0.095307 0.130942
0.652245 0.098087 0.133722
0.696309 0.100860 0.136495
0.740258 0.103625 0.139260
0.764856 0.105172 0.140807
0.069604 0.116610 0.106705
0.118265 0.119672 0.109766
0.165655 0.122653 0.112748
0.212345 0.125591 0.115685
0.258540 0.128497 0.118591
0.304352 0.131379 0.121474
0.349854 0.134242 0.124336
0.395092 0.137088 0.127182
0.440103 0.139920 0.130014
0.484913 0.142739 0.132833
0.529546 0.145547 0.135641
0.574017 0.148344 0.138439
0.618341 0.151133 0.141228
0.662530 0.153913 0.144008
0.706595 0.156685 0.146780
0.750544 0.159450 0.149545
0.775142 0.160998 0.151092
0.079628 0.171018 0.116729
0.128289 0.174079 0.119791
0.175680 0.177061 0.122772
0.222369 0.179998 0.125709
0.268564 0.182904 0.128616
0.314377 0.185787 0.131498
0.359878 0.188649 0.134360
0.405116 0.191495 0.137207
0.450127 0.194327 0.140038
0.494938 0.197146 0.142857
0.539570 0.199954 0.145665
0.584041 0.202752 0.148463
0.628365 0.205541 0.151252
0.672554 0.208321 0.154032
0.716619 0.211093 0.156804
0.760568 0.213858 0.159569
0.785166 0.215405 0.161117
0.089505 0.224631 0.126607
0.138167 0.227692 0.129668
0.185557 0.230674 0.132650
0.232246 0.233611 0.135587
0.278442 0.236517 0.138493
0.324254 0.239399 0.141376
0.369755 0.242262 0.144238
0.414994 0.245108 0.147084
0.460004 0.247940 0.149916
0.504815 0.250759 0.152735
0.549448 0.253567 0.155543
0.593919 0.256365 0.158341
0.638243 0.259153 0.161129
0.682432 0.261933 0.163910
0.726497 0.264706 0.166682
0.770445 0.267471 0.169447
0.795043 0.269018 0.170994
0.099279 0.277681 0.136381
0.147941 0.280742 0.139442
0.195331 0.283724 0.142424
0.242021 0.286661 0.145361
0.288216 0.289567 0.148267
0.334028 0.292450 0.151150
0.379529 0.295312 0.154012
0.424768 0.298158 0.156858
0.469778 0.300990 0.159690
0.514589 0.303809 0.162509
0.559222 0.306617 0.165317
0.603693 0.309415 0.168115
0.648017 0.312204 0.170904
0.692206 0.314984 0.173684
0.736271 0.317756 0.176456
0.780219 0.320521 0.179221
0.804817 0.322068 0.180768
0.108973 0.330295 0.146074
0.157635 0.333357 0.149136
0.205025 0.336338 0.152117
0.251714 0.339275 0.155055
0.297909 0.342182 0.157961
0.343722 0.345064 0.160843
0.389223 0.347926 0.163706
0.434461 0.350773 0.166552
0.479472 0.353604 0.169384
0.524283 0.356424 0.172203
0.568915 0.359231 0.175011
0.613386 0.362029 0.177809
0.657711 0.364818 0.180597
0.701900 0.367598 0.183377
0.745964 0.370370 0.186150
0.789913 0.373135 0.188915
0.814511 0.374683 0.190462
0.118601 0.382553 0.155703
0.167263 0.385615 0.158764
0.214653 0.388596 0.161746
0.261342 0.391534 0.164683
0.307537 0.394440 0.167589
0.353350 0.397322 0.170471
0.398851 0.400185 0.173334
0.444089 0.403031 0.176180
0.489100 0.405863 0.179012
0.533911 0.408682 0.181831
0.578543 0.411490 0.184639
0.623014 0.414288 0.187437
0.667339 0.417076 0.190225
0.711528 0.419856 0.193005
0.755593 0.422628 0.195778
0.799541 0.425393 0.198543
0.824139 0.426941 0.200090
0.128174 0.434511 0.165275
0.176836 0.437573 0.168337
0.224226 0.440554 0.171318
0.270915 0.443491 0.174256
0.317110 0.446398 0.177162
0.362923 0.449280 0.180044
0.408424 0.452142 0.182907
0.453662 0.454989 0.185753
0.498673 0.457820 0.188585
0.543484 0.460639 0.191404
0.588116 0.463447 0.194212
0.632587 0.466245 0.197010
0.676911 0.469034 0.199798
0.721101 0.471814 0.202578
0.765165 0.474586 0.205350
0.809114 0.477351 0.208115
0.833712 0.478899 0.209663
0.137699 0.486209 0.174800
0.186360 0.489270 0.177862
0.233751 0.492252 0.180843
0.280440 0.495189 0.183781
0.326635 0.498095 0.186687
0.372448 0.500978 0.189569
0.417949 0.503840 0.192432
0.463187 0.506686 0.195278
0.508198 0.509518 0.198109
0.553009 0.512337 0.200929
0.597641 0.515145 0.203737
0.642112 0.517943 0.206534
0.686436 0.520732 0.209323
0.730626 0.523512 0.212103
0.774690 0.526284 0.214875
0.818639 0.529049 0.217640
0.843237 0.530596 0.219188
0.147181 0.537678 0.184283
0.195843 0.540739 0.187344
0.243233 0.543721 0.190326
0.289923 0.546658 0.193263
0.336118 0.549564 0.196169
0.381930 0.552446 0.199052
0.427432 0.555309 0.201914
0.472670 0.558155 0.204760
0.517681 0.560987 0.207592
0.562491 0.563806 0.210411
0.607124 0.566614 0.213219
0.651595 0.569412 0.216017
0.695919 0.572200 0.218806
0.740108 0.574980 0.221586
0.784173 0.577753 0.224358
0.828122 0.580518 0.227123
0.852720 0.582065 0.228670
0.156627 0.588942 0.193728
0.205288 0.592003 0.196789
0.252678 0.594985 0.199771
0.299368 0.597922 0.202708
0.345563 0.600829 0.205614
0.391375 0.603711 0.208497
0.436877 0.606573 0.211359
0.482115 0.609419 0.214205
0.527126 0.612251 0.217037
0.571936 0.615070 0.219856
0.616569 0.617878 0.222664
0.661040 0.620676 0.225462
0.705364 0.623465 0.228251
0.749553 0.626245 0.231031
0.793618 0.629017 0.233803
0.837567 0.631782 0.236568
0.862165 0.633330 0.238115
0.166037 0.640022 0.203139
0.214699 0.643083 0.206200
0.262089 0.646065 0.209182
0.308779 0.649002 0.212119
0.354974 0.651908 0.215025
0.400786 0.654790 0.217908
0.446288 0.657653 0.220770
0.491526 0.660499 0.223616
0.536537 0.663331 0.226448
0.581347 0.666150 0.229267
0.625980 0.668958 0.232075
0.670451 0.671756 0.234873
0.714775 0.674544 0.237662
0.758964 0.677325 0.240442
0.803029 0.680097 0.243214
0.846978 0.682862 0.245979
0.871576 0.684409 0.247526
0.175417 0.690933 0.212519
0.224079 0.693995 0.215580
0.271469 0.696976 0.218562
0.318159 0.699913 0.221499
0.364354 0.702820 0.224405
0.410166 0.705702 0.227288
0.455668 0.708565 0.230150
0.500906 0.711411 0.232996
0.545917 0.714242 0.235828
0.590727 0.717062 0.238647
0.635360 0.719870 0.241455
0.679831 0.722667 0.244253
0.724155 0.725456 0.247042
0.768344 0.728236 0.249822
0.812409 0.731008 0.252594
0.856358 0.733773 0.255359
0.880956 0.735321 0.256906
0.184769 0.741690 0.221870
0.233431 0.744752 0.224932
0.280821 0.747733 0.227913
0.327510 0.750670 0.230851
0.373705 0.753577 0.233757
0.419518 0.756459 0.236639
0.465019 0.759321 0.239502
0.510257 0.762168 0.242348
0.555268 0.764999 0.245180
0.600079 0.767818 0.247999
0.644711 0.770626 0.250807
0.689182 0.773424 0.253605
0.733506 0.776213 0.256393
0.777696 0.778993 0.259173
0.821760 0.781765 0.261945
0.865709 0.784530 0.264710
0.890307 0.786078 0.266258
0.194094 0.792304 0.231196
0.242756 0.795366 0.234257
0.290146 0.798347 0.237239
0.336835 0.801284 0.240176
0.383030 0.804191 0.243082
0.428843 0.807073 0.245964
0.474344 0.809935 0.248827
0.519582 0.812782 0.251673
0.564593 0.815613 0.254505
0.609404 0.818433 0.257324
0.654036 0.821240 0.260132
0.698507 0.824038 0.262930
0.742832 0.826827 0.265718
0.787021 0.829607 0.268498
0.831086 0.832379 0.271271
0.875034 0.835144 0.274036
0.899632 0.836692 0.275583
0.203395 0.842785 0.240496
0.252057 0.845847 0.243558
0.299447 0.848828 0.246539
0.346136 0.851766 0.249477
0.392331 0.854672 0.252383
0.438144 0.857554 0.255265
0.483645 0.860417 0.258128
0.528883 0.863263 0.260974
0.573894 0.866095 0.263806
0.618705 0.868914 0.266625
0.663337 0.871722 0.269433
0.707808 0.874520 0.272231
0.752132 0.877308 0.275019
0.796322 0.880088 0.277799
0.840386 0.882860 0.280571
0.884335 0.885625 0.283336
0.908933 0.887173 0.284884
0.208309 0.869460 0.245411
0.256971 0.872521 0.248472
0.304361 0.875503 0.251454
0.351051 0.878440 0.254391
0.397246 0.881347 0.257297
0.443058 0.884229 0.260180
0.488560 0.887091 0.263042
0.533798 0.889937 0.265888
0.578809 0.892769 0.268720
0.623619 0.895588 0.271539
0.668252 0.898396 0.274347
0.712723 0.901194 0.277145
0.757047 0.903983 0.279934
0.801236 0.906763 0.282714
0.845301 0.909535 0.285486
0.889250 0.912300 0.288251
0.913848 0.913848 0.289798
0.060220 0.061686 0.136860
0.108881 0.064748 0.139921
0.156272 0.067729 0.142903
0.202961 0.070666 0.145840
0.249156 0.073573 0.148746
0.294969 0.076455 0.151629
0.340470 0.079318 0.154491
0.385708 0.082164 0.157337
0.430719 0.084995 0.160169
0.475530 0.087815 0.162988
0.520162 0.090622 0.165796
0.564633 0.093420 0.168594
0.608957 0.096209 0.171383
0.653146 0.098989 0.174163
0.697211 0.101761 0.176935
0.741160 0.104526 0.179700
0.765758 0.106074 0.181247
0.070505 0.117512 0.147145
0.119167 0.120573 0.150207
0.166557 0.123555 0.153188
0.213246 0.126492 0.156126
0.259441 0.129398 0.159032
0.305254 0.132281 0.161914
0.350755 0.135143 0.164777
0.395993 0.137989 0.167623
0.441004 0.140821 0.170454
0.485815 0.143640 0.173274
0.530447 0.146448 0.176082
0.574918 0.149246 0.178879
0.619242 0.152035 0.181668
0.663432 0.154815 0.184448
0.707496 0.157587 0.187220
0.751445 0.160352 0.189985
0.776043 0.161899 0.191533
0.080529 0.171919 0.157169
0.129191 0.174981 0.160231
0.176581 0.177962 0.163212
0.223270 0.180900 0.166150
0.269465 0.183806 0.169056
0.315278 0.186688 0.171938
0.360779 0.189551 0.174801
0.406017 0.192397 0.177647
0.451028 0.195229 0.180479
0.495839 0.198048 0.183298
0.540471 0.200856 0.186106
0.584942 0.203653 0.188904
0.629267 0.206442 0.191692
0.673456 0.209222 0.194472
0.717520 0.211994 0.197244
0.761469 0.214759 0.200009
0.786067 0.216307 0.201557
0.090407 0.225532 0.167047
0.139068 0.228594 0.170108
0.186459 0.231575 0.173090
0.233148 0.234512 0.176027
0.279343 0.237419 0.178934
0.325156 0.240301 0.181816
0.370657 0.243164 0.184678
0.415895 0.246010 0.187524
0.460906 0.248841 0.190356
0.505717 0.251661 0.193175
0.550349 0.254468 0.195983
0.594820 0.257266 0.198781
0.639144 0.260055 0.201570
0.683334 0.262835 0.204350
0.727398 0.265607 0.207122
0.771347 0.268372 0.209887
0.795945 0.269920 0.211435
0.100181 0.278582 0.176821
0.148843 0.281644 0.179883
0.196233 0.284625 0.182864
0.242922 0.287563 0.185801
0.289117 0.290469 0.188708
0.334930 0.293351 0.191590
0.380431 0.296214 0.194452
0.425669 0.299060 0.197299
0.470680 0.301892 0.200130
0.515491 0.304711 0.202949
0.560123 0.307519 0.205757
0.604594 0.310317 0.208555
0.648918 0.313105 0.211344
0.693108 0.315885 0.214124
0.737172 0.318657 0.216896
0.781121 0.321422 0.219661
0.805719 0.322970 0.221209
0.109875 0.331197 0.186515
0.158536 0.334258 0.189576
0.205926 0.337239 0.192558
0.252616 0.340177 0.195495
0.298811 0.343083 0.198401
0.344624 0.345965 0.201284
0.390125 0.348828 0.204146
0.435363 0.351674 0.206992
0.480374 0.354506 0.209824
0.525185 0.357325 0.212643
0.569817 0.360133 0.215451
0.614288 0.362931 0.218249
0.658612 0.365719 0.221038
0.702801 0.368499 0.223818
0.746866 0.371272 0.226590
0.790815 0.374037 0.229355
0.815413 0.375584 0.230902
0.119503 0.383455 0.196143
0.168164 0.386516 0.199204
0.215555 0.389498 0.202186
0.262244 0.392435 0.205123
0.308439 0.395341 0.208029
0.354252 0.398224 0.210912
0.399753 0.401086 0.213774
0.444991 0.403932 0.216620
0.490002 0.406764 0.219452
0.534813 0.409583 0.222271
0.579445 0.412391 0.225079
0.623916 0.415189 0.227877
0.668240 0.417978 0.230666
0.712429 0.420758 0.233446
0.756494 0.423530 0.236218
0.800443 0.426295 0.238983
0.825041 0.427842 0.240530
0.129075 0.435413 0.205716
0.177737 0.438474 0.208777
0.225127 0.441455 0.211759
0.271817 0.444393 0.214696
0.318012 0.447299 0.217602
0.363824 0.450181 0.220484
0.409325 0.453044 0.223347
0.454564 0.455890 0.226193
0.499575 0.458722 0.229025
0.544385 0.461541 0.231844
0.589018 0.464349 0.234652
0.633489 0.467147 0.237450
0.677813 0.469935 0.240238
0.722002 0.472715 0.243019
0.766067 0.475488 0.245791
0.810016 0.478253 0.248556
0.834613 0.479800 0.250103
0.138600 0.487110 0.215241
0.187262 0.490172 0.218302
0.234652 0.493153 0.221283
0.281341 0.496091 0.224221
0.327537 0.498997 0.227127
0.373349 0.501879 0.230009
0.418850 0.504742 0.232872
0.464089 0.507588 0.235718
0.509099 0.510420 0.238550
0.553910 0.513239 0.241369
0.598543 0.516047 0.244177
0.643014 0.518844 0.246975
0.687338 0.521633 0.249763
0.731527 0.524413 0.252543
0.775592 0.527185 0.255316
0.819540 0.529950 0.258081
0.844138 0.531498 0.259628
0.148083 0.538579 0.224723
0.196745 0.541641 0.227785
0.244135 0.544622 0.230766
0.290824 0.547559 0.233703
0.337019 0.550466 0.236610
0.382832 0.553348 0.239492
0.428333 0.556210 0.242355
0.473571 0.559057 0.245201
0.518582 0.561888 0.248032
0.563393 0.564708 0.250852
0.608025 0.567515 0.253660
0.652496 0.570313 0.256457
0.696820 0.573102 0.259246
0.741010 0.575882 0.262026
0.785074 0.578654 0.264798
0.829023 0.581419 0.267563
0.853621 0.582967 0.269111
0.157528 0.589843 0.234168
0.206190 0.592905 0.237230
0.253580 0.595886 0.240211
0.300269 0.598824 0.243148
0.346464 0.601730 0.246055
0.392277 0.604612 0.248937
0.437778 0.607475 0.251800
0.483016 0.610321 0.254646
0.528027 0.613153 0.257477
0.572838 0.615972 0.260297
0.617470 0.618780 0.263105
0.661941 0.621578 0.265902
0.706265 0.624366 0.268691
0.750455 0.627146 0.271471
0.794519 0.629919 0.274243
0.838468 0.632683 0.277008
0.863066 0.634231 0.278556
0.166939 0.640923 0.243579
0.215601 0.643985 0.246641
0.262991 0.646966 0.249622
0.309680 0.649903 0.252559
0.355875 0.652810 0.255466
0.401688 0.655692 0.258348
0.447189 0.658555 0.261211
0.492427 0.661401 0.264057
0.537438 0.664232 0.266888
0.582249 0.667052 0.269708
0.626881 0.669860 0.272516
0.671352 0.672657 0.275313
0.715676 0.675446 0.278102
0.759866 0.678226 0.280882
0.803930 0.680998 0.283654
0.847879 0.683763 0.286419
0.872477 0.685311 0.287967
0.176319 0.691835 0.252959
0.224981 0.694896 0.256021
0.272371 0.697878 0.259002
0.319060 0.700815 0.261939
0.365255 0.703721 0.264846
0.411068 0.706603 0.267728
0.456569 0.709466 0.270591
0.501807 0.712312 0.273437
0.546818 0.715144 0.276268
0.591629 0.717963 0.279088
0.636261 0.720771 0.281896
0.680732 0.723569 0.284693
0.725056 0.726357 0.287482
0.769246 0.729137 0.290262
0.813310 0.731910 0.293034
0.857259 0.734675 0.295799
0.881857 0.736222 0.297347
0.185670 0.742592 0.262311
0.234332 0.745653 0.265372
0.281722 0.748634 0.268354
0.328412 0.751572 0.271291
0.374607 0.754478 0.274197
0.420419 0.757360 0.277079
0.465921 0.760223 0.279942
0.511159 0.763069 0.282788
0.556170 0.765901 0.285620
0.600980 0.768720 0.288439
0.645613 0.771528 0.291247
0.690084 0.774326 0.294045
0.734408 0.777114 0.296833
0.778597 0.779894 0.299614
0.822662 0.782667 0.302386
0.866611 0.785432 0.305151
0.891209 0.786979 0.306698
0.194996 0.793206 0.271636
0.243657 0.796267 0.274697
0.291048 0.799249 0.277679
0.337737 0.802186 0.280616
0.383932 0.805092 0.283522
0.429745 0.807974 0.286405
0.475246 0.810837 0.289267
0.520484 0.813683 0.292113
0.565495 0.816515 0.294945
0.610306 0.819334 0.297764
0.654938 0.822142 0.300572
0.699409 0.824940 0.303370
0.743733 0.827728 0.306159
0.787922 0.830508 0.308939
0.831987 0.833281 0.311711
0.875936 0.836046 0.314476
0.900534 0.837593 0.316023
0.204296 0.843687 0.280937
0.252958 0.846748 0.283998
0.300348 0.849730 0.286980
0.347038 0.852667 0.289917
0.393233 0.855573 0.292823
0.439045 0.858456 0.295705
0.484546 0.861318 0.298568
0.529785 0.864164 0.301414
0.574796 0.866996 0.304246
0.619606 0.869815 0.307065
0.664239 0.872623 0.309873
0.708710 0.875421 0.312671
0.753034 0.878210 0.315459
0.797223 0.880990 0.318239
0.841288 0.883762 0.321012
0.885236 0.886527 0.323777
0.909834 0.888074 0.325324
0.209211 0.870361 0.285851
0.257873 0.873423 0.288913
0.305263 0.876404 0.291894
0.351952 0.879342 0.294831
0.398147 0.882248 0.297738
0.443960 0.885130 0.300620
0.489461 0.887993 0.303483
0.534699 0.890839 0.306329
0.579710 0.893671 0.309160
0.624521 0.896490 0.311980
0.669153 0.899298 0.314788
0.713624 0.902096 0.317585
0.757948 0.904884 0.320374
0.802138 0.907664 0.323154
0.846202 0.910437 0.325926
0.890151 0.913202 0.328691
0.914749 0.914749 0.330239
0.061117 0.062583 0.177101
0.109778 0.065645 0.180163
0.157169 0.068626 0.183144
0.203858 0.071563 0.186081
0.250053 0.074470 0.188988
0.295866 0.077352 0.191870
0.341367 0.080215 0.194733
0.386605 0.083061 0.197579
0.431616 0.085892 0.200410
0.476427 0.088712 0.203230
0.521059 0.091520 0.206038
0.565530 0.094317 0.208835
0.609854 0.097106 0.211624
0.654043 0.099886 0.214404
0.698108 0.102658 0.217176
0.742057 0.105423 0.219941
0.766655 0.106971 0.221489
0.071402 0.118409 0.187387
