public/luts/iphone/lk-iphone-night.cube
TITLE "LK iPhone Night"
LUT_3D_SIZE 9
DOMAIN_MIN 0.0 0.0 0.0
DOMAIN_MAX 1.0 1.0 1.0
0.000000 0.000000 0.000000
0.158775 0.000000 0.000000
0.308769 0.000000 0.000000
0.450079 0.000000 0.000000
0.586117 0.000000 0.000000
0.718391 0.000000 0.000000
0.847752 0.000000 0.000000
0.974748 0.000000 0.000000
1.000000 0.000000 0.000000
0.000000 0.137944 0.000000
0.147327 0.134243 0.000000
0.297321 0.130747 0.000000
0.438631 0.127453 0.000000
0.574669 0.124282 0.000000
0.706943 0.121198 0.000000
0.836305 0.118183 0.000000
0.963301 0.115223 0.000000
1.000000 0.113268 0.000000
0.000000 0.274424 0.000000
0.136001 0.270723 0.000000
0.285995 0.267226 0.000000
0.427305 0.263933 0.000000
0.563343 0.260762 0.000000
0.695617 0.257678 0.000000
0.824979 0.254663 0.000000
0.951974 0.251703 0.000000
1.000000 0.249748 0.000000
0.000000 0.403466 0.000000
0.125292 0.399765 0.000000
0.275286 0.396269 0.000000
0.416596 0.392975 0.000000
0.552634 0.389804 0.000000
0.684908 0.386721 0.000000
0.814270 0.383705 0.000000
0.941265 0.380745 0.000000
1.000000 0.378790 0.000000
0.000000 0.528017 0.000000
0.114956 0.524316 0.000000
0.264950 0.520820 0.000000
0.406260 0.517526 0.000000
0.542298 0.514355 0.000000
0.674572 0.511272 0.000000
0.803933 0.508257 0.000000
0.930929 0.505296 0.000000
1.000000 0.503342 0.000000
0.000000 0.649367 0.000000
0.104885 0.645666 0.000000
0.254879 0.642170 0.000000
0.396190 0.638876 0.000000
0.532227 0.635705 0.000000
0.664501 0.632622 0.000000
0.793863 0.629607 0.000000
0.920859 0.626646 0.000000
1.000000 0.624692 0.000000
0.000000 0.768241 0.000000
0.095020 0.764540 0.000000
0.245014 0.761044 0.000000
0.386324 0.757750 0.000000
0.522362 0.754579 0.000000
0.654636 0.751496 0.000000
0.783998 0.748480 0.000000
0.910994 0.745520 0.000000
0.994854 0.743565 0.000000
0.000000 0.885103 0.000000
0.085322 0.881402 0.000000
0.235316 0.877906 0.000000
0.376626 0.874612 0.000000
0.512664 0.871441 0.000000
0.644938 0.868357 0.000000
0.774300 0.865342 0.000000
0.901295 0.862382 0.000000
0.985156 0.860427 0.000000
0.000000 1.000000 0.000000
0.075764 0.996573 0.000000
0.225758 0.993077 0.000000
0.367069 0.989783 0.000000
0.503106 0.986612 0.000000
0.635380 0.983529 0.000000
0.764742 0.980513 0.000000
0.891738 0.977553 0.000000
0.975598 0.975598 0.000000
0.000000 0.000000 0.165194
0.157487 0.000000 0.161493
0.307481 0.000000 0.157997
0.448791 0.000000 0.154703
0.584829 0.000000 0.151532
0.717103 0.000000 0.148449
0.846465 0.000000 0.145434
0.973460 0.000000 0.142473
1.000000 0.000000 0.140519
0.000000 0.136656 0.153747
0.146039 0.132955 0.150046
0.296033 0.129459 0.146549
0.437344 0.126165 0.143255
0.573381 0.122994 0.140084
0.705655 0.119911 0.137001
0.835017 0.116895 0.133986
0.962013 0.113935 0.131026
1.000000 0.111980 0.129071
0.000000 0.273136 0.142420
0.134713 0.269435 0.138719
0.284707 0.265939 0.135223
0.426017 0.262645 0.131929
0.562055 0.259474 0.128758
0.694329 0.256391 0.125675
0.823691 0.253375 0.122660
0.950687 0.250415 0.119699
1.000000 0.248460 0.117745
0.000000 0.402178 0.131711
0.124004 0.398477 0.128010
0.273998 0.394981 0.124514
0.415308 0.391687 0.121220
0.551346 0.388516 0.118049
0.683620 0.385433 0.114966
0.812982 0.382418 0.111951
0.939978 0.379457 0.108991
1.000000 0.377503 0.107036
0.000000 0.526729 0.121375
0.113668 0.523028 0.117674
0.263662 0.519532 0.114178
0.404972 0.516238 0.110884
0.541010 0.513067 0.107713
0.673284 0.509984 0.104630
0.802646 0.506969 0.101615
0.929641 0.504009 0.098654
1.000000 0.502054 0.096700
0.000000 0.648079 0.111305
0.103598 0.644378 0.107604
0.253591 0.640882 0.104107
0.394902 0.637588 0.100814
0.530939 0.634417 0.097643
0.663213 0.631334 0.094559
0.792575 0.628319 0.091544
0.919571 0.625358 0.088584
1.000000 0.623404 0.086629
0.000000 0.766953 0.101440
0.093732 0.763252 0.097739
0.243726 0.759756 0.094242
0.385037 0.756462 0.090948
0.521074 0.753291 0.087777
0.653348 0.750208 0.084694
0.782710 0.747193 0.081679
0.909706 0.744232 0.078719
0.993566 0.742278 0.076764
0.000000 0.883815 0.091741
0.084034 0.880114 0.088041
0.234028 0.876618 0.084544
0.375339 0.873324 0.081250
0.511376 0.870153 0.078079
0.643650 0.867070 0.074996
0.773012 0.864054 0.071981
0.900008 0.861094 0.069021
0.983868 0.859139 0.067066
0.000000 0.998986 0.082184
0.074477 0.995285 0.078483
0.224470 0.991789 0.074986
0.365781 0.988495 0.071693
0.501818 0.985324 0.068522
0.634092 0.982241 0.065438
0.763454 0.979226 0.062423
0.890450 0.976265 0.059463
0.974311 0.974311 0.057508
0.000000 0.000000 0.318606
0.156291 0.000000 0.314905
0.306285 0.000000 0.311408
0.447595 0.000000 0.308114
0.583633 0.000000 0.304943
0.715907 0.000000 0.301860
0.845269 0.000000 0.298845
0.972264 0.000000 0.295885
1.000000 0.000000 0.293930
0.000000 0.135460 0.307158
0.144843 0.131759 0.303457
0.294837 0.128263 0.299961
0.436148 0.124969 0.296667
0.572185 0.121798 0.293496
0.704459 0.118715 0.290413
0.833821 0.115699 0.287397
0.960817 0.112739 0.284437
1.000000 0.110784 0.282482
0.000000 0.271940 0.295832
0.133517 0.268239 0.292131
0.283511 0.264743 0.288634
0.424821 0.261449 0.285341
0.560859 0.258278 0.282170
0.693133 0.255195 0.279086
0.822495 0.252179 0.276071
0.949491 0.249219 0.273111
1.000000 0.247264 0.271156
0.000000 0.400982 0.285123
0.122808 0.397281 0.281422
0.272802 0.393785 0.277926
0.414112 0.390491 0.274632
0.550150 0.387320 0.271461
0.682424 0.384237 0.268377
0.811786 0.381222 0.265362
0.938782 0.378261 0.262402
1.000000 0.376307 0.260447
0.000000 0.525533 0.274787
0.112472 0.521832 0.271086
0.262466 0.518336 0.267589
0.403776 0.515042 0.264295
0.539814 0.511871 0.261124
0.672088 0.508788 0.258041
0.801450 0.505773 0.255026
0.928445 0.502813 0.252066
1.000000 0.500858 0.250111
0.000000 0.646883 0.264716
0.102402 0.643182 0.261015
0.252395 0.639686 0.257519
0.393706 0.636392 0.254225
0.529743 0.633221 0.251054
0.662017 0.630138 0.247971
0.791379 0.627123 0.244955
0.918375 0.624162 0.241995
1.000000 0.622208 0.240040
0.000000 0.765757 0.254851
0.092537 0.762056 0.251150
0.242530 0.758560 0.247654
0.383841 0.755266 0.244360
0.519878 0.752095 0.241189
0.652152 0.749012 0.238106
0.781514 0.745997 0.235090
0.908510 0.743036 0.232130
0.992370 0.741082 0.230175
0.000000 0.882619 0.245153
0.082838 0.878918 0.241452
0.232832 0.875422 0.237956
0.374143 0.872128 0.234662
0.510180 0.868957 0.231491
0.642454 0.865874 0.228407
0.771816 0.862858 0.225392
0.898812 0.859898 0.222432
0.982672 0.857943 0.220477
0.000000 0.997790 0.235595
0.073281 0.994089 0.231894
0.223274 0.990593 0.228398
0.364585 0.987299 0.225104
0.500622 0.984128 0.221933
0.632896 0.981045 0.218850
0.762258 0.978030 0.215834
0.889254 0.975069 0.212874
0.973115 0.973115 0.210919
0.000000 0.000000 0.463215
0.155164 0.000000 0.459514
0.305157 0.000000 0.456018
0.446468 0.000000 0.452724
0.582506 0.000000 0.449553
0.714779 0.000000 0.446470
0.844141 0.000000 0.443454
0.971137 0.000000 0.440494
1.000000 0.000000 0.438540
0.000000 0.134333 0.451768
0.143716 0.130632 0.448067
0.293710 0.127135 0.444570
0.435020 0.123841 0.441276
0.571058 0.120670 0.438105
0.703332 0.117587 0.435022
0.832694 0.114572 0.432007
0.959689 0.111612 0.429047
1.000000 0.109657 0.427092
0.000000 0.270812 0.440441
0.132390 0.267112 0.436740
0.282384 0.263615 0.433244
0.423694 0.260321 0.429950
0.559732 0.257150 0.426779
0.692006 0.254067 0.423696
0.821367 0.251052 0.420681
0.948363 0.248092 0.417720
1.000000 0.246137 0.415766
0.000000 0.399855 0.429732
0.121681 0.396154 0.426031
0.271675 0.392658 0.422535
0.412985 0.389364 0.419241
0.549023 0.386193 0.416070
0.681297 0.383110 0.412987
0.810658 0.380094 0.409972
0.937654 0.377134 0.407011
1.000000 0.375179 0.405057
0.000000 0.524406 0.419396
0.111345 0.520705 0.415695
0.261338 0.517209 0.412199
0.402649 0.513915 0.408905
0.538687 0.510744 0.405734
0.670960 0.507661 0.402651
0.800322 0.504645 0.399635
0.927318 0.501685 0.396675
1.000000 0.499730 0.394721
0.000000 0.645756 0.409326
0.101274 0.642055 0.405625
0.251268 0.638559 0.402128
0.392578 0.635265 0.398834
0.528616 0.632094 0.395664
0.660890 0.629011 0.392580
0.790252 0.625995 0.389565
0.917247 0.623035 0.386605
1.000000 0.621080 0.384650
0.000000 0.764630 0.399461
0.091409 0.760929 0.395760
0.241403 0.757433 0.392263
0.382713 0.754139 0.388969
0.518751 0.750968 0.385798
0.651025 0.747885 0.382715
0.780387 0.744869 0.379700
0.907382 0.741909 0.376740
0.991243 0.739954 0.374785
0.000000 0.881492 0.389762
0.081711 0.877791 0.386061
0.231705 0.874294 0.382565
0.373015 0.871000 0.379271
0.509053 0.867829 0.376100
0.641327 0.864746 0.373017
0.770688 0.861731 0.370002
0.897684 0.858771 0.367042
0.981545 0.856816 0.365087
0.000000 0.996663 0.380205
0.072153 0.992962 0.376504
0.222147 0.989466 0.373007
0.363457 0.986172 0.369713
0.499495 0.983001 0.366543
0.631769 0.979918 0.363459
0.761131 0.976902 0.360444
0.888126 0.973942 0.357484
0.971987 0.971987 0.355529
0.000000 0.000000 0.602459
0.154078 0.000000 0.598758
0.304072 0.000000 0.595262
0.445382 0.000000 0.591968
0.581420 0.000000 0.588797
0.713694 0.000000 0.585714
0.843056 0.000000 0.582698
0.970051 0.000000 0.579738
1.000000 0.000000 0.577783
0.000000 0.133247 0.591011
0.142631 0.129546 0.587310
0.292624 0.126050 0.583814
0.433935 0.122756 0.580520
0.569972 0.119585 0.577349
0.702246 0.116502 0.574266
0.831608 0.113486 0.571251
0.958604 0.110526 0.568290
1.000000 0.108571 0.566336
0.000000 0.269727 0.579685
0.131304 0.266026 0.575984
0.281298 0.262530 0.572488
0.422609 0.259236 0.569194
0.558646 0.256065 0.566023
0.690920 0.252982 0.562940
0.820282 0.249966 0.559924
0.947278 0.247006 0.556964
1.000000 0.245051 0.555009
0.000000 0.398769 0.568976
0.120595 0.395068 0.565275
0.270589 0.391572 0.561779
0.411900 0.388278 0.558485
0.547937 0.385107 0.555314
0.680211 0.382024 0.552231
0.809573 0.379009 0.549215
0.936569 0.376048 0.546255
1.000000 0.374094 0.544301
0.000000 0.523321 0.558640
0.110259 0.519620 0.554939
0.260253 0.516123 0.551443
0.401563 0.512829 0.548149
0.537601 0.509658 0.544978
0.669875 0.506575 0.541895
0.799237 0.503560 0.538879
0.926232 0.500600 0.535919
1.000000 0.498645 0.533964
0.000000 0.644670 0.548569
0.100189 0.640969 0.544868
0.250182 0.637473 0.541372
0.391493 0.634179 0.538078
0.527530 0.631008 0.534907
0.659804 0.627925 0.531824
0.789166 0.624910 0.528809
0.916162 0.621950 0.525848
1.000000 0.619995 0.523894
0.000000 0.763544 0.538704
0.090324 0.759843 0.535003
0.240317 0.756347 0.531507
0.381628 0.753053 0.528213
0.517665 0.749882 0.525042
0.649939 0.746799 0.521959
0.779301 0.743784 0.518944
0.906297 0.740823 0.515983
0.990158 0.738869 0.514029
0.000000 0.880406 0.529006
0.080625 0.876705 0.525305
0.230619 0.873209 0.521809
0.371930 0.869915 0.518515
0.507967 0.866744 0.515344
0.640241 0.863661 0.512261
0.769603 0.860645 0.509246
0.896599 0.857685 0.506285
0.980459 0.855730 0.504331
0.000000 0.995577 0.519448
0.071068 0.991876 0.515747
0.221061 0.988380 0.512251
0.362372 0.985086 0.508957
0.498409 0.981915 0.505786
0.630683 0.978832 0.502703
0.760045 0.975817 0.499688
0.887041 0.972856 0.496727
0.970902 0.970902 0.494773
0.000000 0.000000 0.737866
0.153023 0.000000 0.734165
0.303016 0.000000 0.730669
0.444327 0.000000 0.727375
0.580364 0.000000 0.724204
0.712638 0.000000 0.721121
0.842000 0.000000 0.718105
0.968996 0.000000 0.715145
1.000000 0.000000 0.713190
0.000000 0.132191 0.726418
0.141575 0.128490 0.722717
0.291568 0.124994 0.719221
0.432879 0.121700 0.715927
0.568917 0.118529 0.712756
0.701191 0.115446 0.709673
0.830552 0.112431 0.706658
0.957548 0.109471 0.703697
1.000000 0.107516 0.701743
0.000000 0.268671 0.715092
0.130249 0.264970 0.711391
0.280242 0.261474 0.707895
0.421553 0.258180 0.704601
0.557591 0.255009 0.701430
0.689864 0.251926 0.698347
0.819226 0.248911 0.695331
0.946222 0.245950 0.692371
1.000000 0.243996 0.690416
0.000000 0.397714 0.704383
0.119540 0.394013 0.700682
0.269533 0.390516 0.697186
0.410844 0.387223 0.693892
0.546882 0.384052 0.690721
0.679155 0.380968 0.687638
0.808517 0.377953 0.684622
0.935513 0.374993 0.681662
1.000000 0.373038 0.679708
0.000000 0.522265 0.694047
0.109204 0.518564 0.690346
0.259197 0.515068 0.686850
0.400508 0.511774 0.683556
0.536545 0.508603 0.680385
0.668819 0.505520 0.677302
0.798181 0.502504 0.674286
0.925177 0.499544 0.671326
1.000000 0.497589 0.669371
0.000000 0.643615 0.683976
0.099133 0.639914 0.680275
0.249127 0.636418 0.676779
0.390437 0.633124 0.673485
0.526475 0.629953 0.670314
0.658749 0.626869 0.667231
0.788110 0.623854 0.664216
0.915106 0.620894 0.661255
0.998967 0.618939 0.659301
0.000000 0.762489 0.674111
0.089268 0.758788 0.670410
0.239262 0.755291 0.666914
0.380572 0.751998 0.663620
0.516610 0.748827 0.660449
0.648884 0.745743 0.657366
0.778245 0.742728 0.654351
0.905241 0.739768 0.651390
0.989102 0.737813 0.649436
0.000000 0.879350 0.664413
0.079570 0.875649 0.660712
0.229563 0.872153 0.657216
0.370874 0.868859 0.653922
0.506912 0.865688 0.650751
0.639186 0.862605 0.647668
0.768547 0.859590 0.644652
0.895543 0.856630 0.641692
0.979404 0.854675 0.639738
0.000000 0.994522 0.654855
0.070012 0.990821 0.651154
0.220006 0.987324 0.647658
0.361316 0.984031 0.644364
0.497354 0.980860 0.641193
0.629628 0.977776 0.638110
0.758989 0.974761 0.635095
0.885985 0.971801 0.632134
0.969846 0.969846 0.630180
0.000000 0.000000 0.870302
0.151990 0.000000 0.866601
0.301984 0.000000 0.863104
0.443294 0.000000 0.859810
0.579332 0.000000 0.856639
0.711606 0.000000 0.853556
0.840968 0.000000 0.850541
0.967963 0.000000 0.847581
1.000000 0.000000 0.845626
0.000000 0.131159 0.858854
0.140542 0.127458 0.855153
0.290536 0.123962 0.851657
0.431847 0.120668 0.848363
0.567884 0.117497 0.845192
0.700158 0.114414 0.842109
0.829520 0.111398 0.839093
0.956516 0.108438 0.836133
1.000000 0.106483 0.834178
0.000000 0.267639 0.847528
0.129216 0.263938 0.843827
0.279210 0.260442 0.840331
0.420520 0.257148 0.837037
0.556558 0.253977 0.833866
0.688832 0.250893 0.830782
0.818194 0.247878 0.827767
0.945189 0.244918 0.824807
1.000000 0.242963 0.822852
0.000000 0.396681 0.836819
0.118507 0.392980 0.833118
0.268501 0.389484 0.829622
0.409811 0.386190 0.826328
0.545849 0.383019 0.823157
0.678123 0.379936 0.820073
0.807485 0.376920 0.817058
0.934481 0.373960 0.814098
1.000000 0.372006 0.812143
0.000000 0.521232 0.826483
0.108171 0.517531 0.822782
0.258165 0.514035 0.819285
0.399475 0.510741 0.815991
0.535513 0.507570 0.812820
0.667787 0.504487 0.809737
0.797149 0.501472 0.806722
0.924144 0.498512 0.803762
1.000000 0.496557 0.801807
0.000000 0.642582 0.816412
0.098101 0.638881 0.812711
0.248094 0.635385 0.809215
0.389405 0.632091 0.805921
0.525442 0.628920 0.802750
0.657716 0.625837 0.799667
0.787078 0.622822 0.796651
0.914074 0.619861 0.793691
0.997935 0.617907 0.791736
0.000000 0.761456 0.806547
0.088235 0.757755 0.802846
0.238229 0.754259 0.799350
0.379540 0.750965 0.796056
0.515577 0.747794 0.792885
0.647851 0.744711 0.789802
0.777213 0.741696 0.786786
0.904209 0.738735 0.783826
0.988069 0.736781 0.781871
0.000000 0.878318 0.796849
0.078537 0.874617 0.793148
0.228531 0.871121 0.789652
0.369841 0.867827 0.786358
0.505879 0.864656 0.783187
0.638153 0.861573 0.780104
0.767515 0.858557 0.777088
0.894511 0.855597 0.774128
0.978371 0.853642 0.772173
0.000000 0.993489 0.787291
0.068980 0.989788 0.783590
0.218973 0.986292 0.780094
0.360284 0.982998 0.776800
0.496321 0.979827 0.773629
0.628595 0.976744 0.770546
0.757957 0.973729 0.767530
0.884953 0.970768 0.764570
0.968814 0.968814 0.762615
0.000000 0.000000 1.000000
0.150976 0.000000 0.996621
0.300970 0.000000 0.993124
0.442281 0.000000 0.989830
0.578318 0.000000 0.986659
0.710592 0.000000 0.983576
0.839954 0.000000 0.980561
0.966950 0.000000 0.977601
1.000000 0.000000 0.975646
0.000000 0.130145 0.988874
0.139529 0.126444 0.985173
0.289522 0.122948 0.981677
0.430833 0.119654 0.978383
0.566871 0.116483 0.975212
0.699144 0.113400 0.972128
0.828506 0.110385 0.969113
0.955502 0.107424 0.966153
1.000000 0.105470 0.964198
0.000000 0.266625 0.977548
0.128203 0.262924 0.973847
0.278196 0.259428 0.970350
0.419507 0.256134 0.967057
0.555544 0.252963 0.963886
0.687818 0.249880 0.960802
0.817180 0.246864 0.957787
0.944176 0.243904 0.954827
1.000000 0.241950 0.952872
0.000000 0.395668 0.966839
0.117494 0.391967 0.963138
0.267487 0.388470 0.959641
0.408798 0.385176 0.956348
0.544836 0.382005 0.953177
0.677109 0.378922 0.950093
0.806471 0.375907 0.947078
0.933467 0.372947 0.944118
1.000000 0.370992 0.942163
0.000000 0.520219 0.956502
0.107157 0.516518 0.952801
0.257151 0.513022 0.949305
0.398462 0.509728 0.946011
0.534499 0.506557 0.942840
0.666773 0.503473 0.939757
0.796135 0.500458 0.936742
0.923131 0.497498 0.933782
1.000000 0.495543 0.931827
0.000000 0.641569 0.946432
0.097087 0.637868 0.942731
0.247080 0.634371 0.939235
0.388391 0.631078 0.935941
0.524429 0.627907 0.932770
0.656703 0.624823 0.929687
0.786064 0.621808 0.926671
0.913060 0.618848 0.923711
0.996921 0.616893 0.921756
0.000000 0.760443 0.936567
0.087222 0.756742 0.932866
0.237215 0.753245 0.929370
0.378526 0.749951 0.926076
0.514564 0.746780 0.922905
0.646837 0.743697 0.919821
0.776199 0.740682 0.916806
0.903195 0.737722 0.913846
0.987056 0.735767 0.911891
0.000000 0.877304 0.926869
0.077524 0.873603 0.923168
0.227517 0.870107 0.919671
0.368828 0.866813 0.916378
0.504866 0.863642 0.913207
0.637139 0.860559 0.910123
0.766501 0.857544 0.907108
0.893497 0.854583 0.904148
0.977358 0.852629 0.902193
0.000000 0.992476 0.917311
0.067966 0.988775 0.913610
0.217959 0.985278 0.910114
0.359270 0.981984 0.906820
0.495308 0.978813 0.903649
0.627582 0.975730 0.900566
0.756943 0.972715 0.897550
0.883939 0.969755 0.894590
0.967800 0.967800 0.892635
0.000000 0.000000 1.000000
0.150395 0.000000 1.000000
0.300389 0.000000 1.000000
0.441699 0.000000 1.000000
0.577737 0.000000 1.000000
0.710011 0.000000 1.000000
0.839372 0.000000 1.000000
0.966368 0.000000 1.000000
1.000000 0.000000 1.000000
0.000000 0.129564 1.000000
0.138947 0.125863 1.000000
0.288941 0.122367 1.000000
0.430251 0.119073 1.000000
0.566289 0.115902 1.000000
0.698563 0.112819 1.000000
0.827925 0.109803 1.000000
0.954921 0.106843 1.000000
1.000000 0.104888 1.000000
0.000000 0.266044 1.000000
0.127621 0.262343 1.000000
0.277615 0.258846 1.000000
0.418925 0.255553 1.000000
0.554963 0.252382 1.000000
0.687237 0.249298 1.000000
0.816599 0.246283 1.000000
0.943594 0.243323 1.000000
1.000000 0.241368 1.000000
0.000000 0.395086 1.000000
0.116912 0.391385 1.000000
0.266906 0.387889 1.000000
0.408216 0.384595 1.000000
0.544254 0.381424 1.000000
0.676528 0.378341 1.000000
0.805890 0.375325 1.000000
0.932885 0.372365 1.000000
1.000000 0.370410 1.000000
0.000000 0.519637 1.000000
0.106576 0.515936 1.000000
0.256570 0.512440 1.000000
0.397880 0.509146 1.000000
0.533918 0.505975 1.000000
0.666192 0.502892 1.000000
0.795553 0.499877 1.000000
0.922549 0.496916 1.000000
1.000000 0.494962 1.000000
0.000000 0.640987 1.000000
0.096505 0.637286 1.000000
0.246499 0.633790 1.000000
0.387810 0.630496 1.000000
0.523847 0.627325 1.000000
0.656121 0.624242 1.000000
0.785483 0.621227 1.000000
0.912479 0.618266 0.998294
0.996339 0.616312 0.996339
0.000000 0.759861 1.000000
0.086640 0.756160 1.000000
0.236634 0.752664 1.000000
0.377944 0.749370 1.000000
0.513982 0.746199 0.997488
0.646256 0.743116 0.994405
0.775618 0.740100 0.991389
0.902614 0.737140 0.988429
0.986474 0.735185 0.986474
0.000000 0.876723 1.000000
0.076942 0.873022 0.997751
0.226936 0.869526 0.994255
0.368246 0.866232 0.990961
0.504284 0.863061 0.987790
0.636558 0.859978 0.984707
0.765920 0.856962 0.981691
0.892915 0.854002 0.978731
0.976776 0.852047 0.976776
0.000000 0.991894 0.991894
0.067384 0.988193 0.988193
0.217378 0.984697 0.984697
0.358689 0.981403 0.981403
0.494726 0.978232 0.978232
0.627000 0.975149 0.975149
0.756362 0.972133 0.972133
0.883358 0.969173 0.969173
0.967218 0.967218 0.967218
