public/luts/iphone/lk-iphone-moody.cube
TITLE "LK iPhone Moody"
LUT_3D_SIZE 5
DOMAIN_MIN 0.0 0.0 0.0
DOMAIN_MAX 1.0 1.0 1.0
0.000000 0.000000 0.000000
0.163828 0.005044 0.005044
0.366124 0.011273 0.011273
0.575610 0.017723 0.017723
0.789806 0.024318 0.024318
0.016969 0.175753 0.016969
0.180797 0.180797 0.022013
0.383093 0.187026 0.028242
0.592579 0.193476 0.034692
0.806775 0.200071 0.041287
0.037923 0.392774 0.037923
0.201750 0.397818 0.042967
0.404046 0.404046 0.049195
0.613533 0.410496 0.055645
0.827728 0.417091 0.062240
0.059621 0.617508 0.059621
0.223449 0.622553 0.064665
0.425745 0.628781 0.070894
0.635231 0.635231 0.077344
0.849427 0.641826 0.083939
0.081807 0.847295 0.081807
0.245635 0.852339 0.086851
0.447931 0.858568 0.093080
0.657417 0.865018 0.099530
0.871613 0.871613 0.106125
0.002030 0.002030 0.190177
0.165858 0.007074 0.195221
0.368154 0.013303 0.201449
0.577640 0.019753 0.207899
0.791836 0.026348 0.214494
0.018999 0.177783 0.207146
0.182827 0.182827 0.212190
0.385123 0.189055 0.218418
0.594609 0.195505 0.224868
0.808805 0.202100 0.231463
0.039952 0.394803 0.228099
0.203780 0.399848 0.233143
0.406076 0.406076 0.239372
0.615563 0.412526 0.245822
0.829758 0.419121 0.252417
0.061651 0.619538 0.249797
0.225479 0.624582 0.254842
0.427774 0.630811 0.261070
0.637261 0.637261 0.267520
0.851456 0.643856 0.274115
0.083837 0.849325 0.271983
0.247665 0.854369 0.277028
0.449961 0.860597 0.283256
0.659447 0.867048 0.289706
0.873643 0.873643 0.296301
0.004335 0.004335 0.406132
0.168163 0.009379 0.411176
0.370459 0.015608 0.417405
0.579945 0.022058 0.423855
0.794141 0.028653 0.430450
0.021304 0.180087 0.423101
0.185132 0.185132 0.428145
0.387428 0.191360 0.434374
0.596914 0.197810 0.440824
0.811110 0.204405 0.447419
0.042257 0.397108 0.444054
0.206085 0.402153 0.449099
0.408381 0.408381 0.455327
0.617868 0.414831 0.461777
0.832063 0.421426 0.468372
0.063956 0.621843 0.465753
0.227783 0.626887 0.470797
0.430079 0.633116 0.477025
0.639566 0.639566 0.483475
0.853761 0.646161 0.490071
0.086142 0.851630 0.487939
0.249970 0.856674 0.492983
0.452265 0.862902 0.499212
0.661752 0.869352 0.505662
0.875947 0.875947 0.512257
0.006694 0.006694 0.627156
0.170522 0.011738 0.632201
0.372818 0.017967 0.638429
0.582304 0.024417 0.644879
0.796500 0.031012 0.651474
0.023663 0.182447 0.644125
0.187491 0.187491 0.649170
0.389787 0.193719 0.655398
0.599273 0.200169 0.661848
0.813469 0.206764 0.668443
0.044616 0.399467 0.665079
0.208444 0.404512 0.670123
0.410740 0.410740 0.676352
0.620227 0.417190 0.682802
0.834422 0.423785 0.689397
0.066315 0.624202 0.686777
0.230143 0.629246 0.691821
0.432439 0.635475 0.698050
0.641925 0.641925 0.704500
0.856121 0.648520 0.711095
0.088501 0.853989 0.708963
0.252329 0.859033 0.714007
0.454625 0.865262 0.720236
0.664111 0.871712 0.726686
0.878307 0.878307 0.733281
0.008538 0.008538 0.799964
0.172366 0.013583 0.805008
0.374662 0.019811 0.811237
0.584149 0.026261 0.817687
0.798344 0.032856 0.824282
0.025507 0.184291 0.816933
0.189335 0.189335 0.821977
0.391631 0.195564 0.828206
0.601118 0.202014 0.834656
0.815313 0.208609 0.841251
0.046461 0.401312 0.837886
0.210289 0.406356 0.842930
0.412585 0.412585 0.849159
0.622071 0.419035 0.855609
0.836267 0.425630 0.862204
0.068159 0.626047 0.859585
0.231987 0.631091 0.864629
0.434283 0.637319 0.870857
0.643770 0.643770 0.877307
0.857965 0.650365 0.883902
0.090345 0.855833 0.881771
0.254173 0.860877 0.886815
0.456469 0.867106 0.893043
0.665956 0.873556 0.899493
0.880151 0.880151 0.906088
