public/luts/iphone/lk-iphone-travel.cube
TITLE "LK iPhone Travel"
LUT_3D_SIZE 5
DOMAIN_MIN 0.0 0.0 0.0
DOMAIN_MAX 1.0 1.0 1.0
0.014377 0.014377 0.014655
0.335805 0.005760 0.006038
0.624660 0.000000 0.000000
0.901408 0.000000 0.000000
1.000000 0.000000 0.000000
0.000000 0.312723 0.000000
0.307077 0.304106 0.000000
0.595933 0.296362 0.000000
0.872681 0.288942 0.000000
1.000000 0.283387 0.000000
0.000000 0.580857 0.000000
0.281259 0.572240 0.000000
0.570115 0.564496 0.000000
0.846862 0.557077 0.000000
1.000000 0.551521 0.000000
0.000000 0.837754 0.000000
0.256523 0.829137 0.000000
0.545378 0.821393 0.000000
0.822126 0.813974 0.000000
1.000000 0.808418 0.000000
0.000000 1.000000 0.000000
0.237117 1.000000 0.000000
0.525972 1.000000 0.000000
0.802720 1.000000 0.000000
1.000000 1.000000 0.000000
0.011390 0.011390 0.348519
0.332818 0.002773 0.339901
0.621674 0.000000 0.332158
0.898421 0.000000 0.324738
1.000000 0.000000 0.319183
0.000000 0.309736 0.319791
0.304091 0.301119 0.311174
0.592946 0.293375 0.303430
0.869694 0.285956 0.296011
1.000000 0.280400 0.290455
0.000000 0.577870 0.293973
0.278272 0.569253 0.285356
0.567128 0.561509 0.277612
0.843876 0.554090 0.270193
1.000000 0.548534 0.264637
0.000000 0.834768 0.269237
0.253536 0.826150 0.260619
0.542392 0.818407 0.252876
0.819139 0.810987 0.245456
1.000000 0.805431 0.239900
0.000000 1.000000 0.249830
0.234130 1.000000 0.241213
0.522985 1.000000 0.233469
0.799733 1.000000 0.226050
1.000000 1.000000 0.220494
0.008740 0.008740 0.644740
0.330168 0.000123 0.636123
0.619024 0.000000 0.628379
0.895771 0.000000 0.620960
1.000000 0.000000 0.615404
0.000000 0.307086 0.616012
0.301441 0.298469 0.607395
0.590296 0.290725 0.599651
0.867044 0.283306 0.592232
1.000000 0.277750 0.586676
0.000000 0.575220 0.590194
0.275622 0.566603 0.581577
0.564478 0.558859 0.573833
0.841226 0.551440 0.566414
1.000000 0.545884 0.560858
0.000000 0.832118 0.565458
0.250886 0.823500 0.556841
0.539742 0.815757 0.549097
0.816489 0.808337 0.541678
1.000000 0.802781 0.536122
0.000000 1.000000 0.546051
0.231480 1.000000 0.537434
0.520335 1.000000 0.529691
0.797083 1.000000 0.522271
1.000000 1.000000 0.516715
0.006213 0.006213 0.927211
0.327641 0.000000 0.918594
0.616497 0.000000 0.910850
0.893244 0.000000 0.903431
1.000000 0.000000 0.897875
0.000000 0.304559 0.898484
0.298914 0.295942 0.889867
0.587769 0.288198 0.882123
0.864517 0.280779 0.874703
1.000000 0.275223 0.869148
0.000000 0.572693 0.872665
0.273095 0.564076 0.864048
0.561951 0.556332 0.856304
0.838699 0.548913 0.848885
1.000000 0.543357 0.843329
0.000000 0.829591 0.847929
0.248359 0.820973 0.839312
0.537215 0.813230 0.831568
0.813962 0.805810 0.824149
1.000000 0.800255 0.818593
0.000000 1.000000 0.828523
0.228953 1.000000 0.819906
0.517808 1.000000 0.812162
0.794556 1.000000 0.804743
1.000000 1.000000 0.799187
0.004416 0.004416 1.000000
0.325845 0.000000 1.000000
0.614700 0.000000 1.000000
0.891448 0.000000 1.000000
1.000000 0.000000 1.000000
0.000000 0.302762 1.000000
0.297117 0.294145 1.000000
0.585973 0.286402 1.000000
0.862721 0.278982 1.000000
1.000000 0.273426 1.000000
0.000000 0.570897 1.000000
0.271299 0.562280 1.000000
0.560154 0.554536 1.000000
0.836902 0.547117 1.000000
1.000000 0.541561 1.000000
0.000000 0.827794 1.000000
0.246563 0.819177 1.000000
0.535418 0.811433 1.000000
0.812166 0.804014 1.000000
1.000000 0.798458 1.000000
0.000000 1.000000 1.000000
0.227156 1.000000 1.000000
0.516012 1.000000 1.000000
0.792760 1.000000 1.000000
1.000000 1.000000 1.000000
