public/luts/iphone/lk-iphone-cinema.cube
TITLE "LK iPhone Cinema"
LUT_3D_SIZE 17
DOMAIN_MIN 0.0 0.0 0.0
DOMAIN_MAX 1.0 1.0 1.0
0.038153 0.038153 0.039496
0.083512 0.040719 0.042062
0.129449 0.043318 0.044661
0.175741 0.045937 0.047279
0.222291 0.048570 0.049913
0.269044 0.051215 0.052558
0.315965 0.053869 0.055212
0.363030 0.056532 0.057875
0.410219 0.059202 0.060544
0.457519 0.061877 0.063220
0.504919 0.064559 0.065902
0.552410 0.067246 0.068588
0.599983 0.069937 0.071280
0.647633 0.072633 0.073975
0.695354 0.075332 0.076675
0.743141 0.078036 0.079378
0.781132 0.080185 0.081527
0.046699 0.089065 0.048042
0.092058 0.091631 0.050608
0.137995 0.094230 0.053207
0.184287 0.096849 0.055826
0.230837 0.099482 0.058459
0.277590 0.102127 0.061104
0.324511 0.104782 0.063758
0.371576 0.107444 0.066421
0.418765 0.110114 0.069090
0.466066 0.112790 0.071766
0.513466 0.115471 0.074448
0.560956 0.118158 0.077134
0.608530 0.120849 0.079826
0.656179 0.123545 0.082521
0.703900 0.126244 0.085221
0.751687 0.128948 0.087924
0.789678 0.131097 0.090074
0.055354 0.140623 0.056697
0.100713 0.143189 0.059263
0.146650 0.145788 0.061861
0.192942 0.148407 0.064480
0.239491 0.151040 0.067114
0.286245 0.153685 0.069758
0.333166 0.156340 0.072413
0.380230 0.159002 0.075075
0.427420 0.161672 0.077745
0.474720 0.164348 0.080421
0.522120 0.167029 0.083102
0.569611 0.169716 0.085789
0.617184 0.172407 0.088480
0.664834 0.175103 0.091176
0.712555 0.177802 0.093876
0.760342 0.180506 0.096579
0.798332 0.182655 0.098728
0.064075 0.192578 0.065418
0.109434 0.195144 0.067984
0.155371 0.197743 0.070583
0.201663 0.200362 0.073201
0.248213 0.202995 0.075835
0.294966 0.205640 0.078480
0.341887 0.208295 0.081134
0.388952 0.210957 0.083797
0.436141 0.213627 0.086466
0.483441 0.216303 0.089142
0.530841 0.218984 0.091824
0.578332 0.221671 0.094510
0.625905 0.224362 0.097202
0.673555 0.227058 0.099897
0.721276 0.229757 0.102597
0.769063 0.232461 0.105300
0.807054 0.234610 0.107449
0.072845 0.244822 0.074188
0.118204 0.247388 0.076754
0.164141 0.249987 0.079352
0.210433 0.252606 0.081971
0.256982 0.255239 0.084605
0.303736 0.257884 0.087249
0.350657 0.260539 0.089904
0.397721 0.263201 0.092566
0.444911 0.265871 0.095236
0.492211 0.268547 0.097912
0.539611 0.271228 0.100593
0.587102 0.273915 0.103280
0.634675 0.276606 0.105971
0.682325 0.279302 0.108667
0.730046 0.282001 0.111367
0.777833 0.284705 0.114070
0.815823 0.286854 0.116219
0.081653 0.297294 0.082996
0.127012 0.299860 0.085562
0.172949 0.302459 0.088160
0.219241 0.305078 0.090779
0.265790 0.307711 0.093413
0.312544 0.310356 0.096057
0.359465 0.313010 0.098712
0.406529 0.315673 0.101374
0.453719 0.318343 0.104044
0.501019 0.321018 0.106720
0.548419 0.323700 0.109401
0.595910 0.326387 0.112088
0.643483 0.329078 0.114779
0.691133 0.331774 0.117475
0.738854 0.334473 0.120175
0.786641 0.337177 0.122878
0.824631 0.339326 0.125027
0.090493 0.349954 0.091835
0.135851 0.352520 0.094401
0.181789 0.355119 0.097000
0.228080 0.357738 0.099619
0.274630 0.360371 0.102252
0.321383 0.363016 0.104897
0.368304 0.365671 0.107552
0.415369 0.368333 0.110214
0.462558 0.371003 0.112884
0.509859 0.373679 0.115560
0.557259 0.376360 0.118241
0.604749 0.379047 0.120928
0.652323 0.381738 0.123619
0.699973 0.384434 0.126315
0.747694 0.387133 0.129014
0.795481 0.389837 0.131718
0.833471 0.391986 0.133867
0.099359 0.402775 0.100702
0.144718 0.405341 0.103268
0.190655 0.407940 0.105867
0.236947 0.410559 0.108485
0.283497 0.413192 0.111119
0.330250 0.415837 0.113764
0.377171 0.418492 0.116418
0.424236 0.421154 0.119081
0.471425 0.423824 0.121750
0.518725 0.426500 0.124426
0.566125 0.429181 0.127108
0.613616 0.431868 0.129794
0.661189 0.434559 0.132486
0.708839 0.437255 0.135181
0.756560 0.439954 0.137881
0.804347 0.442658 0.140584
0.842338 0.444807 0.142733
0.108249 0.455736 0.109592
0.153608 0.458303 0.112158
0.199545 0.460901 0.114757
0.245837 0.463520 0.117376
0.292387 0.466153 0.120009
0.339140 0.468798 0.122654
0.386061 0.471453 0.125308
0.433126 0.474115 0.127971
0.480315 0.476785 0.130640
0.527616 0.479461 0.133316
0.575016 0.482142 0.135998
0.622506 0.484829 0.138684
0.670080 0.487520 0.141376
0.717729 0.490216 0.144071
0.765450 0.492916 0.146771
0.813237 0.495619 0.149474
0.851228 0.497768 0.151624
0.117160 0.508822 0.118503
0.162519 0.511388 0.121069
0.208456 0.513987 0.123668
0.254748 0.516605 0.126287
0.301298 0.519239 0.128920
0.348051 0.521884 0.131565
0.394972 0.524538 0.134219
0.442037 0.527201 0.136882
0.489226 0.529870 0.139551
0.536527 0.532546 0.142227
0.583927 0.535228 0.144909
0.631417 0.537914 0.147595
0.678991 0.540606 0.150287
0.726640 0.543301 0.152982
0.774361 0.546001 0.155682
0.822148 0.548704 0.158385
0.860139 0.550854 0.160535
0.126090 0.562019 0.127433
0.171449 0.564585 0.129999
0.217386 0.567184 0.132597
0.263678 0.569803 0.135216
0.310228 0.572436 0.137850
0.356981 0.575081 0.140495
0.403902 0.577735 0.143149
0.450966 0.580398 0.145812
0.498156 0.583067 0.148481
0.545456 0.585743 0.151157
0.592856 0.588425 0.153839
0.640347 0.591111 0.156525
0.687920 0.593803 0.159216
0.735570 0.596498 0.161912
0.783291 0.599198 0.164612
0.831078 0.601902 0.167315
0.869069 0.604051 0.169464
0.135037 0.615318 0.136379
0.180396 0.617884 0.138946
0.226333 0.620482 0.141544
0.272625 0.623101 0.144163
0.319174 0.625735 0.146796
0.365927 0.628380 0.149441
0.412849 0.631034 0.152096
0.459913 0.633697 0.154758
0.507103 0.636366 0.157428
0.554403 0.639042 0.160104
0.601803 0.641724 0.162785
0.649294 0.644410 0.165472
0.696867 0.647101 0.168163
0.744517 0.649797 0.170859
0.792238 0.652497 0.173559
0.840025 0.655200 0.176262
0.878015 0.657349 0.178411
0.143999 0.668709 0.145342
0.189358 0.671275 0.147908
0.235295 0.673874 0.150507
0.281587 0.676493 0.153125
0.328137 0.679126 0.155759
0.374890 0.681771 0.158404
0.421811 0.684426 0.161058
0.468876 0.687088 0.163721
0.516065 0.689758 0.166390
0.563366 0.692434 0.169066
0.610766 0.695115 0.171748
0.658256 0.697802 0.174434
0.705829 0.700493 0.177126
0.753479 0.703189 0.179821
0.801200 0.705888 0.182521
0.848987 0.708592 0.185224
0.886978 0.710741 0.187374
0.152976 0.722187 0.154319
0.198335 0.724753 0.156885
0.244272 0.727351 0.159483
0.290564 0.729970 0.162102
0.337114 0.732604 0.164736
0.383867 0.735249 0.167381
0.430788 0.737903 0.170035
0.477852 0.740566 0.172698
0.525042 0.743235 0.175367
0.572342 0.745911 0.178043
0.619742 0.748593 0.180725
0.667233 0.751279 0.183411
0.714806 0.753970 0.186102
0.762456 0.756666 0.188798
0.810177 0.759366 0.191498
0.857964 0.762069 0.194201
0.895955 0.764218 0.196350
0.161966 0.775744 0.163309
0.207325 0.778310 0.165875
0.253262 0.780909 0.168474
0.299554 0.783527 0.171092
0.346104 0.786161 0.173726
0.392857 0.788806 0.176371
0.439778 0.791460 0.179025
0.486843 0.794123 0.181688
0.534032 0.796792 0.184357
0.581333 0.799468 0.187033
0.628733 0.802150 0.189715
0.676223 0.804836 0.192401
0.723796 0.807528 0.195093
0.771446 0.810223 0.197788
0.819167 0.812923 0.200488
0.866954 0.815626 0.203191
0.904945 0.817775 0.205341
0.170969 0.829375 0.172312
0.216328 0.831941 0.174878
0.262265 0.834540 0.177476
0.308557 0.837159 0.180095
0.355106 0.839792 0.182728
0.401859 0.842437 0.185373
0.448781 0.845091 0.188028
0.495845 0.847754 0.190690
0.543035 0.850424 0.193360
0.590335 0.853099 0.196036
0.637735 0.855781 0.198717
0.685226 0.858468 0.201404
0.732799 0.861159 0.204095
0.780449 0.863855 0.206791
0.828170 0.866554 0.209491
0.875957 0.869258 0.212194
0.913947 0.871407 0.214343
0.179550 0.880497 0.180893
0.224909 0.883063 0.183459
0.270846 0.885662 0.186058
0.317138 0.888281 0.188676
0.363688 0.890914 0.191310
0.410441 0.893559 0.193955
0.457362 0.896213 0.196609
0.504427 0.898876 0.199272
0.551616 0.901546 0.201941
0.598917 0.904221 0.204617
0.646317 0.906903 0.207299
0.693807 0.909590 0.209985
0.741380 0.912281 0.212677
0.789030 0.914976 0.215372
0.836751 0.917676 0.218072
0.884538 0.920380 0.220775
0.922529 0.922529 0.222925
0.039025 0.039025 0.083184
0.084384 0.041591 0.085750
0.130321 0.044190 0.088349
0.176613 0.046809 0.090968
0.223163 0.049442 0.093601
0.269916 0.052087 0.096246
0.316837 0.054741 0.098901
0.363901 0.057404 0.101563
0.411091 0.060073 0.104233
0.458391 0.062749 0.106909
0.505791 0.065431 0.109590
0.553282 0.068117 0.112277
0.600855 0.070809 0.114968
0.648505 0.073504 0.117664
0.696226 0.076204 0.120363
0.744013 0.078908 0.123067
0.782004 0.081057 0.125216
0.047571 0.089937 0.091731
0.092930 0.092503 0.094297
0.138867 0.095102 0.096895
0.185159 0.097721 0.099514
0.231709 0.100354 0.102148
0.278462 0.102999 0.104792
0.325383 0.105654 0.107447
0.372448 0.108316 0.110109
0.419637 0.110986 0.112779
0.466938 0.113662 0.115455
0.514338 0.116343 0.118136
0.561828 0.119030 0.120823
0.609401 0.121721 0.123514
0.657051 0.124417 0.126210
0.704772 0.127116 0.128910
0.752559 0.129820 0.131613
0.790550 0.131969 0.133762
0.056226 0.141495 0.100385
0.101585 0.144061 0.102951
0.147522 0.146660 0.105550
0.193814 0.149279 0.108169
0.240363 0.151912 0.110802
0.287116 0.154557 0.113447
0.334038 0.157212 0.116101
0.381102 0.159874 0.118764
0.428292 0.162544 0.121434
0.475592 0.165220 0.124109
0.522992 0.167901 0.126791
0.570483 0.170588 0.129478
0.618056 0.173279 0.132169
0.665706 0.175975 0.134865
0.713427 0.178674 0.137564
0.761214 0.181378 0.140268
0.799204 0.183527 0.142417
0.064947 0.193450 0.109106
0.110306 0.196016 0.111672
0.156243 0.198615 0.114271
0.202535 0.201234 0.116890
0.249085 0.203867 0.119523
0.295838 0.206512 0.122168
0.342759 0.209166 0.124823
0.389823 0.211829 0.127485
0.437013 0.214499 0.130155
0.484313 0.217174 0.132831
0.531713 0.219856 0.135512
0.579204 0.222543 0.138199
0.626777 0.225234 0.140890
0.674427 0.227930 0.143586
0.722148 0.230629 0.146285
0.769935 0.233333 0.148989
0.807926 0.235482 0.151138
0.073717 0.245694 0.117876
0.119076 0.248260 0.120442
0.165013 0.250859 0.123041
0.211305 0.253478 0.125660
0.257854 0.256111 0.128293
0.304607 0.258756 0.130938
0.351529 0.261410 0.133592
0.398593 0.264073 0.136255
0.445783 0.266743 0.138925
0.493083 0.269418 0.141600
0.540483 0.272100 0.144282
0.587974 0.274787 0.146969
0.635547 0.277478 0.149660
0.683197 0.280174 0.152356
0.730918 0.282873 0.155055
0.778705 0.285577 0.157759
0.816695 0.287726 0.159908
0.082525 0.298166 0.126684
0.127884 0.300732 0.129250
0.173821 0.303331 0.131849
0.220113 0.305950 0.134468
0.266662 0.308583 0.137101
0.313415 0.311228 0.139746
0.360337 0.313882 0.142400
0.407401 0.316545 0.145063
0.454591 0.319214 0.147733
0.501891 0.321890 0.150408
0.549291 0.324572 0.153090
0.596782 0.327258 0.155777
0.644355 0.329950 0.158468
0.692005 0.332645 0.161164
0.739726 0.335345 0.163863
0.787513 0.338048 0.166567
0.825503 0.340198 0.168716
0.091364 0.350826 0.135524
0.136723 0.353392 0.138090
0.182660 0.355991 0.140689
0.228952 0.358610 0.143307
0.275502 0.361243 0.145941
0.322255 0.363888 0.148586
0.369176 0.366543 0.151240
0.416241 0.369205 0.153903
0.463430 0.371875 0.156572
0.510731 0.374551 0.159248
0.558131 0.377232 0.161930
0.605621 0.379919 0.164616
0.653195 0.382610 0.167308
0.700845 0.385306 0.170003
0.748565 0.388005 0.172703
0.796353 0.390709 0.175406
0.834343 0.392858 0.177555
0.100231 0.403647 0.144390
0.145590 0.406213 0.146956
0.191527 0.408812 0.149555
0.237819 0.411431 0.152174
0.284369 0.414064 0.154807
0.331122 0.416709 0.157452
0.378043 0.419364 0.160107
0.425107 0.422026 0.162769
0.472297 0.424696 0.165439
0.519597 0.427372 0.168115
0.566997 0.430053 0.170796
0.614488 0.432740 0.173483
0.662061 0.435431 0.176174
0.709711 0.438127 0.178870
0.757432 0.440826 0.181569
0.805219 0.443530 0.184273
0.843210 0.445679 0.186422
0.109121 0.456608 0.153281
0.154480 0.459174 0.155847
0.200417 0.461773 0.158445
0.246709 0.464392 0.161064
0.293259 0.467025 0.163698
0.340012 0.469670 0.166342
0.386933 0.472325 0.168997
0.433998 0.474987 0.171659
0.481187 0.477657 0.174329
0.528488 0.480333 0.177005
0.575888 0.483014 0.179686
0.623378 0.485701 0.182373
0.670951 0.488392 0.185064
0.718601 0.491088 0.187760
0.766322 0.493787 0.190460
0.814109 0.496491 0.193163
0.852100 0.498640 0.195312
0.118032 0.509694 0.162192
0.163391 0.512260 0.164758
0.209328 0.514859 0.167356
0.255620 0.517477 0.169975
0.302170 0.520111 0.172609
0.348923 0.522756 0.175253
0.395844 0.525410 0.177908
0.442909 0.528073 0.180570
0.490098 0.530742 0.183240
0.537399 0.533418 0.185916
0.584799 0.536100 0.188597
0.632289 0.538786 0.191284
0.679862 0.541478 0.193975
0.727512 0.544173 0.196671
0.775233 0.546873 0.199371
0.823020 0.549576 0.202074
0.861011 0.551725 0.204223
0.126962 0.562891 0.171121
0.172321 0.565457 0.173687
0.218258 0.568056 0.176286
0.264550 0.570675 0.178905
0.311099 0.573308 0.181538
0.357853 0.575953 0.184183
0.404774 0.578607 0.186838
0.451838 0.581270 0.189500
0.499028 0.583939 0.192170
0.546328 0.586615 0.194846
0.593728 0.589297 0.197527
0.641219 0.591983 0.200214
0.688792 0.594675 0.202905
0.736442 0.597370 0.205601
0.784163 0.600070 0.208300
0.831950 0.602773 0.211004
0.869940 0.604923 0.213153
0.135909 0.616190 0.180068
0.181268 0.618756 0.182634
0.227205 0.621354 0.185233
0.273496 0.623973 0.187852
0.320046 0.626607 0.190485
0.366799 0.629252 0.193130
0.413721 0.631906 0.195784
0.460785 0.634568 0.198447
0.507975 0.637238 0.201117
0.555275 0.639914 0.203792
0.602675 0.642595 0.206474
0.650166 0.645282 0.209161
0.697739 0.647973 0.211852
0.745389 0.650669 0.214547
0.793110 0.653369 0.217247
0.840897 0.656072 0.219951
0.878887 0.658221 0.222100
0.144871 0.669581 0.189030
0.190230 0.672147 0.191597
0.236167 0.674746 0.194195
0.282459 0.677365 0.196814
0.329009 0.679998 0.199447
0.375762 0.682643 0.202092
0.422683 0.685298 0.204747
0.469748 0.687960 0.207409
0.516937 0.690630 0.210079
0.564237 0.693306 0.212755
0.611637 0.695987 0.215436
0.659128 0.698674 0.218123
0.706701 0.701365 0.220814
0.754351 0.704061 0.223510
0.802072 0.706760 0.226210
0.849859 0.709464 0.228913
0.887850 0.711613 0.231062
0.153848 0.723059 0.198007
0.199207 0.725625 0.200573
0.245144 0.728223 0.203172
0.291436 0.730842 0.205791
0.337985 0.733476 0.208424
0.384739 0.736121 0.211069
0.431660 0.738775 0.213724
0.478724 0.741437 0.216386
0.525914 0.744107 0.219056
0.573214 0.746783 0.221732
0.620614 0.749464 0.224413
0.668105 0.752151 0.227100
0.715678 0.754842 0.229791
0.763328 0.757538 0.232487
0.811049 0.760238 0.235186
0.858836 0.762941 0.237890
0.896826 0.765090 0.240039
0.162838 0.776616 0.206997
0.208197 0.779182 0.209563
0.254134 0.781780 0.212162
0.300426 0.784399 0.214781
0.346976 0.787033 0.217414
0.393729 0.789678 0.220059
0.440650 0.792332 0.222714
0.487715 0.794995 0.225376
0.534904 0.797664 0.228046
0.582204 0.800340 0.230722
0.629604 0.803022 0.233403
0.677095 0.805708 0.236090
0.724668 0.808399 0.238781
0.772318 0.811095 0.241477
0.820039 0.813795 0.244177
0.867826 0.816498 0.246880
0.905817 0.818647 0.249029
0.171841 0.830247 0.216000
0.217200 0.832813 0.218566
0.263137 0.835412 0.221165
0.309428 0.838031 0.223784
0.355978 0.840664 0.226417
0.402731 0.843309 0.229062
0.449653 0.845963 0.231716
0.496717 0.848626 0.234379
0.543907 0.851296 0.237049
0.591207 0.853971 0.239724
0.638607 0.856653 0.242406
0.686098 0.859340 0.245093
0.733671 0.862031 0.247784
0.781321 0.864726 0.250479
0.829042 0.867426 0.253179
0.876829 0.870130 0.255883
0.914819 0.872279 0.258032
0.180422 0.881369 0.224581
0.225781 0.883935 0.227148
0.271718 0.886534 0.229746
0.318010 0.889153 0.232365
0.364560 0.891786 0.234998
0.411313 0.894431 0.237643
0.458234 0.897085 0.240298
0.505299 0.899748 0.242960
0.552488 0.902417 0.245630
0.599789 0.905093 0.248306
0.647189 0.907775 0.250987
0.694679 0.910461 0.253674
0.742252 0.913153 0.256365
0.789902 0.915848 0.259061
0.837623 0.918548 0.261761
0.885410 0.921251 0.264464
0.923401 0.923401 0.266613
0.039908 0.039908 0.127418
0.085267 0.042474 0.129984
0.131204 0.045073 0.132583
0.177496 0.047691 0.135202
0.224045 0.050325 0.137835
0.270798 0.052970 0.140480
0.317720 0.055624 0.143135
0.364784 0.058287 0.145797
0.411974 0.060956 0.148467
0.459274 0.063632 0.151143
0.506674 0.066314 0.153824
0.554165 0.069000 0.156511
0.601738 0.071692 0.159202
0.649388 0.074387 0.161898
0.697109 0.077087 0.164597
0.744896 0.079790 0.167301
0.782886 0.081940 0.169450
0.048454 0.090820 0.135964
0.093813 0.093386 0.138530
0.139750 0.095985 0.141129
0.186042 0.098604 0.143748
0.232591 0.101237 0.146381
0.279345 0.103882 0.149026
0.326266 0.106536 0.151681
0.373330 0.109199 0.154343
0.420520 0.111868 0.157013
0.467820 0.114544 0.159689
0.515220 0.117226 0.162370
0.562711 0.119912 0.165057
0.610284 0.122604 0.167748
0.657934 0.125299 0.170444
0.705655 0.127999 0.173143
0.753442 0.130702 0.175847
0.791433 0.132852 0.177996
0.057109 0.142378 0.144619
0.102468 0.144944 0.147185
0.148405 0.147543 0.149784
0.194696 0.150162 0.152403
0.241246 0.152795 0.155036
0.287999 0.155440 0.157681
0.334920 0.158094 0.160335
0.381985 0.160757 0.162998
0.429175 0.163426 0.165667
0.476475 0.166102 0.168343
0.523875 0.168784 0.171025
0.571365 0.171470 0.173711
0.618939 0.174162 0.176403
0.666589 0.176857 0.179098
0.714310 0.179557 0.181798
0.762097 0.182260 0.184502
0.800087 0.184410 0.186651
0.065830 0.194333 0.153340
0.111189 0.196899 0.155906
0.157126 0.199498 0.158505
0.203418 0.202117 0.161124
0.249967 0.204750 0.163757
0.296720 0.207395 0.166402
0.343642 0.210049 0.169057
0.390706 0.212712 0.171719
0.437896 0.215381 0.174389
0.485196 0.218057 0.177065
0.532596 0.220739 0.179746
0.580087 0.223425 0.182433
0.627660 0.226117 0.185124
0.675310 0.228812 0.187820
0.723031 0.231512 0.190519
0.770818 0.234215 0.193223
0.808808 0.236365 0.195372
0.074600 0.246577 0.162110
0.119959 0.249143 0.164676
0.165896 0.251742 0.167275
0.212187 0.254361 0.169894
0.258737 0.256994 0.172527
0.305490 0.259639 0.175172
0.352411 0.262293 0.177826
0.399476 0.264956 0.180489
0.446666 0.267625 0.183158
0.493966 0.270301 0.185834
0.541366 0.272983 0.188516
0.588856 0.275669 0.191202
0.636430 0.278361 0.193894
0.684080 0.281056 0.196589
0.731801 0.283756 0.199289
0.779588 0.286459 0.201993
0.817578 0.288609 0.204142
0.083408 0.299049 0.170918
0.128767 0.301615 0.173484
0.174704 0.304214 0.176083
0.220995 0.306832 0.178702
0.267545 0.309466 0.181335
0.314298 0.312111 0.183980
0.361219 0.314765 0.186634
0.408284 0.317428 0.189297
0.455474 0.320097 0.191966
0.502774 0.322773 0.194642
0.550174 0.325455 0.197324
0.597664 0.328141 0.200010
0.645238 0.330833 0.202702
0.692888 0.333528 0.205397
0.740609 0.336228 0.208097
0.788396 0.338931 0.210801
0.826386 0.341080 0.212950
0.092247 0.351709 0.179758
0.137606 0.354275 0.182324
0.183543 0.356874 0.184922
0.229835 0.359493 0.187541
0.276385 0.362126 0.190175
0.323138 0.364771 0.192820
0.370059 0.367425 0.195474
0.417124 0.370088 0.198137
0.464313 0.372758 0.200806
0.511614 0.375433 0.203482
0.559014 0.378115 0.206164
0.606504 0.380802 0.208850
0.654078 0.383493 0.211541
0.701727 0.386189 0.214237
0.749448 0.388888 0.216937
0.797235 0.391592 0.219640
0.835226 0.393741 0.221789
0.101114 0.404530 0.188624
0.146473 0.407096 0.191190
0.192410 0.409695 0.193789
0.238702 0.412314 0.196408
0.285251 0.414947 0.199041
0.332005 0.417592 0.201686
0.378926 0.420246 0.204341
0.425990 0.422909 0.207003
0.473180 0.425579 0.209673
0.520480 0.428254 0.212349
0.567880 0.430936 0.215030
0.615371 0.433623 0.217717
0.662944 0.436314 0.220408
0.710594 0.439009 0.223104
0.758315 0.441709 0.225803
0.806102 0.444413 0.228507
0.844092 0.446562 0.230656
0.110004 0.457491 0.197514
0.155363 0.460057 0.200080
0.201300 0.462656 0.202679
0.247592 0.465275 0.205298
0.294141 0.467908 0.207931
0.340895 0.470553 0.210576
0.387816 0.473208 0.213231
0.434880 0.475870 0.215893
0.482070 0.478540 0.218563
0.529370 0.481216 0.221239
0.576770 0.483897 0.223920
0.624261 0.486584 0.226607
0.671834 0.489275 0.229298
0.719484 0.491971 0.231994
0.767205 0.494670 0.234693
0.814992 0.497374 0.237397
0.852983 0.499523 0.239546
0.118915 0.510577 0.206425
0.164274 0.513143 0.208991
0.210211 0.515741 0.211590
0.256503 0.518360 0.214209
0.303052 0.520994 0.216842
0.349806 0.523639 0.219487
0.396727 0.526293 0.222142
0.443791 0.528955 0.224804
0.490981 0.531625 0.227474
0.538281 0.534301 0.230150
0.585681 0.536982 0.232831
0.633172 0.539669 0.235518
0.680745 0.542360 0.238209
0.728395 0.545056 0.240905
0.776116 0.547756 0.243604
0.823903 0.550459 0.246308
0.861894 0.552608 0.248457
0.127845 0.563774 0.215355
0.173204 0.566340 0.217921
0.219141 0.568939 0.220520
0.265432 0.571557 0.223139
0.311982 0.574191 0.225772
0.358735 0.576836 0.228417
0.405657 0.579490 0.231072
0.452721 0.582153 0.233734
0.499911 0.584822 0.236404
0.547211 0.587498 0.239079
0.594611 0.590180 0.241761
0.642102 0.592866 0.244448
0.689675 0.595558 0.247139
0.737325 0.598253 0.249835
0.785046 0.600953 0.252534
0.832833 0.603656 0.255238
0.870823 0.605805 0.257387
0.136792 0.617072 0.224302
0.182150 0.619638 0.226868
0.228088 0.622237 0.229467
0.274379 0.624856 0.232086
0.320929 0.627489 0.234719
0.367682 0.630134 0.237364
0.414603 0.632789 0.240018
0.461668 0.635451 0.242681
0.508857 0.638121 0.245350
0.556158 0.640797 0.248026
0.603558 0.643478 0.250708
0.651048 0.646165 0.253394
0.698622 0.648856 0.256086
0.746272 0.651552 0.258781
0.793993 0.654251 0.261481
0.841780 0.656955 0.264184
0.879770 0.659104 0.266334
0.145754 0.670464 0.233264
0.191113 0.673030 0.235830
0.237050 0.675629 0.238429
0.283342 0.678248 0.241048
0.329891 0.680881 0.243681
0.376645 0.683526 0.246326
0.423566 0.686180 0.248981
0.470630 0.688843 0.251643
0.517820 0.691512 0.254313
0.565120 0.694188 0.256989
0.612520 0.696870 0.259670
0.660011 0.699556 0.262357
0.707584 0.702248 0.265048
0.755234 0.704943 0.267744
0.802955 0.707643 0.270443
0.850742 0.710346 0.273147
0.888732 0.712496 0.275296
0.154731 0.723941 0.242241
0.200090 0.726507 0.244807
0.246027 0.729106 0.247406
0.292318 0.731725 0.250025
0.338868 0.734358 0.252658
0.385621 0.737003 0.255303
0.432543 0.739658 0.257957
0.479607 0.742320 0.260620
0.526797 0.744990 0.263290
0.574097 0.747666 0.265965
0.621497 0.750347 0.268647
0.668988 0.753034 0.271334
0.716561 0.755725 0.274025
0.764211 0.758421 0.276721
0.811932 0.761120 0.279420
0.859719 0.763824 0.282124
0.897709 0.765973 0.284273
0.163721 0.777498 0.251231
0.209080 0.780065 0.253797
0.255017 0.782663 0.256396
0.301309 0.785282 0.259015
0.347858 0.787915 0.261648
0.394612 0.790560 0.264293
0.441533 0.793215 0.266948
0.488597 0.795877 0.269610
0.535787 0.798547 0.272280
0.583087 0.801223 0.274956
0.630487 0.803904 0.277637
0.677978 0.806591 0.280324
0.725551 0.809282 0.283015
0.773201 0.811978 0.285711
0.820922 0.814678 0.288410
0.868709 0.817381 0.291114
0.906699 0.819530 0.293263
0.172724 0.831130 0.260234
0.218082 0.833696 0.262800
0.264020 0.836295 0.265399
0.310311 0.838913 0.268018
0.356861 0.841547 0.270651
0.403614 0.844192 0.273296
0.450535 0.846846 0.275950
0.497600 0.849509 0.278613
0.544790 0.852178 0.281282
0.592090 0.854854 0.283958
0.639490 0.857536 0.286640
0.686980 0.860222 0.289326
0.734554 0.862914 0.292018
0.782204 0.865609 0.294713
0.829925 0.868309 0.297413
0.877712 0.871012 0.300116
0.915702 0.873162 0.302266
0.181305 0.882252 0.268815
0.226664 0.884818 0.271381
0.272601 0.887417 0.273980
0.318893 0.890035 0.276599
0.365442 0.892669 0.279232
0.412196 0.895314 0.281877
0.459117 0.897968 0.284532
0.506181 0.900631 0.287194
0.553371 0.903300 0.289864
0.600671 0.905976 0.292540
0.648071 0.908658 0.295221
0.695562 0.911344 0.297908
0.743135 0.914036 0.300599
0.790785 0.916731 0.303295
0.838506 0.919431 0.305994
0.886293 0.922134 0.308698
0.924283 0.924283 0.310847
0.040797 0.040797 0.171990
0.086156 0.043363 0.174556
0.132093 0.045962 0.177154
0.178385 0.048581 0.179773
0.224935 0.051214 0.182406
0.271688 0.053859 0.185051
0.318609 0.056514 0.187706
0.365674 0.059176 0.190368
0.412863 0.061846 0.193038
0.460164 0.064522 0.195714
0.507564 0.067203 0.198395
0.555054 0.069890 0.201082
0.602628 0.072581 0.203773
0.650277 0.075277 0.206469
0.697998 0.077976 0.209169
0.745786 0.080680 0.211872
0.783776 0.082829 0.214021
0.049344 0.091710 0.180536
