public/luts/iphone/lk-iphone-cool.cube
TITLE "LK iPhone Cool"
LUT_3D_SIZE 5
DOMAIN_MIN 0.0 0.0 0.0
DOMAIN_MAX 1.0 1.0 1.0
0.000143 0.000143 0.008088
0.183095 0.009377 0.017322
0.380783 0.019353 0.027298
0.581714 0.029494 0.037439
0.784768 0.039742 0.047687
0.031546 0.207177 0.039491
0.214498 0.216410 0.048724
0.412186 0.226387 0.058701
0.613116 0.236527 0.068842
0.816171 0.246775 0.079089
0.065466 0.430804 0.073411
0.248417 0.440037 0.082644
0.446106 0.450014 0.092621
0.647036 0.460154 0.102761
0.850091 0.470402 0.113009
0.099942 0.658098 0.107887
0.282893 0.667331 0.117120
0.480582 0.677308 0.127097
0.681512 0.687448 0.137237
0.884567 0.697696 0.147485
0.134782 0.887795 0.142727
0.317734 0.897028 0.151960
0.515422 0.907005 0.161937
0.716352 0.917145 0.172078
0.919407 0.927393 0.182325
0.003845 0.003845 0.216843
0.186796 0.013078 0.226077
0.384484 0.023055 0.236053
0.585415 0.033195 0.246194
0.788470 0.043443 0.256442
0.035247 0.210878 0.248246
0.218199 0.220111 0.257479
0.415887 0.230088 0.267456
0.616818 0.240228 0.277597
0.819872 0.250476 0.287844
0.069167 0.434505 0.282166
0.252119 0.443738 0.291399
0.449807 0.453715 0.301376
0.650737 0.463855 0.311516
0.853792 0.474103 0.321764
0.103643 0.661799 0.316642
0.286594 0.671032 0.325875
0.484283 0.681009 0.335852
0.685213 0.691149 0.345992
0.888268 0.701397 0.356240
0.138483 0.891496 0.351482
0.321435 0.900729 0.360715
0.519123 0.910706 0.370692
0.720054 0.920846 0.380833
0.923108 0.931094 0.391080
0.007553 0.007553 0.425987
0.190504 0.016786 0.435220
0.388193 0.026763 0.445197
0.589123 0.036903 0.455337
0.792178 0.047151 0.465585
0.038955 0.214586 0.457389
0.221907 0.223819 0.466623
0.419595 0.233796 0.476599
0.620526 0.243937 0.486740
0.823581 0.254184 0.496988
0.072875 0.438213 0.491309
0.255827 0.447446 0.500542
0.453515 0.457423 0.510519
0.654445 0.467564 0.520660
0.857500 0.477811 0.530907
0.107351 0.665507 0.525785
0.290303 0.674740 0.535018
0.487991 0.684717 0.544995
0.688921 0.694858 0.555135
0.891976 0.705105 0.565383
0.142191 0.895204 0.560625
0.325143 0.904437 0.569858
0.522831 0.914414 0.579835
0.723762 0.924555 0.589976
0.926816 0.934802 0.600224
0.011262 0.011262 0.635207
0.194214 0.020495 0.644440
0.391902 0.030472 0.654417
0.592832 0.040613 0.664558
0.795887 0.050860 0.674805
0.042665 0.218296 0.666610
0.225616 0.227529 0.675843
0.423305 0.237505 0.685820
0.624235 0.247646 0.695960
0.827290 0.257894 0.706208
0.076585 0.441923 0.700529
0.259536 0.451156 0.709763
0.457224 0.461133 0.719739
0.658155 0.471273 0.729880
0.861210 0.481521 0.740128
0.111061 0.669217 0.735005
0.294012 0.678450 0.744238
0.491700 0.688427 0.754215
0.692631 0.698567 0.764356
0.895686 0.708815 0.774604
0.145901 0.898914 0.769846
0.328852 0.908147 0.779079
0.526541 0.918124 0.789056
0.727471 0.928264 0.799196
0.930526 0.938512 0.809444
0.013880 0.013880 0.782872
0.196832 0.023113 0.792105
0.394520 0.033090 0.802082
0.595451 0.043231 0.812223
0.798505 0.053478 0.822470
0.045283 0.220914 0.814275
0.228235 0.230147 0.823508
0.425923 0.240124 0.833485
0.626853 0.250264 0.843625
0.829908 0.260512 0.853873
0.079203 0.444541 0.848194
0.262154 0.453774 0.857428
0.459843 0.463751 0.867404
0.660773 0.473891 0.877545
0.863828 0.484139 0.887793
0.113679 0.671835 0.882670
0.296630 0.681068 0.891904
0.494318 0.691045 0.901880
0.695249 0.701185 0.912021
0.898304 0.711433 0.922269
0.148519 0.901532 0.917511
0.331470 0.910765 0.926744
0.529159 0.920742 0.936721
0.730089 0.930882 0.946861
0.933144 0.941130 0.957109
