public/luts/iphone/lk-iphone-cinema.cube
TITLE "LK iPhone Cinema"
LUT_3D_SIZE 5
DOMAIN_MIN 0.0 0.0 0.0
DOMAIN_MAX 1.0 1.0 1.0
0.038153 0.038153 0.039496
0.222291 0.048570 0.049913
0.410219 0.059202 0.060544
0.599983 0.069937 0.071280
0.781132 0.080185 0.081527
0.072845 0.244822 0.074188
0.256982 0.255239 0.084605
0.444911 0.265871 0.095236
0.634675 0.276606 0.105971
0.815823 0.286854 0.116219
0.108249 0.455736 0.109592
0.292387 0.466153 0.120009
0.480315 0.476785 0.130640
0.670080 0.487520 0.141376
0.851228 0.497768 0.151624
0.143999 0.668709 0.145342
0.328137 0.679126 0.155759
0.516065 0.689758 0.166390
0.705829 0.700493 0.177126
0.886978 0.710741 0.187374
0.179550 0.880497 0.180893
0.363688 0.890914 0.191310
0.551616 0.901546 0.201941
0.741380 0.912281 0.212677
0.922529 0.922529 0.222925
0.041692 0.041692 0.216807
0.225829 0.052109 0.227224
0.413758 0.062740 0.237856
0.603522 0.073476 0.248591
0.784670 0.083723 0.258839
0.076384 0.248361 0.251499
0.260521 0.258778 0.261916
0.448450 0.269409 0.272547
0.638214 0.280145 0.283283
0.819362 0.290393 0.293530
0.111788 0.459275 0.286903
0.295925 0.469692 0.297320
0.483854 0.480324 0.307952
0.673618 0.491059 0.318687
0.854766 0.501307 0.328935
0.147538 0.672248 0.322653
0.331675 0.682665 0.333070
0.519604 0.693296 0.343702
0.709368 0.704032 0.354437
0.890516 0.714280 0.364685
0.183089 0.884036 0.358204
0.367226 0.894453 0.368621
0.555155 0.905084 0.379253
0.744919 0.915820 0.389988
0.926067 0.926067 0.400236
0.045303 0.045303 0.397732
0.229440 0.055720 0.408149
0.417369 0.066351 0.418781
0.607133 0.077086 0.429516
0.788281 0.087334 0.439764
0.079994 0.251972 0.432424
0.264132 0.262389 0.442841
0.452060 0.273020 0.453473
0.641825 0.283756 0.464208
0.822973 0.294003 0.474456
0.115399 0.462886 0.467829
0.299536 0.473303 0.478246
0.487465 0.483934 0.488877
0.677229 0.494670 0.499612
0.858377 0.504918 0.509860
0.151149 0.675859 0.503579
0.335286 0.686276 0.513996
0.523215 0.696907 0.524627
0.712979 0.707643 0.535362
0.894127 0.717891 0.545610
0.186700 0.887647 0.539130
0.370837 0.898064 0.549547
0.558766 0.908695 0.560178
0.748530 0.919430 0.570913
0.929678 0.929678 0.581161
0.048949 0.048949 0.580418
0.233086 0.059366 0.590835
0.421015 0.069997 0.601467
0.610779 0.080732 0.612202
0.791927 0.090980 0.622450
0.083640 0.255618 0.615110
0.267778 0.266035 0.625527
0.455706 0.276666 0.636159
0.645471 0.287402 0.646894
0.826619 0.297649 0.657142
0.119045 0.466532 0.650515
0.303182 0.476949 0.660932
0.491111 0.487580 0.671563
0.680875 0.498316 0.682298
0.862023 0.508564 0.692546
0.154795 0.679505 0.686264
0.338932 0.689922 0.696681
0.526861 0.700553 0.707313
0.716625 0.711289 0.718048
0.897773 0.721537 0.728296
0.190346 0.891293 0.721816
0.374483 0.901710 0.732233
0.562412 0.912341 0.742864
0.752176 0.923076 0.753599
0.933324 0.933324 0.763847
0.052400 0.052400 0.753347
0.236537 0.062817 0.763764
0.424466 0.073448 0.774395
0.614230 0.084184 0.785131
0.795378 0.094432 0.795378
0.087092 0.259069 0.788039
0.271229 0.269486 0.798456
0.459158 0.280117 0.809087
0.648922 0.290853 0.819822
0.830070 0.301101 0.830070
0.122496 0.469983 0.823443
0.306634 0.480400 0.833860
0.494562 0.491032 0.844491
0.684326 0.501767 0.855227
0.865475 0.512015 0.865475
0.158246 0.682956 0.859193
0.342384 0.693373 0.869610
0.530312 0.704005 0.880241
0.720076 0.714740 0.890977
0.901225 0.724988 0.901225
0.193797 0.894744 0.894744
0.377935 0.905161 0.905161
0.565863 0.915792 0.915792
0.755627 0.926528 0.926528
0.936776 0.936776 0.936776
