public/luts/iphone/lk-iphone-golden.cube
TITLE "LK iPhone Golden"
LUT_3D_SIZE 17
DOMAIN_MIN 0.0 0.0 0.0
DOMAIN_MAX 1.0 1.0 1.0
0.020404 0.012455 0.009873
0.098911 0.011652 0.009071
0.172438 0.010900 0.008319
0.243698 0.010172 0.007590
0.313472 0.009458 0.006876
0.382143 0.008756 0.006174
0.449939 0.008062 0.005480
0.517011 0.007376 0.004794
0.583466 0.006697 0.004115
0.649385 0.006022 0.003441
0.714830 0.005353 0.002771
0.779851 0.004688 0.002106
0.844487 0.004027 0.001445
0.908773 0.003370 0.000788
0.972737 0.002715 0.000134
1.000000 0.002262 0.000000
1.000000 0.002262 0.000000
0.017922 0.082836 0.007392
0.096430 0.082033 0.006589
0.169956 0.081281 0.005837
0.241217 0.080552 0.005108
0.310991 0.079839 0.004395
0.379662 0.079136 0.003692
0.447458 0.078443 0.002999
0.514529 0.077757 0.002313
0.580985 0.077077 0.001633
0.646904 0.076403 0.000959
0.712349 0.075734 0.000290
0.777369 0.075069 0.000000
0.842006 0.074408 0.000000
0.906292 0.073750 0.000000
0.970255 0.073096 0.000000
1.000000 0.072642 0.000000
1.000000 0.072642 0.000000
0.015589 0.149025 0.005058
0.094096 0.148222 0.004255
0.167623 0.147470 0.003503
0.238883 0.146741 0.002775
0.308657 0.146028 0.002061
0.377328 0.145325 0.001359
0.445124 0.144632 0.000665
0.512196 0.143946 0.000000
0.578651 0.143266 0.000000
0.644570 0.142592 0.000000
0.710015 0.141923 0.000000
0.775036 0.141258 0.000000
0.839672 0.140597 0.000000
0.903958 0.139939 0.000000
0.967922 0.139285 0.000000
1.000000 0.138831 0.000000
1.000000 0.138831 0.000000
0.013319 0.213399 0.002789
0.091826 0.212597 0.001986
0.165353 0.211845 0.001234
0.236613 0.211116 0.000505
0.306387 0.210402 0.000000
0.375058 0.209700 0.000000
0.442854 0.209006 0.000000
0.509926 0.208320 0.000000
0.576381 0.207641 0.000000
0.642300 0.206967 0.000000
0.707746 0.206297 0.000000
0.772766 0.205632 0.000000
0.837402 0.204971 0.000000
0.901688 0.204314 0.000000
0.965652 0.203660 0.000000
1.000000 0.203206 0.000000
1.000000 0.203206 0.000000
0.011091 0.276594 0.000560
0.089598 0.275791 0.000000
0.163125 0.275039 0.000000
0.234385 0.274310 0.000000
0.304159 0.273596 0.000000
0.372830 0.272894 0.000000
0.440626 0.272201 0.000000
0.507698 0.271515 0.000000
0.574153 0.270835 0.000000
0.640072 0.270161 0.000000
0.705517 0.269491 0.000000
0.770538 0.268826 0.000000
0.835174 0.268165 0.000000
0.899460 0.267508 0.000000
0.963424 0.266854 0.000000
1.000000 0.266400 0.000000
1.000000 0.266400 0.000000
0.008894 0.338914 0.000000
0.087401 0.338111 0.000000
0.160928 0.337359 0.000000
0.232188 0.336630 0.000000
0.301962 0.335916 0.000000
0.370633 0.335214 0.000000
0.438429 0.334521 0.000000
0.505501 0.333835 0.000000
0.571956 0.333155 0.000000
0.637875 0.332481 0.000000
0.703320 0.331812 0.000000
0.768341 0.331147 0.000000
0.832977 0.330486 0.000000
0.897263 0.329828 0.000000
0.961226 0.329174 0.000000
1.000000 0.328720 0.000000
1.000000 0.328720 0.000000
0.006721 0.400542 0.000000
0.085228 0.399739 0.000000
0.158755 0.398987 0.000000
0.230015 0.398258 0.000000
0.299789 0.397544 0.000000
0.368460 0.396842 0.000000
0.436256 0.396149 0.000000
0.503328 0.395463 0.000000
0.569783 0.394783 0.000000
0.635702 0.394109 0.000000
0.701147 0.393439 0.000000
0.766168 0.392774 0.000000
0.830804 0.392113 0.000000
0.895090 0.391456 0.000000
0.959054 0.390802 0.000000
1.000000 0.390348 0.000000
1.000000 0.390348 0.000000
0.004568 0.461597 0.000000
0.083075 0.460794 0.000000
0.156602 0.460042 0.000000
0.227862 0.459313 0.000000
0.297636 0.458599 0.000000
0.366307 0.457897 0.000000
0.434103 0.457204 0.000000
0.501175 0.456518 0.000000
0.567630 0.455838 0.000000
0.633550 0.455164 0.000000
0.698995 0.454495 0.000000
0.764015 0.453830 0.000000
0.828651 0.453169 0.000000
0.892937 0.452511 0.000000
0.956901 0.451857 0.000000
1.000000 0.451403 0.000000
1.000000 0.451403 0.000000
0.002433 0.522164 0.000000
0.080940 0.521362 0.000000
0.154467 0.520610 0.000000
0.225727 0.519881 0.000000
0.295501 0.519167 0.000000
0.364172 0.518465 0.000000
0.431968 0.517771 0.000000
0.499040 0.517085 0.000000
0.565495 0.516406 0.000000
0.631414 0.515732 0.000000
0.696859 0.515062 0.000000
0.761880 0.514397 0.000000
0.826516 0.513736 0.000000
0.890802 0.513079 0.000000
0.954765 0.512425 0.000000
0.999126 0.511971 0.000000
0.999126 0.511971 0.000000
0.000312 0.582308 0.000000
0.078819 0.581505 0.000000
0.152346 0.580753 0.000000
0.223606 0.580024 0.000000
0.293380 0.579311 0.000000
0.362051 0.578608 0.000000
0.429847 0.577915 0.000000
0.496919 0.577229 0.000000
0.563374 0.576549 0.000000
0.629294 0.575875 0.000000
0.694739 0.575206 0.000000
0.759759 0.574541 0.000000
0.824395 0.573880 0.000000
0.888681 0.573222 0.000000
0.952645 0.572568 0.000000
0.997005 0.572114 0.000000
0.997005 0.572114 0.000000
0.000000 0.642077 0.000000
0.076712 0.641274 0.000000
0.150239 0.640522 0.000000
0.221499 0.639793 0.000000
0.291273 0.639079 0.000000
0.359944 0.638377 0.000000
0.427740 0.637684 0.000000
0.494812 0.636998 0.000000
0.561267 0.636318 0.000000
0.627186 0.635644 0.000000
0.692631 0.634974 0.000000
0.757652 0.634309 0.000000
0.822288 0.633648 0.000000
0.886574 0.632991 0.000000
0.950538 0.632337 0.000000
0.994898 0.631883 0.000000
0.994898 0.631883 0.000000
0.000000 0.701509 0.000000
0.074617 0.700706 0.000000
0.148143 0.699954 0.000000
0.219403 0.699226 0.000000
0.289177 0.698512 0.000000
0.357848 0.697810 0.000000
0.425644 0.697116 0.000000
0.492716 0.696430 0.000000
0.559172 0.695751 0.000000
0.625091 0.695076 0.000000
0.690536 0.694407 0.000000
0.755556 0.693742 0.000000
0.820193 0.693081 0.000000
0.884478 0.692424 0.000000
0.948442 0.691769 0.000000
0.992802 0.691316 0.000000
0.992802 0.691316 0.000000
0.000000 0.760638 0.000000
0.072532 0.759835 0.000000
0.146059 0.759083 0.000000
0.217319 0.758354 0.000000
0.287093 0.757641 0.000000
0.355764 0.756938 0.000000
0.423560 0.756245 0.000000
0.490632 0.755559 0.000000
0.557087 0.754879 0.000000
0.623006 0.754205 0.000000
0.688451 0.753536 0.000000
0.753472 0.752871 0.000000
0.818108 0.752210 0.000000
0.882394 0.751552 0.000000
0.946357 0.750898 0.000000
0.990718 0.750444 0.000000
0.990718 0.750444 0.000000
0.000000 0.819489 0.000000
0.070457 0.818686 0.000000
0.143984 0.817934 0.000000
0.215244 0.817205 0.000000
0.285018 0.816492 0.000000
0.353689 0.815790 0.000000
0.421485 0.815096 0.000000
0.488557 0.814410 0.000000
0.555012 0.813731 0.000000
0.620931 0.813056 0.000000
0.686376 0.812387 0.000000
0.751397 0.811722 0.000000
0.816033 0.811061 0.000000
0.880319 0.810404 0.000000
0.944282 0.809749 0.000000
0.988643 0.809296 0.000000
0.988643 0.809296 0.000000
0.000000 0.878085 0.000000
0.068391 0.877282 0.000000
0.141918 0.876530 0.000000
0.213178 0.875801 0.000000
0.282952 0.875088 0.000000
0.351623 0.874386 0.000000
0.419419 0.873692 0.000000
0.486491 0.873006 0.000000
0.552946 0.872327 0.000000
0.618865 0.871652 0.000000
0.684310 0.870983 0.000000
0.749331 0.870318 0.000000
0.813967 0.869657 0.000000
0.878253 0.869000 0.000000
0.942216 0.868345 0.000000
0.986577 0.867892 0.000000
0.986577 0.867892 0.000000
0.000000 0.936445 0.000000
0.066333 0.935642 0.000000
0.139860 0.934890 0.000000
0.211120 0.934161 0.000000
0.280894 0.933448 0.000000
0.349565 0.932745 0.000000
0.417361 0.932052 0.000000
0.484433 0.931366 0.000000
0.550888 0.930686 0.000000
0.616807 0.930012 0.000000
0.682252 0.929343 0.000000
0.747273 0.928678 0.000000
0.811909 0.928017 0.000000
0.876195 0.927359 0.000000
0.940159 0.926705 0.000000
0.984519 0.926252 0.000000
0.984519 0.926252 0.000000
0.000000 0.992728 0.000000
0.064349 0.991925 0.000000
0.137876 0.991173 0.000000
0.209136 0.990444 0.000000
0.278910 0.989731 0.000000
0.347581 0.989028 0.000000
0.415377 0.988335 0.000000
0.482448 0.987649 0.000000
0.548904 0.986969 0.000000
0.614823 0.986295 0.000000
0.680268 0.985626 0.000000
0.745289 0.984961 0.000000
0.809925 0.984300 0.000000
0.874211 0.983642 0.000000
0.938174 0.982988 0.000000
0.982535 0.982535 0.000000
0.982535 0.982535 0.000000
0.020247 0.012298 0.055488
0.098754 0.011495 0.054685
0.172281 0.010743 0.053933
0.243541 0.010014 0.053204
0.313315 0.009301 0.052491
0.381986 0.008598 0.051788
0.449782 0.007905 0.051095
0.516854 0.007219 0.050409
0.583309 0.006539 0.049729
0.649228 0.005865 0.049055
0.714673 0.005196 0.048386
0.779694 0.004531 0.047721
0.844330 0.003870 0.047060
0.908616 0.003212 0.046402
0.972579 0.002558 0.045748
1.000000 0.002104 0.045294
1.000000 0.002104 0.045294
0.017765 0.082678 0.053006
0.096272 0.081876 0.052203
0.169799 0.081124 0.051452
0.241059 0.080395 0.050723
0.310833 0.079681 0.050009
0.379504 0.078979 0.049307
0.447300 0.078285 0.048613
0.514372 0.077600 0.047927
0.580827 0.076920 0.047248
0.646747 0.076246 0.046574
0.712192 0.075576 0.045904
0.777212 0.074911 0.045239
0.841848 0.074250 0.044578
0.906134 0.073593 0.043921
0.970098 0.072939 0.043267
1.000000 0.072485 0.042813
1.000000 0.072485 0.042813
0.015431 0.148867 0.050673
0.093939 0.148065 0.049870
0.167465 0.147313 0.049118
0.238725 0.146584 0.048389
0.308500 0.145870 0.047675
0.377171 0.145168 0.046973
0.444966 0.144474 0.046280
0.512038 0.143788 0.045594
0.578494 0.143109 0.044914
0.644413 0.142435 0.044240
0.709858 0.141765 0.043571
0.774878 0.141100 0.042906
0.839515 0.140439 0.042245
0.903801 0.139782 0.041587
0.967764 0.139128 0.040933
1.000000 0.138674 0.040479
1.000000 0.138674 0.040479
0.013162 0.213242 0.048403
0.091669 0.212439 0.047600
0.165196 0.211687 0.046848
0.236456 0.210958 0.046119
0.306230 0.210245 0.045406
0.374901 0.209542 0.044703
0.442697 0.208849 0.044010
0.509769 0.208163 0.043324
0.576224 0.207483 0.042644
0.642143 0.206809 0.041970
0.707588 0.206140 0.041301
0.772609 0.205475 0.040636
0.837245 0.204814 0.039975
0.901531 0.204156 0.039317
0.965494 0.203502 0.038663
1.000000 0.203049 0.038209
1.000000 0.203049 0.038209
0.010934 0.276436 0.046175
0.089441 0.275633 0.045372
0.162968 0.274881 0.044620
0.234228 0.274152 0.043891
0.304002 0.273439 0.043178
0.372673 0.272737 0.042475
0.440469 0.272043 0.041782
0.507541 0.271357 0.041096
0.573996 0.270678 0.040416
0.639915 0.270003 0.039742
0.705360 0.269334 0.039073
0.770381 0.268669 0.038408
0.835017 0.268008 0.037747
0.899303 0.267351 0.037089
0.963266 0.266696 0.036435
1.000000 0.266243 0.035981
1.000000 0.266243 0.035981
0.008736 0.338756 0.043978
0.087244 0.337954 0.043175
0.160770 0.337202 0.042423
0.232030 0.336473 0.041694
0.301804 0.335759 0.040980
0.370475 0.335057 0.040278
0.438271 0.334363 0.039585
0.505343 0.333677 0.038899
0.571799 0.332998 0.038219
0.637718 0.332324 0.037545
0.703163 0.331654 0.036875
0.768183 0.330989 0.036211
0.832820 0.330328 0.035549
0.897105 0.329671 0.034892
0.961069 0.329017 0.034238
1.000000 0.328563 0.033784
1.000000 0.328563 0.033784
0.006563 0.400384 0.041805
0.085071 0.399581 0.041002
0.158597 0.398829 0.040250
0.229858 0.398101 0.039521
0.299632 0.397387 0.038807
0.368303 0.396685 0.038105
0.436098 0.395991 0.037412
0.503170 0.395305 0.036726
0.569626 0.394626 0.036046
0.635545 0.393951 0.035372
0.700990 0.393282 0.034703
0.766010 0.392617 0.034038
0.830647 0.391956 0.033377
0.894933 0.391299 0.032719
0.958896 0.390644 0.032065
1.000000 0.390191 0.031611
1.000000 0.390191 0.031611
0.004411 0.461439 0.039652
0.082918 0.460637 0.038849
0.156445 0.459885 0.038097
0.227705 0.459156 0.037368
0.297479 0.458442 0.036655
0.366150 0.457740 0.035952
0.433946 0.457046 0.035259
0.501018 0.456360 0.034573
0.567473 0.455681 0.033893
0.633392 0.455007 0.033219
0.698837 0.454337 0.032550
0.763858 0.453672 0.031885
0.828494 0.453011 0.031224
0.892780 0.452354 0.030566
0.956744 0.451700 0.029912
1.000000 0.451246 0.029459
1.000000 0.451246 0.029459
0.002275 0.522007 0.037517
0.080783 0.521204 0.036714
0.154309 0.520452 0.035962
0.225569 0.519723 0.035233
0.295343 0.519010 0.034519
0.364014 0.518307 0.033817
0.431810 0.517614 0.033124
0.498882 0.516928 0.032438
0.565338 0.516248 0.031758
0.631257 0.515574 0.031084
0.696702 0.514905 0.030414
0.761722 0.514240 0.029749
0.826359 0.513579 0.029088
0.890644 0.512921 0.028431
0.954608 0.512267 0.027777
0.998968 0.511814 0.027323
0.998968 0.511814 0.027323
0.000155 0.582151 0.035396
0.078662 0.581348 0.034593
0.152189 0.580596 0.033841
0.223449 0.579867 0.033112
0.293223 0.579153 0.032399
0.361894 0.578451 0.031696
0.429690 0.577758 0.031003
0.496762 0.577072 0.030317
0.563217 0.576392 0.029637
0.629136 0.575718 0.028963
0.694581 0.575048 0.028294
0.759602 0.574384 0.027629
0.824238 0.573722 0.026968
0.888524 0.573065 0.026310
0.952487 0.572411 0.025656
0.996848 0.571957 0.025203
0.996848 0.571957 0.025203
0.000000 0.641919 0.033289
0.076555 0.641116 0.032486
0.150081 0.640364 0.031734
0.221341 0.639636 0.031005
0.291116 0.638922 0.030291
0.359787 0.638220 0.029589
0.427582 0.637526 0.028896
0.494654 0.636840 0.028210
0.561110 0.636161 0.027530
0.627029 0.635486 0.026856
0.692474 0.634817 0.026187
0.757494 0.634152 0.025522
0.822131 0.633491 0.024861
0.886417 0.632834 0.024203
0.950380 0.632179 0.023549
0.994740 0.631726 0.023095
0.994740 0.631726 0.023095
0.000000 0.701352 0.031193
0.074459 0.700549 0.030390
0.147986 0.699797 0.029638
0.219246 0.699068 0.028910
0.289020 0.698355 0.028196
0.357691 0.697652 0.027494
0.425487 0.696959 0.026800
0.492559 0.696273 0.026114
0.559014 0.695593 0.025435
0.624933 0.694919 0.024760
0.690378 0.694250 0.024091
0.755399 0.693585 0.023426
0.820035 0.692924 0.022765
0.884321 0.692266 0.022108
0.948285 0.691612 0.021453
0.992645 0.691158 0.021000
0.992645 0.691158 0.021000
0.000000 0.760481 0.029109
0.072374 0.759678 0.028306
0.145901 0.758926 0.027554
0.217161 0.758197 0.026825
0.286935 0.757483 0.026111
0.355606 0.756781 0.025409
0.423402 0.756088 0.024716
0.490474 0.755402 0.024030
0.556930 0.754722 0.023350
0.622849 0.754048 0.022676
0.688294 0.753378 0.022006
0.753314 0.752713 0.021341
0.817951 0.752052 0.020680
0.882236 0.751395 0.020023
0.946200 0.750741 0.019369
0.990560 0.750287 0.018915
0.990560 0.750287 0.018915
0.000000 0.819332 0.027034
0.070299 0.818529 0.026231
0.143826 0.817777 0.025479
0.215086 0.817048 0.024750
0.284860 0.816335 0.024036
0.353531 0.815632 0.023334
0.421327 0.814939 0.022641
0.488399 0.814253 0.021955
0.554855 0.813573 0.021275
0.620774 0.812899 0.020601
0.686219 0.812230 0.019931
0.751239 0.811565 0.019266
0.815876 0.810904 0.018605
0.880161 0.810246 0.017948
0.944125 0.809592 0.017294
0.988485 0.809138 0.016840
0.988485 0.809138 0.016840
0.000000 0.877928 0.024968
0.068234 0.877125 0.024165
0.141760 0.876373 0.023413
0.213020 0.875644 0.022684
0.282794 0.874931 0.021970
0.351465 0.874228 0.021268
0.419261 0.873535 0.020575
0.486333 0.872849 0.019889
0.552789 0.872169 0.019209
0.618708 0.871495 0.018535
0.684153 0.870826 0.017865
0.749173 0.870161 0.017200
0.813810 0.869500 0.016539
0.878095 0.868842 0.015882
0.942059 0.868188 0.015228
0.986419 0.867734 0.014774
0.986419 0.867734 0.014774
0.000000 0.936288 0.022910
0.066176 0.935485 0.022107
0.139703 0.934733 0.021355
0.210963 0.934004 0.020626
0.280737 0.933290 0.019913
0.349408 0.932588 0.019210
0.417204 0.931895 0.018517
0.484276 0.931209 0.017831
0.550731 0.930529 0.017151
0.616650 0.929855 0.016477
0.682095 0.929186 0.015808
0.747116 0.928521 0.015143
0.811752 0.927860 0.014482
0.876038 0.927202 0.013824
0.940001 0.926548 0.013170
0.984362 0.926094 0.012716
0.984362 0.926094 0.012716
0.000000 0.992571 0.020925
0.064191 0.991768 0.020123
0.137718 0.991016 0.019371
0.208978 0.990287 0.018642
0.278752 0.989573 0.017928
0.347423 0.988871 0.017226
0.415219 0.988178 0.016532
0.482291 0.987492 0.015847
0.548746 0.986812 0.015167
0.614666 0.986138 0.014493
0.680111 0.985469 0.013823
0.745131 0.984804 0.013158
0.809768 0.984143 0.012497
0.874053 0.983485 0.011840
0.938017 0.982831 0.011186
0.982377 0.982377 0.010732
0.982377 0.982377 0.010732
0.020052 0.012104 0.111792
0.098560 0.011301 0.110989
0.172086 0.010549 0.110237
0.243346 0.009820 0.109508
0.313120 0.009106 0.108794
0.381791 0.008404 0.108092
0.449587 0.007711 0.107399
0.516659 0.007025 0.106713
0.583115 0.006345 0.106033
0.649034 0.005671 0.105359
0.714479 0.005001 0.104689
0.779499 0.004336 0.104024
0.844136 0.003675 0.103363
0.908422 0.003018 0.102706
0.972385 0.002364 0.102052
1.000000 0.001910 0.101598
1.000000 0.001910 0.101598
0.017571 0.082484 0.109310
0.096078 0.081681 0.108507
0.169605 0.080929 0.107755
0.240865 0.080201 0.107026
0.310639 0.079487 0.106313
0.379310 0.078785 0.105610
0.447106 0.078091 0.104917
0.514178 0.077405 0.104231
0.580633 0.076726 0.103551
0.646552 0.076051 0.102877
0.711997 0.075382 0.102208
0.777018 0.074717 0.101543
0.841654 0.074056 0.100882
0.905940 0.073399 0.100224
0.969904 0.072744 0.099570
1.000000 0.072291 0.099117
1.000000 0.072291 0.099117
0.015237 0.148673 0.106976
0.093744 0.147870 0.106173
0.167271 0.147118 0.105421
0.238531 0.146389 0.104693
0.308305 0.145676 0.103979
0.376976 0.144974 0.103277
0.444772 0.144280 0.102583
0.511844 0.143594 0.101897
0.578299 0.142915 0.101218
0.644219 0.142240 0.100544
0.709664 0.141571 0.099874
0.774684 0.140906 0.099209
0.839321 0.140245 0.098548
0.903606 0.139588 0.097891
0.967570 0.138933 0.097237
1.000000 0.138480 0.096783
1.000000 0.138480 0.096783
0.012967 0.213048 0.104707
0.091475 0.212245 0.103904
0.165001 0.211493 0.103152
0.236262 0.210764 0.102423
0.306036 0.210050 0.101709
0.374707 0.209348 0.101007
0.442502 0.208655 0.100314
0.509574 0.207969 0.099628
0.576030 0.207289 0.098948
0.641949 0.206615 0.098274
0.707394 0.205946 0.097605
0.772414 0.205281 0.096940
0.837051 0.204620 0.096278
0.901337 0.203962 0.095621
0.965300 0.203308 0.094967
1.000000 0.202854 0.094513
1.000000 0.202854 0.094513
0.010739 0.276242 0.102479
0.089247 0.275439 0.101676
0.162773 0.274687 0.100924
0.234033 0.273958 0.100195
0.303808 0.273245 0.099481
0.372479 0.272542 0.098779
0.440274 0.271849 0.098086
0.507346 0.271163 0.097400
0.573802 0.270483 0.096720
0.639721 0.269809 0.096046
0.705166 0.269140 0.095376
0.770186 0.268475 0.094711
0.834823 0.267814 0.094050
0.899109 0.267156 0.093393
0.963072 0.266502 0.092739
1.000000 0.266048 0.092285
1.000000 0.266048 0.092285
0.008542 0.338562 0.100281
0.087049 0.337759 0.099478
0.160576 0.337007 0.098726
0.231836 0.336278 0.097998
0.301610 0.335565 0.097284
0.370281 0.334863 0.096582
0.438077 0.334169 0.095888
0.505149 0.333483 0.095202
0.571604 0.332804 0.094523
0.637523 0.332129 0.093848
0.702969 0.331460 0.093179
0.767989 0.330795 0.092514
0.832625 0.330134 0.091853
0.896911 0.329477 0.091196
0.960875 0.328822 0.090541
1.000000 0.328369 0.090088
1.000000 0.328369 0.090088
0.006369 0.400190 0.098108
0.084876 0.399387 0.097305
0.158403 0.398635 0.096553
0.229663 0.397906 0.095825
0.299437 0.397193 0.095111
0.368108 0.396490 0.094409
0.435904 0.395797 0.093715
0.502976 0.395111 0.093029
0.569432 0.394431 0.092350
0.635351 0.393757 0.091676
0.700796 0.393088 0.091006
0.765816 0.392423 0.090341
0.830453 0.391762 0.089680
0.894738 0.391104 0.089023
0.958702 0.390450 0.088369
1.000000 0.389996 0.087915
1.000000 0.389996 0.087915
0.004216 0.461245 0.095956
0.082724 0.460442 0.095153
0.156251 0.459690 0.094401
0.227511 0.458961 0.093672
0.297285 0.458248 0.092958
0.365956 0.457546 0.092256
0.433752 0.456852 0.091563
0.500823 0.456166 0.090877
0.567279 0.455487 0.090197
0.633198 0.454812 0.089523
0.698643 0.454143 0.088854
0.763663 0.453478 0.088189
0.828300 0.452817 0.087528
0.892586 0.452160 0.086870
0.956549 0.451505 0.086216
1.000000 0.451052 0.085762
1.000000 0.451052 0.085762
0.002081 0.521813 0.093820
0.080588 0.521010 0.093017
0.154115 0.520258 0.092265
0.225375 0.519529 0.091537
0.295149 0.518816 0.090823
0.363820 0.518113 0.090121
0.431616 0.517420 0.089427
0.498688 0.516734 0.088741
0.565143 0.516054 0.088062
0.631062 0.515380 0.087387
0.696507 0.514711 0.086718
0.761528 0.514046 0.086053
0.826164 0.513385 0.085392
0.890450 0.512727 0.084735
0.954414 0.512073 0.084080
0.998774 0.511619 0.083627
0.998774 0.511619 0.083627
0.000000 0.581956 0.091700
0.078468 0.581153 0.090897
0.151995 0.580401 0.090145
0.223255 0.579673 0.089416
0.293029 0.578959 0.088702
0.361700 0.578257 0.088000
0.429496 0.577563 0.087307
0.496567 0.576877 0.086621
0.563023 0.576198 0.085941
0.628942 0.575524 0.085267
0.694387 0.574854 0.084598
0.759407 0.574189 0.083933
0.824044 0.573528 0.083272
0.888330 0.572871 0.082614
0.952293 0.572217 0.081960
0.996653 0.571763 0.081506
0.996653 0.571763 0.081506
0.000000 0.641725 0.089592
0.076360 0.640922 0.088789
0.149887 0.640170 0.088037
0.221147 0.639441 0.087309
0.290921 0.638728 0.086595
0.359592 0.638025 0.085893
0.427388 0.637332 0.085199
0.494460 0.636646 0.084513
0.560915 0.635966 0.083834
0.626835 0.635292 0.083160
0.692280 0.634623 0.082490
0.757300 0.633958 0.081825
0.821937 0.633297 0.081164
0.886222 0.632639 0.080507
0.950186 0.631985 0.079853
0.994546 0.631531 0.079399
0.994546 0.631531 0.079399
0.000000 0.701158 0.087497
0.074265 0.700355 0.086694
0.147792 0.699603 0.085942
0.219052 0.698874 0.085213
0.288826 0.698160 0.084500
0.357497 0.697458 0.083797
0.425293 0.696765 0.083104
0.492365 0.696079 0.082418
0.558820 0.695399 0.081738
0.624739 0.694725 0.081064
0.690184 0.694056 0.080395
0.755205 0.693391 0.079730
0.819841 0.692729 0.079069
0.884127 0.692072 0.078411
0.948090 0.691418 0.077757
0.992451 0.690964 0.077303
0.992451 0.690964 0.077303
0.000000 0.760286 0.085412
0.072180 0.759483 0.084609
0.145707 0.758731 0.083857
0.216967 0.758003 0.083128
0.286741 0.757289 0.082415
0.355412 0.756587 0.081713
0.423208 0.755893 0.081019
0.490280 0.755207 0.080333
0.556735 0.754528 0.079654
0.622654 0.753854 0.078979
0.688099 0.753184 0.078310
0.753120 0.752519 0.077645
0.817756 0.751858 0.076984
0.882042 0.751201 0.076326
0.946006 0.750547 0.075672
0.990366 0.750093 0.075219
0.990366 0.750093 0.075219
0.000000 0.819138 0.083337
0.070105 0.818335 0.082534
0.143632 0.817583 0.081782
0.214892 0.816854 0.081053
0.284666 0.816140 0.080340
0.353337 0.815438 0.079638
0.421133 0.814745 0.078944
0.488205 0.814059 0.078258
0.554660 0.813379 0.077579
0.620579 0.812705 0.076904
0.686024 0.812035 0.076235
0.751045 0.811370 0.075570
0.815681 0.810709 0.074909
0.879967 0.810052 0.074252
0.943931 0.809398 0.073597
0.988291 0.808944 0.073144
0.988291 0.808944 0.073144
0.000000 0.877734 0.081271
0.068039 0.876931 0.080468
0.141566 0.876179 0.079716
0.212826 0.875450 0.078987
0.282600 0.874736 0.078274
0.351271 0.874034 0.077572
0.419067 0.873341 0.076878
0.486139 0.872655 0.076192
0.552594 0.871975 0.075513
0.618513 0.871301 0.074838
0.683958 0.870631 0.074169
0.748979 0.869966 0.073504
0.813615 0.869305 0.072843
0.877901 0.868648 0.072186
0.941865 0.867994 0.071531
0.986225 0.867540 0.071078
0.986225 0.867540 0.071078
0.000000 0.936093 0.079214
0.065982 0.935291 0.078411
0.139508 0.934539 0.077659
0.210768 0.933810 0.076930
0.280543 0.933096 0.076216
0.349214 0.932394 0.075514
0.417009 0.931700 0.074821
0.484081 0.931014 0.074135
0.550537 0.930335 0.073455
0.616456 0.929661 0.072781
0.681901 0.928991 0.072111
0.746921 0.928326 0.071446
0.811558 0.927665 0.070785
0.875844 0.927008 0.070128
0.939807 0.926354 0.069474
0.984167 0.925900 0.069020
0.984167 0.925900 0.069020
0.000000 0.992376 0.077229
0.063997 0.991574 0.076426
0.137524 0.990822 0.075674
0.208784 0.990093 0.074945
0.278558 0.989379 0.074232
0.347229 0.988677 0.073530
0.415025 0.987983 0.072836
0.482097 0.987297 0.072150
0.548552 0.986618 0.071470
0.614471 0.985944 0.070796
0.679916 0.985274 0.070127
0.744937 0.984609 0.069462
0.809573 0.983948 0.068801
0.873859 0.983291 0.068143
0.937823 0.982637 0.067489
0.982183 0.982183 0.067036
0.982183 0.982183 0.067036
0.019858 0.011910 0.167986
0.098366 0.011107 0.167183
0.171892 0.010355 0.166431
0.243153 0.009626 0.165702
0.312927 0.008912 0.164989
0.381598 0.008210 0.164286
0.449394 0.007517 0.163593
0.516465 0.006831 0.162907
0.582921 0.006151 0.162227
0.648840 0.005477 0.161553
0.714285 0.004808 0.160884
0.779305 0.004143 0.160219
0.843942 0.003482 0.159558
0.908228 0.002824 0.158900
0.972191 0.002170 0.158246
1.000000 0.001716 0.157792
1.000000 0.001716 0.157792
0.017377 0.082290 0.165504
