public/luts/iphone/lk-iphone-portrait.cube
TITLE "LK iPhone Portrait"
LUT_3D_SIZE 9
DOMAIN_MIN 0.0 0.0 0.0
DOMAIN_MAX 1.0 1.0 1.0
0.018219 0.015360 0.011949
0.156323 0.016888 0.013477
0.282925 0.018289 0.014878
0.404864 0.019638 0.016227
0.523821 0.020955 0.017543
0.640592 0.022247 0.018836
0.755640 0.023520 0.020109
0.869273 0.024777 0.021366
0.951249 0.025685 0.022273
0.023056 0.148704 0.016786
0.161160 0.150232 0.018314
0.287762 0.151633 0.019715
0.409702 0.152982 0.021064
0.528659 0.154299 0.022381
0.645429 0.155591 0.023673
0.760478 0.156864 0.024946
0.874110 0.158121 0.026203
0.956086 0.159029 0.027110
0.027593 0.273770 0.021323
0.165697 0.275298 0.022851
0.292299 0.276699 0.024252
0.414239 0.278048 0.025601
0.533196 0.279365 0.026918
0.649966 0.280657 0.028210
0.765015 0.281930 0.029483
0.878647 0.283187 0.030740
0.960623 0.284094 0.031647
0.032004 0.395364 0.025734
0.170108 0.396892 0.027262
0.296710 0.398293 0.028663
0.418650 0.399643 0.030012
0.537607 0.400959 0.031329
0.654377 0.402251 0.032621
0.769426 0.403524 0.033894
0.883058 0.404782 0.035151
0.965034 0.405689 0.036058
0.036334 0.514716 0.030064
0.174438 0.516244 0.031592
0.301040 0.517645 0.032993
0.422979 0.518994 0.034342
0.541936 0.520311 0.035658
0.658707 0.521603 0.036951
0.773755 0.522876 0.038224
0.887388 0.524133 0.039481
0.969364 0.525041 0.040388
0.040603 0.632413 0.034333
0.178708 0.633942 0.035861
0.305309 0.635342 0.037262
0.427249 0.636692 0.038612
0.546206 0.638008 0.039928
0.662976 0.639300 0.041220
0.778025 0.640573 0.042493
0.891657 0.641831 0.043751
0.973634 0.642738 0.044658
0.044826 0.748802 0.038555
0.182930 0.750331 0.040084
0.309532 0.751731 0.041485
0.431471 0.753081 0.042834
0.550428 0.754397 0.044150
0.667198 0.755689 0.045442
0.782247 0.756962 0.046715
0.895880 0.758220 0.047973
0.977856 0.759127 0.048880
0.049009 0.864111 0.042738
0.187113 0.865639 0.044267
0.313715 0.867040 0.045668
0.435654 0.868389 0.047017
0.554611 0.869706 0.048333
0.671381 0.870998 0.049625
0.786430 0.872271 0.050898
0.900063 0.873528 0.052156
0.982039 0.874435 0.053063
0.053059 0.975765 0.046789
0.191163 0.977293 0.048317
0.317765 0.978694 0.049718
0.439705 0.980043 0.051067
0.558662 0.981360 0.052384
0.675432 0.982652 0.053676
0.790481 0.983925 0.054949
0.904113 0.985182 0.056206
0.986089 0.986089 0.057113
0.018669 0.015811 0.130987
0.156774 0.017339 0.132516
0.283375 0.018740 0.133916
0.405315 0.020089 0.135266
0.524272 0.021405 0.136582
0.641042 0.022698 0.137874
0.756091 0.023971 0.139147
0.869723 0.025228 0.140405
0.951700 0.026135 0.141312
0.023507 0.149155 0.135825
0.161611 0.150683 0.137353
0.288213 0.152084 0.138754
0.410152 0.153433 0.140103
0.529109 0.154749 0.141419
0.645880 0.156042 0.142712
0.760928 0.157315 0.143985
0.874561 0.158572 0.145242
0.956537 0.159479 0.146149
0.028044 0.274220 0.140362
0.166148 0.275749 0.141890
0.292750 0.277150 0.143291
0.414689 0.278499 0.144640
0.533646 0.279815 0.145956
0.650417 0.281107 0.147248
0.765465 0.282380 0.148522
0.879098 0.283638 0.149779
0.961074 0.284545 0.150686
0.032455 0.395815 0.144773
0.170559 0.397343 0.146301
0.297161 0.398744 0.147702
0.419100 0.400093 0.149051
0.538057 0.401410 0.150367
0.654828 0.402702 0.151660
0.769876 0.403975 0.152933
0.883509 0.405232 0.154190
0.965485 0.406139 0.155097
0.036784 0.515167 0.149102
0.174889 0.516695 0.150630
0.301490 0.518096 0.152031
0.423430 0.519445 0.153381
0.542387 0.520761 0.154697
0.659157 0.522054 0.155989
0.774206 0.523327 0.157262
0.887838 0.524584 0.158520
0.969815 0.525491 0.159427
0.041054 0.632864 0.153372
0.179158 0.634392 0.154900
0.305760 0.635793 0.156301
0.427700 0.637142 0.157650
0.546657 0.638459 0.158967
0.663427 0.639751 0.160259
0.778476 0.641024 0.161532
0.892108 0.642281 0.162789
0.974084 0.643189 0.163696
0.045276 0.749253 0.157594
0.183381 0.750781 0.159122
0.309982 0.752182 0.160523
0.431922 0.753531 0.161873
0.550879 0.754848 0.163189
0.667649 0.756140 0.164481
0.782698 0.757413 0.165754
0.896330 0.758670 0.167012
0.978307 0.759578 0.167919
0.049459 0.864561 0.161777
0.187564 0.866090 0.163305
0.314165 0.867491 0.164706
0.436105 0.868840 0.166056
0.555062 0.870156 0.167372
0.671832 0.871448 0.168664
0.786881 0.872722 0.169937
0.900513 0.873979 0.171195
0.982490 0.874886 0.172102
0.053510 0.976215 0.165828
0.191614 0.977744 0.167356
0.318216 0.979144 0.168757
0.440155 0.980494 0.170106
0.559112 0.981810 0.171422
0.675882 0.983102 0.172714
0.790931 0.984375 0.173988
0.904564 0.985633 0.175245
0.986540 0.986540 0.176152
0.019108 0.016249 0.246823
0.157212 0.017777 0.248351
0.283814 0.019178 0.249752
0.405754 0.020528 0.251102
0.524711 0.021844 0.252418
0.641481 0.023136 0.253710
0.756530 0.024409 0.254983
0.870162 0.025667 0.256241
0.952138 0.026574 0.257148
0.023945 0.149593 0.251660
0.162050 0.151121 0.253189
0.288651 0.152522 0.254590
0.410591 0.153872 0.255939
0.529548 0.155188 0.257255
0.646318 0.156480 0.258547
0.761367 0.157753 0.259820
0.874999 0.159011 0.261078
0.956975 0.159918 0.261985
0.028482 0.274659 0.256197
0.166587 0.276187 0.257726
0.293188 0.277588 0.259127
0.415128 0.278937 0.260476
0.534085 0.280254 0.261792
0.650855 0.281546 0.263084
0.765904 0.282819 0.264357
0.879536 0.284076 0.265615
0.961512 0.284984 0.266522
0.032893 0.396253 0.260608
0.170998 0.397782 0.262137
0.297599 0.399182 0.263538
0.419539 0.400532 0.264887
0.538496 0.401848 0.266203
0.655266 0.403140 0.267495
0.770315 0.404413 0.268768
0.883947 0.405671 0.270026
0.965923 0.406578 0.270933
0.037223 0.515605 0.264938
0.175327 0.517133 0.266466
0.301929 0.518534 0.267867
0.423868 0.519884 0.269217
0.542825 0.521200 0.270533
0.659596 0.522492 0.271825
0.774644 0.523765 0.273098
0.888277 0.525023 0.274356
0.970253 0.525930 0.275263
0.041493 0.633302 0.269208
0.179597 0.634831 0.270736
0.306199 0.636232 0.272137
0.428138 0.637581 0.273486
0.547095 0.638897 0.274803
0.663865 0.640189 0.276095
0.778914 0.641463 0.277368
0.892547 0.642720 0.278625
0.974523 0.643627 0.279532
0.045715 0.749691 0.273430
0.183819 0.751220 0.274958
0.310421 0.752621 0.276359
0.432360 0.753970 0.277708
0.551317 0.755286 0.279025
0.668088 0.756578 0.280317
0.783136 0.757852 0.281590
0.896769 0.759109 0.282847
0.978745 0.760016 0.283755
0.049898 0.865000 0.277613
0.188002 0.866528 0.279141
0.314604 0.867929 0.280542
0.436543 0.869278 0.281891
0.555500 0.870595 0.283208
0.672271 0.871887 0.284500
0.787319 0.873160 0.285773
0.900952 0.874417 0.287030
0.982928 0.875325 0.287938
0.053948 0.976654 0.281663
0.192053 0.978182 0.283192
0.318654 0.979583 0.284592
0.440594 0.980932 0.285942
0.559551 0.982249 0.287258
0.676321 0.983541 0.288550
0.791370 0.984814 0.289823
0.905002 0.986071 0.291081
0.986978 0.986978 0.291988
0.019536 0.016677 0.359941
0.157641 0.018206 0.361470
0.284242 0.019607 0.362870
0.406182 0.020956 0.364220
0.525139 0.022272 0.365536
0.641909 0.023564 0.366828
0.756958 0.024837 0.368101
0.870590 0.026095 0.369359
0.952566 0.027002 0.370266
0.024373 0.150021 0.364779
0.162478 0.151549 0.366307
0.289079 0.152950 0.367708
0.411019 0.154300 0.369057
0.529976 0.155616 0.370373
0.646746 0.156908 0.371666
0.761795 0.158181 0.372939
0.875427 0.159439 0.374196
0.957404 0.160346 0.375103
0.028910 0.275087 0.369316
0.167015 0.276615 0.370844
0.293616 0.278016 0.372245
0.415556 0.279366 0.373594
0.534513 0.280682 0.374910
0.651283 0.281974 0.376202
0.766332 0.283247 0.377476
0.879964 0.284505 0.378733
0.961941 0.285412 0.379640
0.033321 0.396682 0.373727
0.171426 0.398210 0.375255
0.298027 0.399611 0.376656
0.419967 0.400960 0.378005
0.538924 0.402276 0.379321
0.655694 0.403569 0.380614
0.770743 0.404842 0.381887
0.884375 0.406099 0.383144
0.966352 0.407006 0.384051
0.037651 0.516033 0.378056
0.175755 0.517562 0.379584
0.302357 0.518962 0.380985
0.424297 0.520312 0.382335
0.543254 0.521628 0.383651
0.660024 0.522920 0.384943
0.775073 0.524193 0.386216
0.888705 0.525451 0.387474
0.970681 0.526358 0.388381
0.041921 0.633731 0.382326
0.180025 0.635259 0.383854
0.306627 0.636660 0.385255
0.428566 0.638009 0.386604
0.547523 0.639326 0.387921
0.664294 0.640618 0.389213
0.779342 0.641891 0.390486
0.892975 0.643148 0.391743
0.974951 0.644055 0.392650
0.046143 0.750120 0.386548
0.184247 0.751648 0.388076
0.310849 0.753049 0.389477
0.432789 0.754398 0.390827
0.551746 0.755714 0.392143
0.668516 0.757007 0.393435
0.783565 0.758280 0.394708
0.897197 0.759537 0.395966
0.979173 0.760444 0.396873
0.050326 0.865428 0.390731
0.188430 0.866956 0.392259
0.315032 0.868357 0.393660
0.436972 0.869707 0.395010
0.555929 0.871023 0.396326
0.672699 0.872315 0.397618
0.787748 0.873588 0.398891
0.901380 0.874846 0.400149
0.983356 0.875753 0.401056
0.054376 0.977082 0.394781
0.192481 0.978610 0.396310
0.319082 0.980011 0.397711
0.441022 0.981361 0.399060
0.559979 0.982677 0.400376
0.676749 0.983969 0.401668
0.791798 0.985242 0.402942
0.905430 0.986500 0.404199
0.987407 0.987407 0.405106
0.019958 0.017099 0.471306
0.158062 0.018627 0.472834
0.284664 0.020028 0.474235
0.406603 0.021377 0.475584
0.525560 0.022694 0.476900
0.642331 0.023986 0.478193
0.757379 0.025259 0.479466
0.871012 0.026516 0.480723
0.952988 0.027424 0.481630
0.024795 0.150443 0.476143
0.162899 0.151971 0.477671
0.289501 0.153372 0.479072
0.411441 0.154721 0.480421
0.530398 0.156038 0.481738
0.647168 0.157330 0.483030
0.762217 0.158603 0.484303
0.875849 0.159860 0.485560
0.957825 0.160767 0.486467
0.029332 0.275509 0.480680
0.167436 0.277037 0.482208
0.294038 0.278438 0.483609
0.415978 0.279787 0.484958
0.534935 0.281104 0.486275
0.651705 0.282396 0.487567
0.766754 0.283669 0.488840
0.880386 0.284926 0.490097
0.962362 0.285833 0.491004
0.033743 0.397103 0.485091
0.171847 0.398631 0.486619
0.298449 0.400032 0.488020
0.420389 0.401382 0.489369
0.539346 0.402698 0.490686
0.656116 0.403990 0.491978
0.771165 0.405263 0.493251
0.884797 0.406521 0.494508
0.966773 0.407428 0.495415
0.038073 0.516455 0.489420
0.176177 0.517983 0.490949
0.302779 0.519384 0.492350
0.424718 0.520733 0.493699
0.543675 0.522050 0.495015
0.660446 0.523342 0.496307
0.775494 0.524615 0.497581
0.889127 0.525872 0.498838
0.971103 0.526780 0.499745
0.042342 0.634152 0.493690
0.180447 0.635680 0.495218
0.307048 0.637081 0.496619
0.428988 0.638431 0.497969
0.547945 0.639747 0.499285
0.664715 0.641039 0.500577
0.779764 0.642312 0.501850
0.893396 0.643570 0.503108
0.975373 0.644477 0.504015
0.046565 0.750541 0.497912
0.184669 0.752069 0.499441
0.311271 0.753470 0.500841
0.433210 0.754820 0.502191
0.552167 0.756136 0.503507
0.668937 0.757428 0.504799
0.783986 0.758701 0.506072
0.897618 0.759959 0.507330
0.979595 0.760866 0.508237
0.050748 0.865850 0.502095
0.188852 0.867378 0.503624
0.315454 0.868779 0.505024
0.437393 0.870128 0.506374
0.556350 0.871445 0.507690
0.673120 0.872737 0.508982
0.788169 0.874010 0.510255
0.901801 0.875267 0.511513
0.983778 0.876174 0.512420
0.054798 0.977504 0.506146
0.192902 0.979032 0.507674
0.319504 0.980433 0.509075
0.441444 0.981782 0.510424
0.560401 0.983098 0.511741
0.677171 0.984391 0.513033
0.792220 0.985664 0.514306
0.905852 0.986921 0.515563
0.987828 0.987828 0.516470
0.020374 0.017516 0.581375
0.158479 0.019044 0.582904
0.285080 0.020445 0.584305
0.407020 0.021794 0.585654
0.525977 0.023110 0.586970
0.642747 0.024403 0.588262
0.757796 0.025676 0.589535
0.871428 0.026933 0.590793
0.953405 0.027840 0.591700
0.025212 0.150860 0.586213
0.163316 0.152388 0.587741
0.289918 0.153789 0.589142
0.411857 0.155138 0.590491
0.530814 0.156454 0.591808
0.647585 0.157747 0.593100
0.762633 0.159020 0.594373
0.876266 0.160277 0.595630
0.958242 0.161184 0.596537
0.029749 0.275925 0.590750
0.167853 0.277454 0.592278
0.294455 0.278855 0.593679
0.416394 0.280204 0.595028
0.535351 0.281520 0.596344
0.652122 0.282812 0.597637
0.767170 0.284085 0.598910
0.880803 0.285343 0.600167
0.962779 0.286250 0.601074
0.034160 0.397520 0.595161
0.172264 0.399048 0.596689
0.298866 0.400449 0.598090
0.420805 0.401798 0.599439
0.539762 0.403115 0.600755
0.656533 0.404407 0.602048
0.771581 0.405680 0.603321
0.885214 0.406937 0.604578
0.967190 0.407844 0.605485
0.038489 0.516872 0.599490
0.176594 0.518400 0.601019
0.303195 0.519801 0.602419
0.425135 0.521150 0.603769
0.544092 0.522466 0.605085
0.660862 0.523759 0.606377
0.775911 0.525032 0.607650
0.889543 0.526289 0.608908
0.971520 0.527196 0.609815
0.042759 0.634569 0.603760
0.180863 0.636097 0.605288
0.307465 0.637498 0.606689
0.429405 0.638847 0.608038
0.548362 0.640164 0.609355
0.665132 0.641456 0.610647
0.780181 0.642729 0.611920
0.893813 0.643986 0.613177
0.975789 0.644894 0.614085
0.046981 0.750958 0.607982
0.185086 0.752486 0.609510
0.311687 0.753887 0.610911
0.433627 0.755236 0.612261
0.552584 0.756553 0.613577
0.669354 0.757845 0.614869
0.784403 0.759118 0.616142
0.898035 0.760375 0.617400
0.980012 0.761283 0.618307
0.051164 0.866266 0.612165
0.189269 0.867795 0.613693
0.315870 0.869196 0.615094
0.437810 0.870545 0.616444
0.556767 0.871861 0.617760
0.673537 0.873153 0.619052
0.788586 0.874427 0.620325
0.902218 0.875684 0.621583
0.984194 0.876591 0.622490
0.055215 0.977920 0.616216
0.193319 0.979449 0.617744
0.319921 0.980849 0.619145
0.441860 0.982199 0.620494
0.560817 0.983515 0.621810
0.677587 0.984807 0.623103
0.792636 0.986080 0.624376
0.906269 0.987338 0.625633
0.988245 0.988245 0.626540
0.020787 0.017928 0.690421
0.158892 0.019457 0.691949
0.285493 0.020858 0.693350
0.407433 0.022207 0.694699
0.526390 0.023523 0.696016
0.643160 0.024815 0.697308
0.758209 0.026088 0.698581
0.871841 0.027346 0.699838
0.953818 0.028253 0.700746
0.025624 0.151272 0.695258
0.163729 0.152801 0.696786
0.290330 0.154201 0.698187
0.412270 0.155551 0.699537
0.531227 0.156867 0.700853
0.647997 0.158159 0.702145
0.763046 0.159432 0.703418
0.876678 0.160690 0.704676
0.958655 0.161597 0.705583
0.030161 0.276338 0.699795
0.168266 0.277866 0.701323
0.294867 0.279267 0.702724
0.416807 0.280617 0.704074
0.535764 0.281933 0.705390
0.652534 0.283225 0.706682
0.767583 0.284498 0.707955
0.881215 0.285756 0.709213
0.963192 0.286663 0.710120
0.034572 0.397933 0.704206
0.172677 0.399461 0.705734
0.299278 0.400862 0.707135
0.421218 0.402211 0.708485
0.540175 0.403527 0.709801
0.656945 0.404820 0.711093
0.771994 0.406093 0.712366
0.885626 0.407350 0.713624
0.967603 0.408257 0.714531
0.038902 0.517284 0.708536
0.177007 0.518813 0.710064
0.303608 0.520214 0.711465
0.425548 0.521563 0.712814
0.544505 0.522879 0.714131
0.661275 0.524171 0.715423
0.776324 0.525444 0.716696
0.889956 0.526702 0.717953
0.971932 0.527609 0.718860
0.043172 0.634982 0.712806
0.181276 0.636510 0.714334
0.307878 0.637911 0.715735
0.429817 0.639260 0.717084
0.548774 0.640577 0.718400
0.665545 0.641869 0.719692
0.780593 0.643142 0.720966
0.894226 0.644399 0.722223
0.976202 0.645306 0.723130
0.047394 0.751371 0.717028
0.185498 0.752899 0.718556
0.312100 0.754300 0.719957
0.434040 0.755649 0.721306
0.552997 0.756966 0.722623
0.669767 0.758258 0.723915
0.784816 0.759531 0.725188
0.898448 0.760788 0.726445
0.980424 0.761695 0.727352
0.051577 0.866679 0.721211
0.189681 0.868207 0.722739
0.316283 0.869608 0.724140
0.438223 0.870958 0.725489
0.557180 0.872274 0.726806
0.673950 0.873566 0.728098
0.788999 0.874839 0.729371
0.902631 0.876097 0.730628
0.984607 0.877004 0.731535
0.055627 0.978333 0.725261
0.193732 0.979861 0.726789
0.320333 0.981262 0.728190
0.442273 0.982612 0.729540
0.561230 0.983928 0.730856
0.678000 0.985220 0.732148
0.793049 0.986493 0.733421
0.906681 0.987751 0.734679
0.988658 0.988658 0.735586
0.021197 0.018338 0.798620
0.159301 0.019866 0.800148
0.285903 0.021267 0.801549
0.407842 0.022617 0.802898
0.526799 0.023933 0.804215
0.643570 0.025225 0.805507
0.758618 0.026498 0.806780
0.872251 0.027756 0.808037
0.954227 0.028663 0.808945
0.026034 0.151682 0.803457
0.164138 0.153210 0.804985
0.290740 0.154611 0.806386
0.412680 0.155960 0.807736
0.531637 0.157277 0.809052
0.648407 0.158569 0.810344
0.763456 0.159842 0.811617
0.877088 0.161099 0.812875
0.959064 0.162007 0.813782
0.030571 0.276748 0.807994
0.168675 0.278276 0.809522
0.295277 0.279677 0.810923
0.417217 0.281026 0.812273
0.536174 0.282343 0.813589
0.652944 0.283635 0.814881
0.767993 0.284908 0.816154
0.881625 0.286165 0.817412
0.963601 0.287072 0.818319
0.034982 0.398342 0.812405
0.173086 0.399870 0.813933
0.299688 0.401271 0.815334
0.421628 0.402621 0.816684
0.540585 0.403937 0.818000
0.657355 0.405229 0.819292
0.772404 0.406502 0.820565
0.886036 0.407760 0.821823
0.968012 0.408667 0.822730
0.039312 0.517694 0.816735
0.177416 0.519222 0.818263
0.304018 0.520623 0.819664
0.425957 0.521973 0.821013
0.544914 0.523289 0.822330
0.661685 0.524581 0.823622
0.776733 0.525854 0.824895
0.890366 0.527111 0.826152
0.972342 0.528019 0.827059
0.043581 0.635391 0.821005
0.181686 0.636920 0.822533
0.308287 0.638321 0.823934
0.430227 0.639670 0.825283
0.549184 0.640986 0.826599
0.665954 0.642278 0.827891
0.781003 0.643551 0.829165
0.894635 0.644809 0.830422
0.976612 0.645716 0.831329
0.047804 0.751780 0.825227
0.185908 0.753309 0.826755
0.312510 0.754709 0.828156
0.434449 0.756059 0.829505
0.553406 0.757375 0.830822
0.670176 0.758667 0.832114
0.785225 0.759940 0.833387
0.898858 0.761198 0.834644
0.980834 0.762105 0.835551
0.051987 0.867089 0.829410
0.190091 0.868617 0.830938
0.316693 0.870018 0.832339
0.438632 0.871367 0.833688
0.557589 0.872684 0.835005
0.674359 0.873976 0.836297
0.789408 0.875249 0.837570
0.903041 0.876506 0.838827
0.985017 0.877413 0.839734
0.056037 0.978743 0.833460
0.194141 0.980271 0.834988
0.320743 0.981672 0.836389
0.442683 0.983021 0.837739
0.561640 0.984338 0.839055
0.678410 0.985630 0.840347
0.793459 0.986903 0.841620
0.907091 0.988160 0.842878
0.989067 0.989067 0.843785
0.021604 0.018745 0.906098
0.159708 0.020273 0.907626
0.286310 0.021674 0.909027
0.408249 0.023023 0.910377
0.527206 0.024340 0.911693
0.643977 0.025632 0.912985
0.759025 0.026905 0.914258
0.872658 0.028162 0.915516
0.954634 0.029070 0.916423
0.026441 0.152089 0.910936
0.164545 0.153617 0.912464
0.291147 0.155018 0.913865
0.413087 0.156367 0.915214
0.532044 0.157684 0.916530
0.648814 0.158976 0.917822
0.763863 0.160249 0.919096
0.877495 0.161506 0.920353
0.959471 0.162413 0.921260
0.030978 0.277155 0.915472
0.169082 0.278683 0.917001
0.295684 0.280084 0.918402
0.417624 0.281433 0.919751
0.536581 0.282750 0.921067
0.653351 0.284042 0.922359
0.768400 0.285315 0.923633
0.882032 0.286572 0.924890
0.964008 0.287479 0.925797
0.035389 0.398749 0.919884
0.173493 0.400277 0.921412
0.300095 0.401678 0.922813
0.422035 0.403028 0.924162
0.540992 0.404344 0.925478
0.657762 0.405636 0.926770
0.772811 0.406909 0.928044
0.886443 0.408167 0.929301
0.968419 0.409074 0.930208
0.039719 0.518101 0.924213
0.177823 0.519629 0.925741
0.304425 0.521030 0.927142
0.426364 0.522379 0.928492
0.545321 0.523696 0.929808
0.662091 0.524988 0.931100
0.777140 0.526261 0.932373
0.890773 0.527518 0.933631
0.972749 0.528425 0.934538
0.043988 0.635798 0.928483
0.182093 0.637326 0.930011
0.308694 0.638727 0.931412
0.430634 0.640077 0.932761
0.549591 0.641393 0.934078
0.666361 0.642685 0.935370
0.781410 0.643958 0.936643
0.895042 0.645216 0.937900
0.977019 0.646123 0.938807
0.048210 0.752187 0.932705
0.186315 0.753715 0.934233
0.312916 0.755116 0.935634
0.434856 0.756466 0.936984
0.553813 0.757782 0.938300
0.670583 0.759074 0.939592
0.785632 0.760347 0.940865
0.899264 0.761605 0.942123
0.981241 0.762512 0.943030
0.052393 0.867496 0.936888
0.190498 0.869024 0.938416
0.317099 0.870425 0.939817
0.439039 0.871774 0.941167
0.557996 0.873091 0.942483
0.674766 0.874383 0.943775
0.789815 0.875656 0.945048
0.903447 0.876913 0.946306
0.985424 0.877820 0.947213
0.056444 0.979150 0.940938
0.194548 0.980678 0.942467
0.321150 0.982079 0.943868
0.443089 0.983428 0.945217
0.562047 0.984744 0.946533
0.678817 0.986037 0.947825
0.793866 0.987310 0.949099
0.907498 0.988567 0.950356
0.989474 0.989474 0.951263
