public/luts/iphone/lk-iphone-travel.cube
TITLE "LK iPhone Travel"
LUT_3D_SIZE 17
DOMAIN_MIN 0.0 0.0 0.0
DOMAIN_MAX 1.0 1.0 1.0
0.014377 0.014377 0.014655
0.102505 0.012014 0.012292
0.183095 0.009853 0.010132
0.260481 0.007779 0.008057
0.335805 0.005760 0.006038
0.409614 0.003781 0.004059
0.482228 0.001834 0.002113
0.553861 0.000000 0.000192
0.624660 0.000000 0.000000
0.694737 0.000000 0.000000
0.764178 0.000000 0.000000
0.833050 0.000000 0.000000
0.901408 0.000000 0.000000
0.969299 0.000000 0.000000
1.000000 0.000000 0.000000
1.000000 0.000000 0.000000
1.000000 0.000000 0.000000
0.006501 0.096165 0.006780
0.094630 0.093802 0.004417
0.175220 0.091642 0.002257
0.252606 0.089567 0.000182
0.327930 0.087548 0.000000
0.401738 0.085569 0.000000
0.474353 0.083623 0.000000
0.545986 0.081702 0.000000
0.616785 0.079804 0.000000
0.686862 0.077925 0.000000
0.756303 0.076064 0.000000
0.825174 0.074217 0.000000
0.893533 0.072385 0.000000
0.961424 0.070565 0.000000
1.000000 0.068756 0.000000
1.000000 0.066958 0.000000
1.000000 0.066829 0.000000
0.000000 0.170970 0.000000
0.087427 0.168607 0.000000
0.168017 0.166447 0.000000
0.245403 0.164372 0.000000
0.320727 0.162353 0.000000
0.394535 0.160374 0.000000
0.467150 0.158427 0.000000
0.538783 0.156507 0.000000
0.609582 0.154609 0.000000
0.679659 0.152730 0.000000
0.749100 0.150869 0.000000
0.817972 0.149022 0.000000
0.886330 0.147190 0.000000
0.954221 0.145370 0.000000
1.000000 0.143561 0.000000
1.000000 0.141763 0.000000
1.000000 0.141634 0.000000
0.000000 0.242803 0.000000
0.080510 0.240440 0.000000
0.161100 0.238280 0.000000
0.238486 0.236205 0.000000
0.313810 0.234186 0.000000
0.387619 0.232207 0.000000
0.460234 0.230261 0.000000
0.531866 0.228340 0.000000
0.602665 0.226442 0.000000
0.672743 0.224563 0.000000
0.742183 0.222702 0.000000
0.811055 0.220855 0.000000
0.879413 0.219023 0.000000
0.947304 0.217203 0.000000
1.000000 0.215394 0.000000
1.000000 0.213596 0.000000
1.000000 0.213467 0.000000
0.000000 0.312723 0.000000
0.073778 0.310360 0.000000
0.154368 0.308200 0.000000
0.231754 0.306125 0.000000
0.307077 0.304106 0.000000
0.380886 0.302127 0.000000
0.453501 0.300180 0.000000
0.525134 0.298260 0.000000
0.595933 0.296362 0.000000
0.666010 0.294483 0.000000
0.735451 0.292621 0.000000
0.804322 0.290775 0.000000
0.872681 0.288942 0.000000
0.940571 0.287122 0.000000
1.000000 0.285314 0.000000
1.000000 0.283516 0.000000
1.000000 0.283387 0.000000
0.000000 0.381236 0.000000
0.067181 0.378874 0.000000
0.147770 0.376713 0.000000
0.225157 0.374639 0.000000
0.300480 0.372619 0.000000
0.374289 0.370640 0.000000
0.446904 0.368694 0.000000
0.518537 0.366773 0.000000
0.589336 0.364875 0.000000
0.659413 0.362997 0.000000
0.728853 0.361135 0.000000
0.797725 0.359289 0.000000
0.866084 0.357456 0.000000
0.933974 0.355636 0.000000
1.000000 0.353827 0.000000
1.000000 0.352030 0.000000
1.000000 0.351900 0.000000
0.000000 0.448642 0.000000
0.060690 0.446280 0.000000
0.141280 0.444119 0.000000
0.218666 0.442044 0.000000
0.293990 0.440025 0.000000
0.367799 0.438046 0.000000
0.440414 0.436100 0.000000
0.512046 0.434179 0.000000
0.582845 0.432281 0.000000
0.652923 0.430403 0.000000
0.722363 0.428541 0.000000
0.791235 0.426695 0.000000
0.859593 0.424862 0.000000
0.927484 0.423042 0.000000
0.994946 0.421233 0.000000
1.000000 0.419435 0.000000
1.000000 0.419306 0.000000
0.000000 0.515136 0.000000
0.054287 0.512774 0.000000
0.134877 0.510613 0.000000
0.212263 0.508538 0.000000
0.287587 0.506519 0.000000
0.361396 0.504540 0.000000
0.434011 0.502594 0.000000
0.505643 0.500673 0.000000
0.576443 0.498775 0.000000
0.646520 0.496897 0.000000
0.715960 0.495035 0.000000
0.784832 0.493189 0.000000
0.853191 0.491356 0.000000
0.921081 0.489536 0.000000
0.988543 0.487727 0.000000
1.000000 0.485929 0.000000
1.000000 0.485800 0.000000
0.000000 0.580857 0.000000
0.047959 0.578494 0.000000
0.128549 0.576334 0.000000
0.205935 0.574259 0.000000
0.281259 0.572240 0.000000
0.355068 0.570261 0.000000
0.427683 0.568315 0.000000
0.499315 0.566394 0.000000
0.570115 0.564496 0.000000
0.640192 0.562617 0.000000
0.709632 0.560756 0.000000
0.778504 0.558909 0.000000
0.846862 0.557077 0.000000
0.914753 0.555257 0.000000
0.982215 0.553448 0.000000
1.000000 0.551650 0.000000
1.000000 0.551521 0.000000
0.000000 0.645908 0.000000
0.041696 0.643545 0.000000
0.122286 0.641384 0.000000
0.199672 0.639310 0.000000
0.274996 0.637290 0.000000
0.348804 0.635312 0.000000
0.421419 0.633365 0.000000
0.493052 0.631445 0.000000
0.563851 0.629547 0.000000
0.633928 0.627668 0.000000
0.703369 0.625806 0.000000
0.772240 0.623960 0.000000
0.840599 0.622127 0.000000
0.908490 0.620307 0.000000
0.975951 0.618499 0.000000
1.000000 0.616701 0.000000
1.000000 0.616572 0.000000
0.000000 0.710367 0.000000
0.035489 0.708005 0.000000
0.116079 0.705844 0.000000
0.193465 0.703769 0.000000
0.268789 0.701750 0.000000
0.342597 0.699771 0.000000
0.415212 0.697825 0.000000
0.486845 0.695904 0.000000
0.557644 0.694006 0.000000
0.627721 0.692128 0.000000
0.697162 0.690266 0.000000
0.766034 0.688420 0.000000
0.834392 0.686587 0.000000
0.902283 0.684767 0.000000
0.969744 0.682958 0.000000
1.000000 0.681160 0.000000
1.000000 0.681031 0.000000
0.000000 0.774299 0.000000
0.029333 0.771936 0.000000
0.109923 0.769776 0.000000
0.187309 0.767701 0.000000
0.262633 0.765682 0.000000
0.336442 0.763703 0.000000
0.409056 0.761756 0.000000
0.480689 0.759836 0.000000
0.551488 0.757938 0.000000
0.621565 0.756059 0.000000
0.691006 0.754198 0.000000
0.759878 0.752351 0.000000
0.828236 0.750519 0.000000
0.896127 0.748699 0.000000
0.963588 0.746890 0.000000
1.000000 0.745092 0.000000
1.000000 0.744963 0.000000
0.000000 0.837754 0.000000
0.023223 0.835392 0.000000
0.103813 0.833231 0.000000
0.181199 0.831156 0.000000
0.256523 0.829137 0.000000
0.330332 0.827158 0.000000
0.402946 0.825212 0.000000
0.474579 0.823291 0.000000
0.545378 0.821393 0.000000
0.615455 0.819515 0.000000
0.684896 0.817653 0.000000
0.753768 0.815807 0.000000
0.822126 0.813974 0.000000
0.890017 0.812154 0.000000
0.957478 0.810345 0.000000
1.000000 0.808548 0.000000
1.000000 0.808418 0.000000
0.000000 0.900775 0.000000
0.017155 0.898413 0.000000
0.097745 0.896252 0.000000
0.175131 0.894178 0.000000
0.250455 0.892158 0.000000
0.324263 0.890180 0.000000
0.396878 0.888233 0.000000
0.468511 0.886313 0.000000
0.539310 0.884415 0.000000
0.609387 0.882536 0.000000
0.678828 0.880674 0.000000
0.747700 0.878828 0.000000
0.816058 0.876995 0.000000
0.883949 0.875175 0.000000
0.951410 0.873367 0.000000
1.000000 0.871569 0.000000
1.000000 0.871439 0.000000
0.000000 0.963398 0.000000
0.011125 0.961036 0.000000
0.091715 0.958875 0.000000
0.169101 0.956801 0.000000
0.244425 0.954781 0.000000
0.318233 0.952803 0.000000
0.390848 0.950856 0.000000
0.462481 0.948935 0.000000
0.533280 0.947037 0.000000
0.603357 0.945159 0.000000
0.672798 0.943297 0.000000
0.741670 0.941451 0.000000
0.810028 0.939618 0.000000
0.877919 0.937798 0.000000
0.945380 0.935990 0.000000
1.000000 0.934192 0.000000
1.000000 0.934062 0.000000
0.000000 1.000000 0.000000
0.005130 1.000000 0.000000
0.085720 1.000000 0.000000
0.163106 1.000000 0.000000
0.238430 1.000000 0.000000
0.312239 1.000000 0.000000
0.384854 1.000000 0.000000
0.456486 1.000000 0.000000
0.527286 1.000000 0.000000
0.597363 1.000000 0.000000
0.666803 1.000000 0.000000
0.735675 1.000000 0.000000
0.804034 1.000000 0.000000
0.871924 1.000000 0.000000
0.939386 0.998245 0.000000
1.000000 0.996447 0.000000
1.000000 0.996317 0.000000
0.000000 1.000000 0.000000
0.003817 1.000000 0.000000
0.084407 1.000000 0.000000
0.161793 1.000000 0.000000
0.237117 1.000000 0.000000
0.310925 1.000000 0.000000
0.383540 1.000000 0.000000
0.455173 1.000000 0.000000
0.525972 1.000000 0.000000
0.596049 1.000000 0.000000
0.665490 1.000000 0.000000
0.734362 1.000000 0.000000
0.802720 1.000000 0.000000
0.870611 1.000000 0.000000
0.938072 1.000000 0.000000
1.000000 1.000000 0.000000
1.000000 1.000000 0.000000
0.013548 0.013548 0.107264
0.101676 0.011186 0.104902
0.182266 0.009025 0.102741
0.259653 0.006950 0.100667
0.334976 0.004931 0.098647
0.408785 0.002952 0.096669
0.481400 0.001006 0.094722
0.553033 0.000000 0.092802
0.623832 0.000000 0.090903
0.693909 0.000000 0.089025
0.763349 0.000000 0.087163
0.832221 0.000000 0.085317
0.900580 0.000000 0.083484
0.968470 0.000000 0.081664
1.000000 0.000000 0.079856
1.000000 0.000000 0.078058
1.000000 0.000000 0.077928
0.005673 0.095337 0.099389
0.093801 0.092974 0.097026
0.174391 0.090813 0.094866
0.251777 0.088739 0.092791
0.327101 0.086719 0.090772
0.400910 0.084741 0.088793
0.473525 0.082794 0.086847
0.545157 0.080874 0.084926
0.615957 0.078976 0.083028
0.686034 0.077097 0.081149
0.755474 0.075235 0.079288
0.824346 0.073389 0.077442
0.892704 0.071556 0.075609
0.960595 0.069736 0.073789
1.000000 0.067928 0.071980
1.000000 0.066130 0.070182
1.000000 0.066001 0.070053
0.000000 0.170142 0.092186
0.086598 0.167779 0.089824
0.167188 0.165618 0.087663
0.244574 0.163544 0.085588
0.319898 0.161524 0.083569
0.393707 0.159546 0.081590
0.466322 0.157599 0.079644
0.537954 0.155679 0.077723
0.608754 0.153781 0.075825
0.678831 0.151902 0.073947
0.748271 0.150040 0.072085
0.817143 0.148194 0.070239
0.885501 0.146361 0.068406
0.953392 0.144541 0.066586
1.000000 0.142733 0.064777
1.000000 0.140935 0.062979
1.000000 0.140805 0.062850
0.000000 0.241975 0.085269
0.079682 0.239612 0.082907
0.160272 0.237451 0.080746
0.237658 0.235377 0.078672
0.312981 0.233357 0.076652
0.386790 0.231379 0.074674
0.459405 0.229432 0.072727
0.531038 0.227512 0.070807
0.601837 0.225614 0.068909
0.671914 0.223735 0.067030
0.741355 0.221873 0.065168
0.810226 0.220027 0.063322
0.878585 0.218194 0.061489
0.946475 0.216374 0.059669
1.000000 0.214566 0.057861
1.000000 0.212768 0.056063
1.000000 0.212639 0.055933
0.000000 0.311894 0.078537
0.072949 0.309532 0.076174
0.153539 0.307371 0.074014
0.230925 0.305296 0.071939
0.306249 0.303277 0.069920
0.380058 0.301298 0.067941
0.452673 0.299352 0.065995
0.524305 0.297431 0.064074
0.595105 0.295533 0.062176
0.665182 0.293655 0.060297
0.734622 0.291793 0.058436
0.803494 0.289947 0.056589
0.871852 0.288114 0.054757
0.939743 0.286294 0.052937
1.000000 0.284485 0.051128
1.000000 0.282687 0.049330
1.000000 0.282558 0.049201
0.000000 0.380408 0.071940
0.066352 0.378045 0.069577
0.146942 0.375885 0.067417
0.224328 0.373810 0.065342
0.299652 0.371791 0.063323
0.373461 0.369812 0.061344
0.446076 0.367865 0.059397
0.517708 0.365945 0.057477
0.588507 0.364047 0.055579
0.658585 0.362168 0.053700
0.728025 0.360307 0.051839
0.796897 0.358460 0.049992
0.865255 0.356628 0.048160
0.933146 0.354808 0.046340
1.000000 0.352999 0.044531
1.000000 0.351201 0.042733
1.000000 0.351072 0.042604
0.000000 0.447814 0.065449
0.059862 0.445451 0.063087
0.140452 0.443291 0.060926
0.217838 0.441216 0.058852
0.293161 0.439197 0.056832
0.366970 0.437218 0.054854
0.439585 0.435271 0.052907
0.511218 0.433351 0.050987
0.582017 0.431453 0.049089
0.652094 0.429574 0.047210
0.721535 0.427712 0.045348
0.790406 0.425866 0.043502
0.858765 0.424033 0.041669
0.926655 0.422213 0.039849
0.994117 0.420405 0.038041
1.000000 0.418607 0.036243
1.000000 0.418478 0.036113
0.000000 0.514308 0.059047
0.053459 0.511945 0.056684
0.134049 0.509785 0.054524
0.211435 0.507710 0.052449
0.286759 0.505691 0.050430
0.360568 0.503712 0.048451
0.433182 0.501765 0.046504
0.504815 0.499845 0.044584
0.575614 0.497947 0.042686
0.645691 0.496068 0.040807
0.715132 0.494206 0.038946
0.784004 0.492360 0.037099
0.852362 0.490528 0.035267
0.920253 0.488707 0.033447
0.987714 0.486899 0.031638
1.000000 0.485101 0.029840
1.000000 0.484972 0.029711
0.000000 0.580029 0.052719
0.047131 0.577666 0.050356
0.127721 0.575505 0.048196
0.205107 0.573431 0.046121
0.280431 0.571411 0.044102
0.354239 0.569433 0.042123
0.426854 0.567486 0.040176
0.498487 0.565566 0.038256
0.569286 0.563668 0.036358
0.639363 0.561789 0.034479
0.708804 0.559927 0.032617
0.777676 0.558081 0.030771
0.846034 0.556248 0.028939
0.913925 0.554428 0.027118
0.981386 0.552620 0.025310
1.000000 0.550822 0.023512
1.000000 0.550693 0.023383
0.000000 0.645079 0.046455
0.040867 0.642716 0.044092
0.121457 0.640556 0.041932
0.198843 0.638481 0.039857
0.274167 0.636462 0.037838
0.347976 0.634483 0.035859
0.420591 0.632537 0.033913
0.492223 0.630616 0.031992
0.563023 0.628718 0.030094
0.633100 0.626839 0.028215
0.702540 0.624978 0.026354
0.771412 0.623131 0.024507
0.839770 0.621299 0.022675
0.907661 0.619479 0.020855
0.975123 0.617670 0.019046
1.000000 0.615872 0.017248
1.000000 0.615743 0.017119
0.000000 0.709539 0.040248
0.034660 0.707176 0.037886
0.115250 0.705016 0.035725
0.192636 0.702941 0.033651
0.267960 0.700922 0.031631
0.341769 0.698943 0.029653
0.414384 0.696996 0.027706
0.486016 0.695076 0.025785
0.556816 0.693178 0.023887
0.626893 0.691299 0.022009
0.696333 0.689437 0.020147
0.765205 0.687591 0.018301
0.833564 0.685759 0.016468
0.901454 0.683938 0.014648
0.968916 0.682130 0.012840
1.000000 0.680332 0.011042
1.000000 0.680203 0.010912
0.000000 0.773470 0.034092
0.028504 0.771108 0.031730
0.109094 0.768947 0.029569
0.186481 0.766873 0.027495
0.261804 0.764853 0.025475
0.335613 0.762875 0.023497
0.408228 0.760928 0.021550
0.479861 0.759008 0.019630
0.550660 0.757110 0.017731
0.620737 0.755231 0.015853
0.690177 0.753369 0.013991
0.759049 0.751523 0.012145
0.827408 0.749690 0.010312
0.895298 0.747870 0.008492
0.962760 0.746062 0.006684
1.000000 0.744264 0.004886
1.000000 0.744134 0.004756
0.000000 0.836926 0.027982
0.022394 0.834563 0.025620
0.102984 0.832403 0.023459
0.180371 0.830328 0.021385
0.255694 0.828309 0.019365
0.329503 0.826330 0.017387
0.402118 0.824383 0.015440
0.473750 0.822463 0.013519
0.544550 0.820565 0.011621
0.614627 0.818686 0.009743
0.684067 0.816825 0.007881
0.752939 0.814978 0.006035
0.821298 0.813146 0.004202
0.889188 0.811326 0.002382
0.956650 0.809517 0.000574
1.000000 0.807719 0.000000
1.000000 0.807590 0.000000
0.000000 0.899947 0.021914
0.016326 0.897584 0.019552
0.096916 0.895424 0.017391
0.174302 0.893349 0.015316
0.249626 0.891330 0.013297
0.323435 0.889351 0.011318
0.396050 0.887404 0.009372
0.467682 0.885484 0.007451
0.538482 0.883586 0.005553
0.608559 0.881707 0.003675
0.677999 0.879846 0.001813
0.746871 0.877999 0.000000
0.815229 0.876167 0.000000
0.883120 0.874347 0.000000
0.950582 0.872538 0.000000
1.000000 0.870740 0.000000
1.000000 0.870611 0.000000
0.000000 0.962570 0.015884
0.010296 0.960207 0.013522
0.090886 0.958047 0.011361
0.168272 0.955972 0.009287
0.243596 0.953953 0.007267
0.317405 0.951974 0.005288
0.390020 0.950027 0.003342
0.461652 0.948107 0.001421
0.532452 0.946209 0.000000
0.602529 0.944330 0.000000
0.671969 0.942469 0.000000
0.740841 0.940622 0.000000
0.809200 0.938790 0.000000
0.877090 0.936970 0.000000
0.944552 0.935161 0.000000
1.000000 0.933363 0.000000
1.000000 0.933234 0.000000
0.000000 1.000000 0.009890
0.004302 1.000000 0.007527
0.084892 1.000000 0.005367
0.162278 1.000000 0.003292
0.237602 1.000000 0.001273
0.311410 1.000000 0.000000
0.384025 1.000000 0.000000
0.455658 1.000000 0.000000
0.526457 1.000000 0.000000
0.596534 1.000000 0.000000
0.665975 1.000000 0.000000
0.734847 1.000000 0.000000
0.803205 1.000000 0.000000
0.871096 0.999225 0.000000
0.938557 0.997416 0.000000
1.000000 0.995618 0.000000
1.000000 0.995489 0.000000
0.000000 1.000000 0.008576
0.002988 1.000000 0.006214
0.083578 1.000000 0.004053
0.160964 1.000000 0.001978
0.236288 1.000000 0.000000
0.310097 1.000000 0.000000
0.382712 1.000000 0.000000
0.454344 1.000000 0.000000
0.525144 1.000000 0.000000
0.595221 1.000000 0.000000
0.664661 1.000000 0.000000
0.733533 1.000000 0.000000
0.801891 1.000000 0.000000
0.869782 1.000000 0.000000
0.937244 1.000000 0.000000
1.000000 1.000000 0.000000
1.000000 1.000000 0.000000
0.012800 0.012800 0.190940
0.100928 0.010437 0.188577
0.181518 0.008276 0.186417
0.258904 0.006202 0.184342
0.334228 0.004182 0.182323
0.408037 0.002204 0.180344
0.480651 0.000257 0.178397
0.552284 0.000000 0.176477
0.623083 0.000000 0.174579
0.693160 0.000000 0.172700
0.762601 0.000000 0.170839
0.831473 0.000000 0.168992
0.899831 0.000000 0.167160
0.967722 0.000000 0.165340
1.000000 0.000000 0.163531
1.000000 0.000000 0.161733
1.000000 0.000000 0.161604
0.004924 0.094588 0.183065
0.093053 0.092225 0.180702
0.173643 0.090065 0.178541
0.251029 0.087990 0.176467
0.326353 0.085971 0.174448
0.400161 0.083992 0.172469
0.472776 0.082045 0.170522
0.544409 0.080125 0.168602
0.615208 0.078227 0.166704
0.685285 0.076348 0.164825
0.754726 0.074487 0.162963
0.823597 0.072640 0.161117
0.891956 0.070808 0.159284
0.959846 0.068988 0.157464
1.000000 0.067179 0.155656
1.000000 0.065381 0.153858
1.000000 0.065252 0.153729
0.000000 0.169393 0.175862
0.085850 0.167030 0.173499
0.166440 0.164870 0.171339
0.243826 0.162795 0.169264
0.319150 0.160776 0.167245
0.392958 0.158797 0.165266
0.465573 0.156850 0.163319
0.537206 0.154930 0.161399
0.608005 0.153032 0.159501
0.678082 0.151153 0.157622
0.747523 0.149292 0.155761
0.816395 0.147445 0.153914
0.884753 0.145613 0.152082
0.952644 0.143793 0.150262
1.000000 0.141984 0.148453
1.000000 0.140186 0.146655
1.000000 0.140057 0.146526
0.000000 0.241226 0.168945
0.078933 0.238863 0.166582
0.159523 0.236703 0.164422
0.236909 0.234628 0.162347
0.312233 0.232609 0.160328
0.386042 0.230630 0.158349
0.458657 0.228683 0.156403
0.530289 0.226763 0.154482
0.601088 0.224865 0.152584
0.671166 0.222986 0.150705
0.740606 0.221125 0.148844
0.809478 0.219278 0.146997
0.877836 0.217446 0.145165
0.945727 0.215626 0.143345
1.000000 0.213817 0.141536
1.000000 0.212019 0.139738
1.000000 0.211890 0.139609
0.000000 0.311146 0.162213
0.072201 0.308783 0.159850
0.152791 0.306622 0.157689
0.230177 0.304548 0.155615
0.305500 0.302529 0.153595
0.379309 0.300550 0.151617
0.451924 0.298603 0.149670
0.523557 0.296683 0.147750
0.594356 0.294785 0.145852
0.664433 0.292906 0.143973
0.733874 0.291044 0.142111
0.802745 0.289198 0.140265
0.871104 0.287365 0.138432
0.938994 0.285545 0.136612
1.000000 0.283737 0.134804
1.000000 0.281939 0.133006
1.000000 0.281810 0.132877
0.000000 0.379659 0.155615
0.065603 0.377297 0.153253
0.146193 0.375136 0.151092
0.223580 0.373061 0.149018
0.298903 0.371042 0.146998
0.372712 0.369063 0.145020
0.445327 0.367117 0.143073
0.516959 0.365196 0.141153
0.587759 0.363298 0.139255
0.657836 0.361420 0.137376
0.727276 0.359558 0.135514
0.796148 0.357712 0.133668
0.864507 0.355879 0.131835
0.932397 0.354059 0.130015
0.999859 0.352250 0.128207
1.000000 0.350453 0.126409
1.000000 0.350323 0.126279
0.000000 0.447065 0.149125
0.059113 0.444702 0.146762
0.139703 0.442542 0.144602
0.217089 0.440467 0.142527
0.292413 0.438448 0.140508
0.366222 0.436469 0.138529
0.438837 0.434523 0.136583
0.510469 0.432602 0.134662
0.581268 0.430704 0.132764
0.651346 0.428825 0.130885
0.720786 0.426964 0.129024
0.789658 0.425117 0.127177
0.858016 0.423285 0.125345
0.925907 0.421465 0.123525
0.993368 0.419656 0.121716
1.000000 0.417858 0.119918
1.000000 0.417729 0.119789
0.000000 0.513559 0.142722
0.052710 0.511197 0.140360
0.133300 0.509036 0.138199
0.210686 0.506961 0.136125
0.286010 0.504942 0.134105
0.359819 0.502963 0.132127
0.432434 0.501017 0.130180
0.504066 0.499096 0.128260
0.574866 0.497198 0.126361
0.644943 0.495320 0.124483
0.714383 0.493458 0.122621
0.783255 0.491612 0.120775
0.851614 0.489779 0.118942
0.919504 0.487959 0.117122
0.986966 0.486150 0.115314
1.000000 0.484352 0.113516
1.000000 0.484223 0.113386
0.000000 0.579280 0.136394
0.046382 0.576917 0.134032
0.126972 0.574757 0.131871
0.204358 0.572682 0.129796
0.279682 0.570663 0.127777
0.353491 0.568684 0.125798
0.426106 0.566737 0.123852
0.497738 0.564817 0.121931
0.568538 0.562919 0.120033
0.638615 0.561040 0.118155
0.708055 0.559179 0.116293
0.776927 0.557332 0.114447
0.845285 0.555500 0.112614
0.913176 0.553680 0.110794
0.980638 0.551871 0.108985
1.000000 0.550073 0.107187
1.000000 0.549944 0.107058
0.000000 0.644331 0.130131
0.040119 0.641968 0.127768
0.120709 0.639807 0.125607
0.198095 0.637733 0.123533
0.273418 0.635713 0.121514
0.347227 0.633735 0.119535
0.419842 0.631788 0.117588
0.491475 0.629868 0.115668
0.562274 0.627970 0.113770
0.632351 0.626091 0.111891
0.701792 0.624229 0.110029
0.770663 0.622383 0.108183
0.839022 0.620550 0.106350
0.906912 0.618730 0.104530
0.974374 0.616922 0.102722
1.000000 0.615124 0.100924
1.000000 0.614994 0.100795
0.000000 0.708790 0.123924
0.033912 0.706428 0.121561
0.114502 0.704267 0.119401
0.191888 0.702192 0.117326
0.267212 0.700173 0.115307
0.341020 0.698194 0.113328
0.413635 0.696248 0.111381
0.485268 0.694327 0.109461
0.556067 0.692429 0.107563
0.626144 0.690551 0.105684
0.695585 0.688689 0.103823
0.764457 0.686843 0.101976
0.832815 0.685010 0.100144
0.900706 0.683190 0.098324
0.968167 0.681381 0.096515
1.000000 0.679583 0.094717
1.000000 0.679454 0.094588
0.000000 0.772722 0.117768
0.027756 0.770359 0.115405
0.108346 0.768199 0.113245
0.185732 0.766124 0.111170
0.261056 0.764105 0.109151
0.334865 0.762126 0.107172
0.407479 0.760179 0.105225
0.479112 0.758259 0.103305
0.549911 0.756361 0.101407
0.619988 0.754482 0.099528
0.689429 0.752621 0.097667
0.758301 0.750774 0.095820
0.826659 0.748942 0.093988
0.894550 0.747122 0.092168
0.962011 0.745313 0.090359
1.000000 0.743515 0.088561
1.000000 0.743386 0.088432
0.000000 0.836177 0.111658
0.021646 0.833815 0.109295
0.102236 0.831654 0.107135
0.179622 0.829579 0.105060
0.254946 0.827560 0.103041
0.328754 0.825581 0.101062
0.401369 0.823635 0.099115
0.473002 0.821714 0.097195
0.543801 0.819816 0.095297
0.613878 0.817938 0.093418
0.683319 0.816076 0.091557
0.752191 0.814230 0.089710
0.820549 0.812397 0.087878
0.888440 0.810577 0.086058
0.955901 0.808768 0.084249
1.000000 0.806970 0.082451
1.000000 0.806841 0.082322
0.000000 0.899198 0.105590
0.015578 0.896836 0.103227
0.096168 0.894675 0.101067
0.173554 0.892601 0.098992
0.248878 0.890581 0.096973
0.322686 0.888603 0.094994
0.395301 0.886656 0.093047
0.466934 0.884736 0.091127
0.537733 0.882837 0.089229
0.607810 0.880959 0.087350
0.677251 0.879097 0.085488
0.746122 0.877251 0.083642
0.814481 0.875418 0.081809
0.882372 0.873598 0.079989
0.949833 0.871790 0.078181
1.000000 0.869992 0.076383
1.000000 0.869862 0.076254
0.000000 0.961821 0.099560
0.009548 0.959459 0.097197
0.090138 0.957298 0.095037
0.167524 0.955224 0.092962
0.242848 0.953204 0.090943
0.316656 0.951225 0.088964
0.389271 0.949279 0.087017
0.460904 0.947358 0.085097
0.531703 0.945460 0.083199
0.601780 0.943582 0.081320
0.671221 0.941720 0.079459
0.740093 0.939874 0.077612
0.808451 0.938041 0.075780
0.876342 0.936221 0.073960
0.943803 0.934412 0.072151
1.000000 0.932615 0.070353
1.000000 0.932485 0.070224
0.000000 1.000000 0.093565
0.003553 1.000000 0.091203
0.084143 1.000000 0.089042
0.161529 1.000000 0.086968
0.236853 1.000000 0.084948
0.310662 1.000000 0.082970
0.383277 1.000000 0.081023
0.454909 1.000000 0.079102
0.525709 1.000000 0.077204
0.595786 1.000000 0.075326
0.665226 1.000000 0.073464
0.734098 1.000000 0.071618
0.802456 1.000000 0.069785
0.870347 0.998476 0.067965
0.937809 0.996667 0.066157
1.000000 0.994870 0.064359
1.000000 0.994740 0.064229
0.000000 1.000000 0.092252
0.002240 1.000000 0.089889
0.082830 1.000000 0.087729
0.160216 1.000000 0.085654
0.235540 1.000000 0.083635
0.309348 1.000000 0.081656
0.381963 1.000000 0.079709
0.453596 1.000000 0.077789
0.524395 1.000000 0.075891
0.594472 1.000000 0.074012
0.663913 1.000000 0.072150
0.732784 1.000000 0.070304
0.801143 1.000000 0.068471
0.869034 1.000000 0.066651
0.936495 1.000000 0.064843
1.000000 1.000000 0.063045
1.000000 1.000000 0.062916
0.012084 0.012084 0.270913
0.100212 0.009722 0.268551
0.180802 0.007561 0.266390
0.258189 0.005486 0.264315
0.333512 0.003467 0.262296
0.407321 0.001488 0.260317
0.479936 0.000000 0.258371
0.551569 0.000000 0.256450
0.622368 0.000000 0.254552
0.692445 0.000000 0.252674
0.761885 0.000000 0.250812
0.830757 0.000000 0.248966
0.899116 0.000000 0.247133
0.967006 0.000000 0.245313
1.000000 0.000000 0.243504
1.000000 0.000000 0.241706
1.000000 0.000000 0.241577
0.004209 0.093873 0.263038
