public/luts/iphone/lk-iphone-vintage.cube
TITLE "LK iPhone Vintage"
LUT_3D_SIZE 9
DOMAIN_MIN 0.0 0.0 0.0
DOMAIN_MAX 1.0 1.0 1.0
0.058413 0.059880 0.055828
0.154465 0.065923 0.061871
0.247349 0.071766 0.067715
0.338663 0.077511 0.073460
0.428912 0.083189 0.079137
0.518356 0.088816 0.084765
0.607151 0.094403 0.090351
0.695405 0.099955 0.095903
0.763951 0.104267 0.100216
0.078723 0.170113 0.076138
0.174775 0.176156 0.082181
0.267659 0.182000 0.088024
0.358973 0.187744 0.093769
0.449222 0.193422 0.099447
0.538665 0.199049 0.105074
0.627460 0.204636 0.110660
0.715714 0.210188 0.116213
0.784261 0.214501 0.120525
0.098375 0.276776 0.095789
0.194426 0.282819 0.101832
0.287311 0.288663 0.107676
0.378625 0.294407 0.113421
0.468874 0.300085 0.119099
0.558317 0.305712 0.124726
0.647112 0.311299 0.130312
0.735366 0.316851 0.135864
0.803913 0.321164 0.140177
0.117696 0.381648 0.115111
0.213748 0.387691 0.121154
0.306633 0.393535 0.126998
0.397946 0.399280 0.132743
0.488195 0.404958 0.138420
0.577639 0.410585 0.144048
0.666434 0.416171 0.149634
0.754688 0.421724 0.155186
0.823234 0.426036 0.159499
0.136794 0.485304 0.134209
0.232846 0.491347 0.140252
0.325730 0.497191 0.146095
0.417044 0.502935 0.151840
0.507293 0.508613 0.157518
0.596736 0.514240 0.163145
0.685531 0.519827 0.168732
0.773785 0.525379 0.174284
0.842332 0.529692 0.178596
0.155722 0.588037 0.153137
0.251774 0.594080 0.159179
0.344658 0.599924 0.165023
0.435972 0.605669 0.170768
0.526221 0.611346 0.176446
0.615664 0.616973 0.182073
0.704459 0.622560 0.187659
0.792713 0.628112 0.193212
0.861260 0.632425 0.197524
0.174513 0.690028 0.171928
0.270565 0.696071 0.177970
0.363449 0.701915 0.183814
0.454763 0.707660 0.189559
0.545012 0.713338 0.195237
0.634455 0.718965 0.200864
0.723250 0.724551 0.206450
0.811504 0.730103 0.212003
0.880051 0.734416 0.216315
0.193189 0.791399 0.190604
0.289241 0.797442 0.196647
0.382126 0.803286 0.202491
0.473439 0.809031 0.208236
0.563688 0.814708 0.213913
0.653132 0.820336 0.219541
0.741927 0.825922 0.225127
0.830181 0.831474 0.230679
0.898727 0.835787 0.234992
0.207405 0.868555 0.204820
0.303457 0.874598 0.210862
0.396341 0.880442 0.216706
0.487655 0.886187 0.222451
0.577904 0.891864 0.228129
0.667347 0.897492 0.233756
0.756142 0.903078 0.239342
0.844396 0.908630 0.244895
0.912943 0.912943 0.249207
0.060220 0.061686 0.136860
0.156272 0.067729 0.142903
0.249156 0.073573 0.148746
0.340470 0.079318 0.154491
0.430719 0.084995 0.160169
0.520162 0.090622 0.165796
0.608957 0.096209 0.171383
0.697211 0.101761 0.176935
0.765758 0.106074 0.181247
0.080529 0.171919 0.157169
0.176581 0.177962 0.163212
0.269465 0.183806 0.169056
0.360779 0.189551 0.174801
0.451028 0.195229 0.180479
0.540471 0.200856 0.186106
0.629267 0.206442 0.191692
0.717520 0.211994 0.197244
0.786067 0.216307 0.201557
0.100181 0.278582 0.176821
0.196233 0.284625 0.182864
0.289117 0.290469 0.188708
0.380431 0.296214 0.194452
0.470680 0.301892 0.200130
0.560123 0.307519 0.205757
0.648918 0.313105 0.211344
0.737172 0.318657 0.216896
0.805719 0.322970 0.221209
0.119503 0.383455 0.196143
0.215555 0.389498 0.202186
0.308439 0.395341 0.208029
0.399753 0.401086 0.213774
0.490002 0.406764 0.219452
0.579445 0.412391 0.225079
0.668240 0.417978 0.230666
0.756494 0.423530 0.236218
0.825041 0.427842 0.240530
0.138600 0.487110 0.215241
0.234652 0.493153 0.221283
0.327537 0.498997 0.227127
0.418850 0.504742 0.232872
0.509099 0.510420 0.238550
0.598543 0.516047 0.244177
0.687338 0.521633 0.249763
0.775592 0.527185 0.255316
0.844138 0.531498 0.259628
0.157528 0.589843 0.234168
0.253580 0.595886 0.240211
0.346464 0.601730 0.246055
0.437778 0.607475 0.251800
0.528027 0.613153 0.257477
0.617470 0.618780 0.263105
0.706265 0.624366 0.268691
0.794519 0.629919 0.274243
0.863066 0.634231 0.278556
0.176319 0.691835 0.252959
0.272371 0.697878 0.259002
0.365255 0.703721 0.264846
0.456569 0.709466 0.270591
0.546818 0.715144 0.276268
0.636261 0.720771 0.281896
0.725056 0.726357 0.287482
0.813310 0.731910 0.293034
0.881857 0.736222 0.297347
0.194996 0.793206 0.271636
0.291048 0.799249 0.277679
0.383932 0.805092 0.283522
0.475246 0.810837 0.289267
0.565495 0.816515 0.294945
0.654938 0.822142 0.300572
0.743733 0.827728 0.306159
0.831987 0.833281 0.311711
0.900534 0.837593 0.316023
0.209211 0.870361 0.285851
0.305263 0.876404 0.291894
0.398147 0.882248 0.297738
0.489461 0.887993 0.303483
0.579710 0.893671 0.309160
0.669153 0.899298 0.314788
0.757948 0.904884 0.320374
0.846202 0.910437 0.325926
0.914749 0.914749 0.330239
0.062010 0.063477 0.217178
0.158062 0.069519 0.223221
0.250946 0.075363 0.229065
0.342260 0.081108 0.234809
0.432509 0.086786 0.240487
0.521952 0.092413 0.246114
0.610747 0.097999 0.251701
0.699001 0.103552 0.257253
0.767548 0.107864 0.261566
0.082320 0.173710 0.237487
0.178371 0.179753 0.243530
0.271256 0.185596 0.249374
0.362570 0.191341 0.255119
0.452819 0.197019 0.260797
0.542262 0.202646 0.266424
0.631057 0.208232 0.272010
0.719311 0.213785 0.277563
0.787858 0.218097 0.281875
0.101971 0.280373 0.257139
0.198023 0.286416 0.263182
0.290907 0.292259 0.269026
0.382221 0.298004 0.274771
0.472470 0.303682 0.280448
0.561914 0.309309 0.286076
0.650709 0.314896 0.291662
0.738963 0.320448 0.297214
0.807509 0.324760 0.301527
0.121293 0.385245 0.276461
0.217345 0.391288 0.282504
0.310229 0.397132 0.288348
0.401543 0.402877 0.294092
0.491792 0.408554 0.299770
0.581235 0.414182 0.305397
0.670031 0.419768 0.310984
0.758284 0.425320 0.316536
0.826831 0.429633 0.320849
0.140391 0.488901 0.295559
0.236443 0.494944 0.301602
0.329327 0.500787 0.307445
0.420641 0.506532 0.313190
0.510890 0.512210 0.318868
0.600333 0.517837 0.324495
0.689128 0.523423 0.330081
0.777382 0.528976 0.335634
0.845929 0.533288 0.339946
0.159318 0.591634 0.314486
0.255370 0.597677 0.320529
0.348255 0.603520 0.326373
0.439568 0.609265 0.332118
0.529818 0.614943 0.337796
0.619261 0.620570 0.343423
0.708056 0.626157 0.349009
0.796310 0.631709 0.354561
0.864856 0.636021 0.358874
0.178109 0.693625 0.333277
0.274161 0.699668 0.339320
0.367046 0.705512 0.345164
0.458359 0.711256 0.350909
0.548609 0.716934 0.356587
0.638052 0.722561 0.362214
0.726847 0.728148 0.367800
0.815101 0.733700 0.373352
0.883647 0.738013 0.377665
0.196786 0.794996 0.351954
0.292838 0.801039 0.357997
0.385722 0.806883 0.363841
0.477036 0.812627 0.369585
0.567285 0.818305 0.375263
0.656728 0.823932 0.380890
0.745524 0.829519 0.386477
0.833777 0.835071 0.392029
0.902324 0.839384 0.396342
0.211001 0.872152 0.366169
0.307053 0.878195 0.372212
0.399938 0.884038 0.378056
0.491251 0.889783 0.383801
0.581501 0.895461 0.389479
0.670944 0.901088 0.395106
0.759739 0.906675 0.400692
0.847993 0.912227 0.406244
0.916539 0.916539 0.410557
0.063788 0.065255 0.296940
0.159840 0.071298 0.302983
0.252724 0.077141 0.308827
0.344038 0.082886 0.314572
0.434287 0.088564 0.320250
0.523730 0.094191 0.325877
0.612526 0.099777 0.331463
0.700779 0.105330 0.337015
0.769326 0.109642 0.341328
0.084098 0.175488 0.317250
0.180150 0.181531 0.323293
0.273034 0.187374 0.329136
0.364348 0.193119 0.334881
0.454597 0.198797 0.340559
0.544040 0.204424 0.346186
0.632835 0.210011 0.351773
0.721089 0.215563 0.357325
0.789636 0.219875 0.361637
0.103749 0.282151 0.336902
0.199801 0.288194 0.342945
0.292686 0.294037 0.348788
0.383999 0.299782 0.354533
0.474248 0.305460 0.360211
0.563692 0.311087 0.365838
0.652487 0.316674 0.371424
0.740741 0.322226 0.376977
0.809287 0.326538 0.381289
0.123071 0.387023 0.356223
0.219123 0.393066 0.362266
0.312007 0.398910 0.368110
0.403321 0.404655 0.373855
0.493570 0.410333 0.379533
0.583013 0.415960 0.385160
0.671809 0.421546 0.390746
0.760062 0.427098 0.396299
0.828609 0.431411 0.400611
0.142169 0.490679 0.375321
0.238221 0.496722 0.381364
0.331105 0.502565 0.387208
0.422419 0.508310 0.392952
0.512668 0.513988 0.398630
0.602111 0.519615 0.404257
0.690906 0.525202 0.409844
0.779160 0.530754 0.415396
0.847707 0.535066 0.419709
0.161096 0.593412 0.394249
0.257148 0.599455 0.400292
0.350033 0.605298 0.406135
0.441347 0.611043 0.411880
0.531596 0.616721 0.417558
0.621039 0.622348 0.423185
0.709834 0.627935 0.428771
0.798088 0.633487 0.434324
0.866635 0.637799 0.438636
0.179887 0.695403 0.413040
0.275939 0.701446 0.419083
0.368824 0.707290 0.424926
0.460137 0.713035 0.430671
0.550387 0.718712 0.436349
0.639830 0.724339 0.441976
0.728625 0.729926 0.447562
0.816879 0.735478 0.453115
0.885426 0.739791 0.457427
0.198564 0.796774 0.431716
0.294616 0.802817 0.437759
0.387500 0.808661 0.443603
0.478814 0.814405 0.449348
0.569063 0.820083 0.455026
0.658506 0.825710 0.460653
0.747302 0.831297 0.466239
0.835555 0.836849 0.471792
0.904102 0.841162 0.476104
0.212779 0.873930 0.445932
0.308831 0.879973 0.451975
0.401716 0.885817 0.457818
0.493029 0.891561 0.463563
0.583279 0.897239 0.469241
0.672722 0.902866 0.474868
0.761517 0.908453 0.480454
0.849771 0.914005 0.486007
0.918318 0.918318 0.490319
0.065557 0.067024 0.376293
0.161609 0.073066 0.382336
0.254493 0.078910 0.388180
0.345807 0.084655 0.393925
0.436056 0.090333 0.399602
0.525499 0.095960 0.405229
0.614294 0.101546 0.410816
0.702548 0.107099 0.416368
0.771095 0.111411 0.420681
0.085867 0.177257 0.396603
0.181918 0.183300 0.402646
0.274803 0.189143 0.408489
0.366117 0.194888 0.414234
0.456366 0.200566 0.419912
0.545809 0.206193 0.425539
0.634604 0.211779 0.431125
0.722858 0.217332 0.436678
0.791405 0.221644 0.440990
0.105518 0.283920 0.416254
0.201570 0.289963 0.422297
0.294454 0.295806 0.428141
0.385768 0.301551 0.433886
0.476017 0.307229 0.439564
0.565460 0.312856 0.445191
0.654256 0.318443 0.450777
0.742510 0.323995 0.456329
0.811056 0.328307 0.460642
0.124840 0.388792 0.435576
0.220892 0.394835 0.441619
0.313776 0.400679 0.447463
0.405090 0.406424 0.453208
0.495339 0.412101 0.458885
0.584782 0.417729 0.464513
0.673578 0.423315 0.470099
0.761831 0.428867 0.475651
0.830378 0.433180 0.479964
0.143938 0.492448 0.454674
0.239990 0.498491 0.460717
0.332874 0.504334 0.466560
0.424188 0.510079 0.472305
0.514437 0.515757 0.477983
0.603880 0.521384 0.483610
0.692675 0.526970 0.489197
0.780929 0.532523 0.494749
0.849476 0.536835 0.499061
0.162865 0.595181 0.473601
0.258917 0.601224 0.479644
0.351802 0.607067 0.485488
0.443115 0.612812 0.491233
0.533364 0.618490 0.496911
0.622808 0.624117 0.502538
0.711603 0.629704 0.508124
0.799857 0.635256 0.513677
0.868403 0.639568 0.517989
0.181656 0.697172 0.492392
0.277708 0.703215 0.498435
0.370593 0.709059 0.504279
0.461906 0.714803 0.510024
0.552155 0.720481 0.515702
0.641599 0.726108 0.521329
0.730394 0.731695 0.526915
0.818648 0.737247 0.532468
0.887194 0.741560 0.536780
0.200333 0.798543 0.511069
0.296385 0.804586 0.517112
0.389269 0.810430 0.522956
0.480583 0.816174 0.528701
0.570832 0.821852 0.534378
0.660275 0.827479 0.540006
0.749071 0.833066 0.545592
0.837324 0.838618 0.551144
0.905871 0.842931 0.555457
0.214548 0.875699 0.525284
0.310600 0.881742 0.531327
0.403485 0.887585 0.537171
0.494798 0.893330 0.542916
0.585047 0.899008 0.548594
0.674491 0.904635 0.554221
0.763286 0.910222 0.559807
0.851540 0.915774 0.565360
0.920086 0.920086 0.569672
0.067319 0.068785 0.455323
0.163371 0.074828 0.461366
0.256255 0.080672 0.467210
0.347569 0.086417 0.472955
0.437818 0.092094 0.478632
0.527261 0.097722 0.484260
0.616056 0.103308 0.489846
0.704310 0.108860 0.495398
0.772857 0.113173 0.499711
0.087628 0.179018 0.475633
0.183680 0.185061 0.481676
0.276564 0.190905 0.487519
0.367878 0.196650 0.493264
0.458127 0.202328 0.498942
0.547570 0.207955 0.504569
0.636366 0.213541 0.510155
0.724620 0.219093 0.515708
0.793166 0.223406 0.520020
0.107280 0.285681 0.495284
0.203332 0.291724 0.501327
0.296216 0.297568 0.507171
0.387530 0.303313 0.512916
0.477779 0.308991 0.518594
0.567222 0.314618 0.524221
0.656017 0.320204 0.529807
0.744271 0.325757 0.535360
0.812818 0.330069 0.539672
0.126602 0.390554 0.514606
0.222654 0.396597 0.520649
0.315538 0.402440 0.526493
0.406852 0.408185 0.532238
0.497101 0.413863 0.537916
0.586544 0.419490 0.543543
0.675339 0.425077 0.549129
0.763593 0.430629 0.554681
0.832140 0.434941 0.558994
0.145699 0.494209 0.533704
0.241751 0.500252 0.539747
0.334636 0.506096 0.545590
0.425949 0.511841 0.551335
0.516199 0.517519 0.557013
0.605642 0.523146 0.562640
0.694437 0.528732 0.568227
0.782691 0.534284 0.573779
0.851237 0.538597 0.578091
0.164627 0.596943 0.552632
0.260679 0.602985 0.558675
0.353563 0.608829 0.564518
0.444877 0.614574 0.570263
0.535126 0.620252 0.575941
0.624569 0.625879 0.581568
0.713365 0.631465 0.587154
0.801618 0.637018 0.592707
0.870165 0.641330 0.597019
0.183418 0.698934 0.571423
0.279470 0.704977 0.577466
0.372354 0.710820 0.583309
0.463668 0.716565 0.589054
0.553917 0.722243 0.594732
0.643360 0.727870 0.600359
0.732156 0.733456 0.605945
0.820409 0.739009 0.611498
0.888956 0.743321 0.615810
0.202095 0.800305 0.590099
0.298147 0.806348 0.596142
0.391031 0.812191 0.601986
0.482345 0.817936 0.607731
0.572594 0.823614 0.613409
0.662037 0.829241 0.619036
0.750832 0.834827 0.624622
0.839086 0.840380 0.630174
0.907633 0.844692 0.634487
0.216310 0.877461 0.604315
0.312362 0.883504 0.610358
0.405246 0.889347 0.616201
0.496560 0.895092 0.621946
0.586809 0.900770 0.627624
0.676252 0.906397 0.633251
0.765048 0.911983 0.638837
0.853301 0.917536 0.644390
0.921848 0.921848 0.648702
0.069075 0.070541 0.534088
0.165126 0.076584 0.540131
0.258011 0.082428 0.545974
0.349325 0.088172 0.551719
0.439574 0.093850 0.557397
0.529017 0.099477 0.563024
0.617812 0.105064 0.568610
0.706066 0.110616 0.574163
0.774613 0.114929 0.578475
0.089384 0.180774 0.554397
0.185436 0.186817 0.560440
0.278320 0.192661 0.566284
0.369634 0.198406 0.572029
0.459883 0.204083 0.577706
0.549326 0.209711 0.583334
0.638121 0.215297 0.588920
0.726375 0.220849 0.594472
0.794922 0.225162 0.598785
0.109036 0.287437 0.574049
0.205088 0.293480 0.580092
0.297972 0.299324 0.585935
0.389286 0.305069 0.591680
0.479535 0.310747 0.597358
0.568978 0.316374 0.602985
0.657773 0.321960 0.608572
0.746027 0.327512 0.614124
0.814574 0.331825 0.618436
0.128358 0.392310 0.593371
0.224410 0.398353 0.599414
0.317294 0.404196 0.605257
0.408608 0.409941 0.611002
0.498857 0.415619 0.616680
0.588300 0.421246 0.622307
0.677095 0.426832 0.627893
0.765349 0.432385 0.633446
0.833896 0.436697 0.637758
0.147455 0.495965 0.612468
0.243507 0.502008 0.618511
0.336391 0.507852 0.624355
0.427705 0.513597 0.630100
0.517954 0.519274 0.635778
0.607397 0.524902 0.641405
0.696193 0.530488 0.646991
0.784447 0.536040 0.652543
0.852993 0.540353 0.656856
0.166383 0.598698 0.631396
0.262435 0.604741 0.637439
0.355319 0.610585 0.643283
0.446633 0.616330 0.649027
0.536882 0.622008 0.654705
0.626325 0.627635 0.660332
0.715120 0.633221 0.665919
0.803374 0.638773 0.671471
0.871921 0.643086 0.675784
0.185174 0.700690 0.650187
0.281226 0.706732 0.656230
0.374110 0.712576 0.662074
0.465424 0.718321 0.667818
0.555673 0.723999 0.673496
0.645116 0.729626 0.679123
0.733911 0.735212 0.684710
0.822165 0.740765 0.690262
0.890712 0.745077 0.694575
0.203851 0.802060 0.668864
0.299902 0.808103 0.674907
0.392787 0.813947 0.680750
0.484101 0.819692 0.686495
0.574350 0.825370 0.692173
0.663793 0.830997 0.697800
0.752588 0.836583 0.703386
0.840842 0.842136 0.708939
0.909389 0.846448 0.713251
0.218066 0.879216 0.683079
0.314118 0.885259 0.689122
0.407002 0.891103 0.694966
0.498316 0.896848 0.700710
0.588565 0.902526 0.706388
0.678008 0.908153 0.712015
0.766803 0.913739 0.717602
0.855057 0.919291 0.723154
0.923604 0.923604 0.727467
0.070825 0.072292 0.612626
0.166877 0.078335 0.618669
0.259761 0.084178 0.624513
0.351075 0.089923 0.630258
0.441324 0.095601 0.635936
0.530768 0.101228 0.641563
0.619563 0.106815 0.647149
0.707817 0.112367 0.652701
0.776363 0.116679 0.657014
0.091135 0.182525 0.632936
0.187187 0.188568 0.638979
0.280071 0.194412 0.644822
0.371385 0.200156 0.650567
0.461634 0.205834 0.656245
0.551077 0.211461 0.661872
0.639872 0.217048 0.667459
0.728126 0.222600 0.673011
0.796673 0.226913 0.677323
0.110787 0.289188 0.652588
0.206838 0.295231 0.658631
0.299723 0.301075 0.664474
0.391037 0.306819 0.670219
0.481286 0.312497 0.675897
0.570729 0.318124 0.681524
0.659524 0.323711 0.687110
0.747778 0.329263 0.692663
0.816325 0.333576 0.696975
0.130108 0.394061 0.671909
0.226160 0.400103 0.677952
0.319045 0.405947 0.683796
0.410358 0.411692 0.689541
0.500607 0.417370 0.695219
0.590051 0.422997 0.700846
0.678846 0.428583 0.706432
0.767100 0.434136 0.711985
0.835646 0.438448 0.716297
0.149206 0.497716 0.691007
0.245258 0.503759 0.697050
0.338142 0.509603 0.702894
0.429456 0.515347 0.708638
0.519705 0.521025 0.714316
0.609148 0.526652 0.719943
0.697943 0.532239 0.725530
0.786197 0.537791 0.731082
0.854744 0.542104 0.735395
0.168134 0.600449 0.709935
0.264186 0.606492 0.715978
0.357070 0.612336 0.721821
0.448384 0.618081 0.727566
0.538633 0.623758 0.733244
0.628076 0.629386 0.738871
0.716871 0.634972 0.744458
0.805125 0.640524 0.750010
0.873672 0.644837 0.754322
0.186925 0.702440 0.728726
0.282977 0.708483 0.734769
0.375861 0.714327 0.740612
0.467175 0.720072 0.746357
0.557424 0.725750 0.752035
0.646867 0.731377 0.757662
0.735662 0.736963 0.763249
0.823916 0.742515 0.768801
0.892463 0.746828 0.773113
0.205601 0.803811 0.747402
0.301653 0.809854 0.753445
0.394538 0.815698 0.759289
0.485851 0.821443 0.765034
0.576100 0.827120 0.770712
0.665544 0.832748 0.776339
0.754339 0.838334 0.781925
0.842593 0.843886 0.787478
0.911139 0.848199 0.791790
0.219817 0.880967 0.761618
0.315869 0.887010 0.767661
0.408753 0.892854 0.773504
0.500067 0.898599 0.779249
0.590316 0.904276 0.784927
0.679759 0.909904 0.790554
0.768554 0.915490 0.796141
0.856808 0.921042 0.801693
0.925355 0.925355 0.806005
0.072572 0.074038 0.690969
0.168624 0.080081 0.697012
0.261508 0.085925 0.702856
0.352822 0.091670 0.708601
0.443071 0.097347 0.714278
0.532514 0.102975 0.719906
0.621309 0.108561 0.725492
0.709563 0.114113 0.731044
0.778110 0.118426 0.735357
0.092881 0.184271 0.711279
0.188933 0.190314 0.717322
0.281817 0.196158 0.723165
0.373131 0.201903 0.728910
0.463380 0.207581 0.734588
0.552823 0.213208 0.740215
0.641619 0.218794 0.745801
0.729873 0.224346 0.751354
0.798419 0.228659 0.755666
0.112533 0.290934 0.730930
0.208585 0.296977 0.736973
0.301469 0.302821 0.742817
0.392783 0.308566 0.748562
0.483032 0.314244 0.754240
0.572475 0.319871 0.759867
0.661270 0.325457 0.765453
0.749524 0.331010 0.771005
0.818071 0.335322 0.775318
0.131855 0.395807 0.750252
0.227907 0.401850 0.756295
0.320791 0.407693 0.762139
0.412105 0.413438 0.767884
0.502354 0.419116 0.773561
0.591797 0.424743 0.779189
0.680592 0.430330 0.784775
0.768846 0.435882 0.790327
0.837393 0.440194 0.794640
0.150952 0.499462 0.769350
0.247004 0.505505 0.775393
0.339889 0.511349 0.781236
0.431202 0.517094 0.786981
0.521451 0.522772 0.792659
0.610895 0.528399 0.798286
0.699690 0.533985 0.803873
0.787944 0.539537 0.809425
0.856490 0.543850 0.813737
0.169880 0.602196 0.788278
0.265932 0.608238 0.794320
0.358816 0.614082 0.800164
0.450130 0.619827 0.805909
0.540379 0.625505 0.811587
0.629822 0.631132 0.817214
0.718617 0.636718 0.822800
0.806871 0.642271 0.828353
0.875418 0.646583 0.832665
0.188671 0.704187 0.807068
0.284723 0.710230 0.813111
0.377607 0.716073 0.818955
0.468921 0.721818 0.824700
0.559170 0.727496 0.830378
0.648613 0.733123 0.836005
0.737408 0.738709 0.841591
0.825662 0.744262 0.847144
0.894209 0.748574 0.851456
0.207348 0.805558 0.825745
0.303400 0.811601 0.831788
0.396284 0.817444 0.837632
0.487598 0.823189 0.843377
0.577847 0.828867 0.849054
0.667290 0.834494 0.854682
0.756085 0.840080 0.860268
0.844339 0.845633 0.865820
0.912886 0.849945 0.870133
0.221563 0.882714 0.839961
0.317615 0.888756 0.846003
0.410499 0.894600 0.851847
0.501813 0.900345 0.857592
0.592062 0.906023 0.863270
0.681505 0.911650 0.868897
0.770300 0.917236 0.874483
0.858554 0.922789 0.880036
0.927101 0.927101 0.884348
