public/luts/iphone/lk-iphone-travel.cube
TITLE "LK iPhone Travel"
LUT_3D_SIZE 9
DOMAIN_MIN 0.0 0.0 0.0
DOMAIN_MAX 1.0 1.0 1.0
0.014377 0.014377 0.014655
0.183095 0.009853 0.010132
0.335805 0.005760 0.006038
0.482228 0.001834 0.002113
0.624660 0.000000 0.000000
0.764178 0.000000 0.000000
0.901408 0.000000 0.000000
1.000000 0.000000 0.000000
1.000000 0.000000 0.000000
0.000000 0.170970 0.000000
0.168017 0.166447 0.000000
0.320727 0.162353 0.000000
0.467150 0.158427 0.000000
0.609582 0.154609 0.000000
0.749100 0.150869 0.000000
0.886330 0.147190 0.000000
1.000000 0.143561 0.000000
1.000000 0.141634 0.000000
0.000000 0.312723 0.000000
0.154368 0.308200 0.000000
0.307077 0.304106 0.000000
0.453501 0.300180 0.000000
0.595933 0.296362 0.000000
0.735451 0.292621 0.000000
0.872681 0.288942 0.000000
1.000000 0.285314 0.000000
1.000000 0.283387 0.000000
0.000000 0.448642 0.000000
0.141280 0.444119 0.000000
0.293990 0.440025 0.000000
0.440414 0.436100 0.000000
0.582845 0.432281 0.000000
0.722363 0.428541 0.000000
0.859593 0.424862 0.000000
0.994946 0.421233 0.000000
1.000000 0.419306 0.000000
0.000000 0.580857 0.000000
0.128549 0.576334 0.000000
0.281259 0.572240 0.000000
0.427683 0.568315 0.000000
0.570115 0.564496 0.000000
0.709632 0.560756 0.000000
0.846862 0.557077 0.000000
0.982215 0.553448 0.000000
1.000000 0.551521 0.000000
0.000000 0.710367 0.000000
0.116079 0.705844 0.000000
0.268789 0.701750 0.000000
0.415212 0.697825 0.000000
0.557644 0.694006 0.000000
0.697162 0.690266 0.000000
0.834392 0.686587 0.000000
0.969744 0.682958 0.000000
1.000000 0.681031 0.000000
0.000000 0.837754 0.000000
0.103813 0.833231 0.000000
0.256523 0.829137 0.000000
0.402946 0.825212 0.000000
0.545378 0.821393 0.000000
0.684896 0.817653 0.000000
0.822126 0.813974 0.000000
0.957478 0.810345 0.000000
1.000000 0.808418 0.000000
0.000000 0.963398 0.000000
0.091715 0.958875 0.000000
0.244425 0.954781 0.000000
0.390848 0.950856 0.000000
0.533280 0.947037 0.000000
0.672798 0.943297 0.000000
0.810028 0.939618 0.000000
0.945380 0.935990 0.000000
1.000000 0.934062 0.000000
0.000000 1.000000 0.000000
0.084407 1.000000 0.000000
0.237117 1.000000 0.000000
0.383540 1.000000 0.000000
0.525972 1.000000 0.000000
0.665490 1.000000 0.000000
0.802720 1.000000 0.000000
0.938072 1.000000 0.000000
1.000000 1.000000 0.000000
0.012800 0.012800 0.190940
0.181518 0.008276 0.186417
0.334228 0.004182 0.182323
0.480651 0.000257 0.178397
0.623083 0.000000 0.174579
0.762601 0.000000 0.170839
0.899831 0.000000 0.167160
1.000000 0.000000 0.163531
1.000000 0.000000 0.161604
0.000000 0.169393 0.175862
0.166440 0.164870 0.171339
0.319150 0.160776 0.167245
0.465573 0.156850 0.163319
0.608005 0.153032 0.159501
0.747523 0.149292 0.155761
0.884753 0.145613 0.152082
1.000000 0.141984 0.148453
1.000000 0.140057 0.146526
0.000000 0.311146 0.162213
0.152791 0.306622 0.157689
0.305500 0.302529 0.153595
0.451924 0.298603 0.149670
0.594356 0.294785 0.145852
0.733874 0.291044 0.142111
0.871104 0.287365 0.138432
1.000000 0.283737 0.134804
1.000000 0.281810 0.132877
0.000000 0.447065 0.149125
0.139703 0.442542 0.144602
0.292413 0.438448 0.140508
0.438837 0.434523 0.136583
0.581268 0.430704 0.132764
0.720786 0.426964 0.129024
0.858016 0.423285 0.125345
0.993368 0.419656 0.121716
1.000000 0.417729 0.119789
0.000000 0.579280 0.136394
0.126972 0.574757 0.131871
0.279682 0.570663 0.127777
0.426106 0.566737 0.123852
0.568538 0.562919 0.120033
0.708055 0.559179 0.116293
0.845285 0.555500 0.112614
0.980638 0.551871 0.108985
1.000000 0.549944 0.107058
0.000000 0.708790 0.123924
0.114502 0.704267 0.119401
0.267212 0.700173 0.115307
0.413635 0.696248 0.111381
0.556067 0.692429 0.107563
0.695585 0.688689 0.103823
0.832815 0.685010 0.100144
0.968167 0.681381 0.096515
1.000000 0.679454 0.094588
0.000000 0.836177 0.111658
0.102236 0.831654 0.107135
0.254946 0.827560 0.103041
0.401369 0.823635 0.099115
0.543801 0.819816 0.095297
0.683319 0.816076 0.091557
0.820549 0.812397 0.087878
0.955901 0.808768 0.084249
1.000000 0.806841 0.082322
0.000000 0.961821 0.099560
0.090138 0.957298 0.095037
0.242848 0.953204 0.090943
0.389271 0.949279 0.087017
0.531703 0.945460 0.083199
0.671221 0.941720 0.079459
0.808451 0.938041 0.075780
0.943803 0.934412 0.072151
1.000000 0.932485 0.070224
0.000000 1.000000 0.092252
0.082830 1.000000 0.087729
0.235540 1.000000 0.083635
0.381963 1.000000 0.079709
0.524395 1.000000 0.075891
0.663913 1.000000 0.072150
0.801143 1.000000 0.068471
0.936495 1.000000 0.064843
1.000000 1.000000 0.062916
0.011390 0.011390 0.348519
0.180108 0.006867 0.343995
0.332818 0.002773 0.339901
0.479242 0.000000 0.335976
0.621674 0.000000 0.332158
0.761191 0.000000 0.328417
0.898421 0.000000 0.324738
1.000000 0.000000 0.321110
1.000000 0.000000 0.319183
0.000000 0.167983 0.333440
0.165030 0.163460 0.328917
0.317740 0.159366 0.324823
0.464164 0.155441 0.320898
0.606595 0.151622 0.317079
0.746113 0.147882 0.313339
0.883343 0.144203 0.309660
1.000000 0.140574 0.306032
1.000000 0.138647 0.304104
0.000000 0.309736 0.319791
0.151381 0.305213 0.315268
0.304091 0.301119 0.311174
0.450514 0.297193 0.307249
0.592946 0.293375 0.303430
0.732464 0.289635 0.299690
0.869694 0.285956 0.296011
1.000000 0.282327 0.292382
1.000000 0.280400 0.290455
0.000000 0.445655 0.306704
0.138293 0.441132 0.302181
0.291003 0.437038 0.298087
0.437427 0.433113 0.294161
0.579859 0.429294 0.290343
0.719376 0.425554 0.286602
0.856607 0.421875 0.282923
0.991959 0.418247 0.279295
1.000000 0.416319 0.277368
0.000000 0.577870 0.293973
0.125562 0.573347 0.289450
0.278272 0.569253 0.285356
0.424696 0.565328 0.281430
0.567128 0.561509 0.277612
0.706646 0.557769 0.273872
0.843876 0.554090 0.270193
0.979228 0.550461 0.266564
1.000000 0.548534 0.264637
0.000000 0.707380 0.281502
0.113092 0.702857 0.276979
0.265802 0.698763 0.272885
0.412226 0.694838 0.268960
0.554658 0.691020 0.265142
0.694175 0.687279 0.261401
0.831405 0.683600 0.257722
0.966758 0.679972 0.254094
1.000000 0.678044 0.252166
0.000000 0.834768 0.269237
0.100826 0.830244 0.264713
0.253536 0.826150 0.260619
0.399960 0.822225 0.256694
0.542392 0.818407 0.252876
0.681909 0.814666 0.249135
0.819139 0.810987 0.245456
0.954492 0.807359 0.241828
1.000000 0.805431 0.239900
0.000000 0.960412 0.257138
0.088728 0.955888 0.252615
0.241438 0.951794 0.248521
0.387862 0.947869 0.244596
0.530293 0.944051 0.240777
0.669811 0.940310 0.237037
0.807041 0.936631 0.233358
0.942394 0.933003 0.229730
1.000000 0.931076 0.227802
0.000000 1.000000 0.249830
0.081420 1.000000 0.245307
0.234130 1.000000 0.241213
0.380553 1.000000 0.237288
0.522985 1.000000 0.233469
0.662503 1.000000 0.229729
0.799733 1.000000 0.226050
0.935085 1.000000 0.222421
1.000000 1.000000 0.220494
0.010045 0.010045 0.498902
0.178763 0.005521 0.494379
0.331473 0.001427 0.490285
0.477896 0.000000 0.486359
0.620328 0.000000 0.482541
0.759846 0.000000 0.478800
0.897076 0.000000 0.475122
1.000000 0.000000 0.471493
1.000000 0.000000 0.469566
0.000000 0.166638 0.483823
0.163685 0.162115 0.479300
0.316395 0.158021 0.475206
0.462818 0.154095 0.471281
0.605250 0.150277 0.467463
0.744768 0.146537 0.463722
0.881998 0.142858 0.460043
1.000000 0.139229 0.456415
1.000000 0.137302 0.454487
0.000000 0.308391 0.470174
0.150035 0.303867 0.465651
0.302745 0.299774 0.461557
0.449169 0.295848 0.457632
0.591601 0.292030 0.453813
0.731119 0.288289 0.450073
0.868349 0.284610 0.446394
1.000000 0.280982 0.442766
1.000000 0.279055 0.440838
0.000000 0.444310 0.457087
0.136948 0.439787 0.452564
0.289658 0.435693 0.448470
0.436082 0.431768 0.444544
0.578513 0.427949 0.440726
0.718031 0.424209 0.436986
0.855261 0.420530 0.433307
0.990613 0.416901 0.429678
1.000000 0.414974 0.427751
0.000000 0.576525 0.444356
0.124217 0.572002 0.439833
0.276927 0.567908 0.435739
0.423351 0.563982 0.431813
0.565783 0.560164 0.427995
0.705300 0.556424 0.424255
0.842530 0.552745 0.420576
0.977883 0.549116 0.416947
1.000000 0.547189 0.415020
0.000000 0.706035 0.431886
0.111747 0.701512 0.427362
0.264457 0.697418 0.423269
0.410880 0.693493 0.419343
0.553312 0.689674 0.415525
0.692830 0.685934 0.411784
0.830060 0.682255 0.408105
0.965412 0.678626 0.404477
1.000000 0.676699 0.402550
0.000000 0.833422 0.419620
0.099481 0.828899 0.415097
0.252191 0.824805 0.411003
0.398614 0.820880 0.407077
0.541046 0.817061 0.403259
0.680564 0.813321 0.399518
0.817794 0.809642 0.395839
0.953146 0.806013 0.392211
1.000000 0.804086 0.390284
0.000000 0.959066 0.407522
0.087383 0.954543 0.402998
0.240093 0.950449 0.398904
0.386516 0.946524 0.394979
0.528948 0.942705 0.391161
0.668466 0.938965 0.387420
0.805696 0.935286 0.383741
0.941048 0.931657 0.380113
1.000000 0.929730 0.378186
0.000000 1.000000 0.400213
0.080075 1.000000 0.395690
0.232785 1.000000 0.391596
0.379208 1.000000 0.387671
0.521640 1.000000 0.383853
0.661158 1.000000 0.380112
0.798388 1.000000 0.376433
0.933740 1.000000 0.372805
1.000000 1.000000 0.370877
0.008740 0.008740 0.644740
0.177458 0.004217 0.640217
0.330168 0.000123 0.636123
0.476592 0.000000 0.632197
0.619024 0.000000 0.628379
0.758541 0.000000 0.624639
0.895771 0.000000 0.620960
1.000000 0.000000 0.617331
1.000000 0.000000 0.615404
0.000000 0.165333 0.629662
0.162380 0.160810 0.625138
0.315090 0.156716 0.621044
0.461514 0.152791 0.617119
0.603945 0.148972 0.613301
0.743463 0.145232 0.609560
0.880693 0.141553 0.605881
1.000000 0.137924 0.602253
1.000000 0.135997 0.600326
0.000000 0.307086 0.616012
0.148731 0.302563 0.611489
0.301441 0.298469 0.607395
0.447864 0.294543 0.603470
0.590296 0.290725 0.599651
0.729814 0.286985 0.595911
0.867044 0.283306 0.592232
1.000000 0.279677 0.588604
1.000000 0.277750 0.586676
0.000000 0.443005 0.602925
0.135643 0.438482 0.598402
0.288353 0.434388 0.594308
0.434777 0.430463 0.590382
0.577209 0.426644 0.586564
0.716726 0.422904 0.582824
0.853957 0.419225 0.579145
0.989309 0.415597 0.575516
1.000000 0.413669 0.573589
0.000000 0.575220 0.590194
0.122913 0.570697 0.585671
0.275622 0.566603 0.581577
0.422046 0.562678 0.577652
0.564478 0.558859 0.573833
0.703996 0.555119 0.570093
0.841226 0.551440 0.566414
0.976578 0.547811 0.562785
1.000000 0.545884 0.560858
0.000000 0.704730 0.577724
0.110442 0.700207 0.573201
0.263152 0.696113 0.569107
0.409576 0.692188 0.565181
0.552008 0.688370 0.561363
0.691525 0.684629 0.557622
0.828755 0.680950 0.553943
0.964108 0.677322 0.550315
1.000000 0.675394 0.548388
0.000000 0.832118 0.565458
0.098176 0.827594 0.560935
0.250886 0.823500 0.556841
0.397310 0.819575 0.552915
0.539742 0.815757 0.549097
0.679259 0.812016 0.545357
0.816489 0.808337 0.541678
0.951842 0.804709 0.538049
1.000000 0.802781 0.536122
0.000000 0.957762 0.553360
0.086078 0.953238 0.548836
0.238788 0.949144 0.544743
0.385212 0.945219 0.540817
0.527643 0.941401 0.536999
0.667161 0.937660 0.533258
0.804391 0.933981 0.529579
0.939744 0.930353 0.525951
1.000000 0.928426 0.524024
0.000000 1.000000 0.546051
0.078770 1.000000 0.541528
0.231480 1.000000 0.537434
0.377904 1.000000 0.533509
0.520335 1.000000 0.529691
0.659853 1.000000 0.525950
0.797083 1.000000 0.522271
0.932435 1.000000 0.518643
1.000000 1.000000 0.516715
0.007465 0.007465 0.787270
0.176183 0.002942 0.782747
0.328893 0.000000 0.778653
0.475317 0.000000 0.774728
0.617749 0.000000 0.770909
0.757266 0.000000 0.767169
0.894496 0.000000 0.763490
1.000000 0.000000 0.759862
1.000000 0.000000 0.757934
0.000000 0.164058 0.772192
0.161105 0.159535 0.767669
0.313815 0.155441 0.763575
0.460238 0.151516 0.759650
0.602670 0.147697 0.755831
0.742188 0.143957 0.752091
0.879418 0.140278 0.748412
1.000000 0.136649 0.744783
1.000000 0.134722 0.742856
0.000000 0.305811 0.758543
0.147456 0.301288 0.754020
0.300166 0.297194 0.749926
0.446589 0.293268 0.746000
0.589021 0.289450 0.742182
0.728539 0.285710 0.738442
0.865769 0.282031 0.734763
1.000000 0.278402 0.731134
1.000000 0.276475 0.729207
0.000000 0.441730 0.745455
0.134368 0.437207 0.740932
0.287078 0.433113 0.736838
0.433502 0.429188 0.732913
0.575934 0.425369 0.729095
0.715451 0.421629 0.725354
0.852681 0.417950 0.721675
0.988034 0.414322 0.718047
1.000000 0.412394 0.716119
0.000000 0.573945 0.732725
0.121637 0.569422 0.728202
0.274347 0.565328 0.724108
0.420771 0.561403 0.720182
0.563203 0.557584 0.716364
0.702720 0.553844 0.712623
0.839951 0.550165 0.708944
0.975303 0.546536 0.705316
1.000000 0.544609 0.703389
0.000000 0.703455 0.720254
0.109167 0.698932 0.715731
0.261877 0.694838 0.711637
0.408301 0.690913 0.707712
0.550732 0.687094 0.703893
0.690250 0.683354 0.700153
0.827480 0.679675 0.696474
0.962833 0.676047 0.692845
1.000000 0.674119 0.690918
0.000000 0.830842 0.707988
0.096901 0.826319 0.703465
0.249611 0.822225 0.699371
0.396035 0.818300 0.695446
0.538467 0.814482 0.691627
0.677984 0.810741 0.687887
0.815214 0.807062 0.684208
0.950567 0.803434 0.680580
1.000000 0.801506 0.678652
0.000000 0.956487 0.695890
0.084803 0.951963 0.691367
0.237513 0.947869 0.687273
0.383937 0.943944 0.683348
0.526368 0.940126 0.679529
0.665886 0.936385 0.675789
0.803116 0.932706 0.672110
0.938468 0.929078 0.668481
1.000000 0.927150 0.666554
0.000000 1.000000 0.688582
0.077495 1.000000 0.684059
0.230205 1.000000 0.679965
0.376628 1.000000 0.676040
0.519060 1.000000 0.672221
0.658578 1.000000 0.668481
0.795808 1.000000 0.664802
0.931160 1.000000 0.661173
1.000000 1.000000 0.659246
0.006213 0.006213 0.927211
0.174931 0.001690 0.922688
0.327641 0.000000 0.918594
0.474065 0.000000 0.914669
0.616497 0.000000 0.910850
0.756014 0.000000 0.907110
0.893244 0.000000 0.903431
1.000000 0.000000 0.899802
1.000000 0.000000 0.897875
0.000000 0.162806 0.912133
0.159853 0.158283 0.907610
0.312563 0.154189 0.903516
0.458987 0.150264 0.899590
0.601418 0.146445 0.895772
0.740936 0.142705 0.892032
0.878166 0.139026 0.888353
1.000000 0.135397 0.884724
1.000000 0.133470 0.882797
0.000000 0.304559 0.898484
0.146204 0.300036 0.893961
0.298914 0.295942 0.889867
0.445337 0.292016 0.885941
0.587769 0.288198 0.882123
0.727287 0.284458 0.878382
0.864517 0.280779 0.874703
0.999869 0.277150 0.871075
1.000000 0.275223 0.869148
0.000000 0.440478 0.885396
0.133116 0.435955 0.880873
0.285826 0.431861 0.876779
0.432250 0.427936 0.872854
0.574682 0.424117 0.869035
0.714199 0.420377 0.865295
0.851430 0.416698 0.861616
0.986782 0.413070 0.857987
1.000000 0.411142 0.856060
0.000000 0.572693 0.872665
0.120386 0.568170 0.868142
0.273095 0.564076 0.864048
0.419519 0.560151 0.860123
0.561951 0.556332 0.856304
0.701469 0.552592 0.852564
0.838699 0.548913 0.848885
0.974051 0.545285 0.845257
1.000000 0.543357 0.843329
0.000000 0.702203 0.860195
0.107915 0.697680 0.855672
0.260625 0.693586 0.851578
0.407049 0.689661 0.847652
0.549481 0.685843 0.843834
0.688998 0.682102 0.840094
0.826228 0.678423 0.836415
0.961581 0.674795 0.832786
1.000000 0.672867 0.830859
0.000000 0.829591 0.847929
0.095649 0.825067 0.843406
0.248359 0.820973 0.839312
0.394783 0.817048 0.835387
0.537215 0.813230 0.831568
0.676732 0.809489 0.827828
0.813962 0.805810 0.824149
0.949315 0.802182 0.820520
1.000000 0.800255 0.818593
0.000000 0.955235 0.835831
0.083551 0.950711 0.831308
0.236261 0.946618 0.827214
0.382685 0.942692 0.823288
0.525117 0.938874 0.819470
0.664634 0.935133 0.815730
0.801864 0.931454 0.812051
0.937217 0.927826 0.808422
1.000000 0.925899 0.806495
0.000000 1.000000 0.828523
0.076243 1.000000 0.824000
0.228953 1.000000 0.819906
0.375377 1.000000 0.815980
0.517808 1.000000 0.812162
0.657326 1.000000 0.808422
0.794556 1.000000 0.804743
0.929908 1.000000 0.801114
1.000000 1.000000 0.799187
0.004980 0.004980 1.000000
0.173698 0.000457 1.000000
0.326408 0.000000 1.000000
0.472832 0.000000 1.000000
0.615264 0.000000 1.000000
0.754781 0.000000 1.000000
0.892012 0.000000 1.000000
1.000000 0.000000 1.000000
1.000000 0.000000 1.000000
0.000000 0.161573 1.000000
0.158620 0.157050 1.000000
0.311330 0.152956 1.000000
0.457754 0.149031 1.000000
0.600186 0.145212 1.000000
0.739703 0.141472 1.000000
0.876933 0.137793 1.000000
1.000000 0.134165 1.000000
1.000000 0.132237 1.000000
0.000000 0.303326 1.000000
0.144971 0.298803 1.000000
0.297681 0.294709 1.000000
0.444104 0.290784 1.000000
0.586536 0.286965 1.000000
0.726054 0.283225 1.000000
0.863284 0.279546 1.000000
0.998636 0.275917 1.000000
1.000000 0.273990 1.000000
0.000000 0.439245 1.000000
0.131883 0.434722 1.000000
0.284593 0.430628 1.000000
0.431017 0.426703 1.000000
0.573449 0.422885 1.000000
0.712966 0.419144 1.000000
0.850197 0.415465 0.999434
0.985549 0.411837 0.995806
1.000000 0.409909 0.993879
0.000000 0.571460 1.000000
0.119153 0.566937 1.000000
0.271863 0.562843 1.000000
0.418286 0.558918 0.997941
0.560718 0.555099 0.994123
0.700236 0.551359 0.990383
0.837466 0.547680 0.986704
0.972818 0.544052 0.983075
1.000000 0.542124 0.981148
0.000000 0.700971 0.998013
0.106682 0.696447 0.993490
0.259392 0.692353 0.989396
0.405816 0.688428 0.985471
0.548248 0.684610 0.981653
0.687765 0.680869 0.977912
0.824995 0.677190 0.974233
0.960348 0.673562 0.970605
1.000000 0.671635 0.968677
0.000000 0.828358 0.985747
0.094416 0.823834 0.981224
0.247126 0.819741 0.977130
0.393550 0.815815 0.973205
0.535982 0.811997 0.969387
0.675499 0.808256 0.965646
0.812729 0.804577 0.961967
0.948082 0.800949 0.958339
1.000000 0.799022 0.956411
0.000000 0.954002 0.973649
0.082318 0.949479 0.969126
0.235028 0.945385 0.965032
0.381452 0.941459 0.961107
0.523884 0.937641 0.957288
0.663401 0.933900 0.953548
0.800631 0.930221 0.949869
0.935984 0.926593 0.946241
1.000000 0.924666 0.944313
0.000000 1.000000 0.966341
0.075010 1.000000 0.961818
0.227720 1.000000 0.957724
0.374144 1.000000 0.953799
0.516575 1.000000 0.949980
0.656093 1.000000 0.946240
0.793323 1.000000 0.942561
0.928676 1.000000 0.938932
1.000000 1.000000 0.937005
0.004416 0.004416 1.000000
0.173135 0.000000 1.000000
0.325845 0.000000 1.000000
0.472268 0.000000 1.000000
0.614700 0.000000 1.000000
0.754218 0.000000 1.000000
0.891448 0.000000 1.000000
1.000000 0.000000 1.000000
1.000000 0.000000 1.000000
0.000000 0.161010 1.000000
0.158057 0.156487 1.000000
0.310767 0.152393 1.000000
0.457190 0.148467 1.000000
0.599622 0.144649 1.000000
0.739140 0.140909 1.000000
0.876370 0.137230 1.000000
1.000000 0.133601 1.000000
1.000000 0.131674 1.000000
0.000000 0.302762 1.000000
0.144407 0.298239 1.000000
0.297117 0.294145 1.000000
0.443541 0.290220 1.000000
0.585973 0.286402 1.000000
0.725490 0.282661 1.000000
0.862721 0.278982 1.000000
0.998073 0.275354 1.000000
1.000000 0.273426 1.000000
0.000000 0.438682 1.000000
0.131320 0.434159 1.000000
0.284030 0.430065 1.000000
0.430453 0.426139 1.000000
0.572885 0.422321 1.000000
0.712403 0.418581 1.000000
0.849633 0.414902 1.000000
0.984985 0.411273 1.000000
1.000000 0.409346 1.000000
0.000000 0.570897 1.000000
0.118589 0.566374 1.000000
0.271299 0.562280 1.000000
0.417723 0.558354 1.000000
0.560154 0.554536 1.000000
0.699672 0.550796 1.000000
0.836902 0.547117 1.000000
0.972255 0.543488 1.000000
1.000000 0.541561 1.000000
0.000000 0.700407 1.000000
0.106119 0.695884 1.000000
0.258829 0.691790 1.000000
0.405252 0.687864 1.000000
0.547684 0.684046 1.000000
0.687202 0.680306 1.000000
0.824432 0.676627 1.000000
0.959784 0.672998 1.000000
1.000000 0.671071 1.000000
0.000000 0.827794 1.000000
0.093853 0.823271 1.000000
0.246563 0.819177 1.000000
0.392986 0.815252 1.000000
0.535418 0.811433 1.000000
0.674936 0.807693 1.000000
0.812166 0.804014 1.000000
0.947518 0.800385 1.000000
1.000000 0.798458 1.000000
0.000000 0.953438 1.000000
0.081755 0.948915 1.000000
0.234465 0.944821 1.000000
0.380888 0.940896 1.000000
0.523320 0.937077 1.000000
0.662838 0.933337 1.000000
0.800068 0.929658 1.000000
0.935420 0.926029 1.000000
1.000000 0.924102 1.000000
0.000000 1.000000 1.000000
0.074446 1.000000 1.000000
0.227156 1.000000 1.000000
0.373580 1.000000 1.000000
0.516012 1.000000 1.000000
0.655530 1.000000 1.000000
0.792760 1.000000 1.000000
0.928112 1.000000 1.000000
1.000000 1.000000 1.000000
