public/luts/iphone/lk-iphone-golden.cube
TITLE "LK iPhone Golden"
LUT_3D_SIZE 9
DOMAIN_MIN 0.0 0.0 0.0
DOMAIN_MAX 1.0 1.0 1.0
0.020404 0.012455 0.009873
0.172438 0.010900 0.008319
0.313472 0.009458 0.006876
0.449939 0.008062 0.005480
0.583466 0.006697 0.004115
0.714830 0.005353 0.002771
0.844487 0.004027 0.001445
0.972737 0.002715 0.000134
1.000000 0.002262 0.000000
0.015589 0.149025 0.005058
0.167623 0.147470 0.003503
0.308657 0.146028 0.002061
0.445124 0.144632 0.000665
0.578651 0.143266 0.000000
0.710015 0.141923 0.000000
0.839672 0.140597 0.000000
0.967922 0.139285 0.000000
1.000000 0.138831 0.000000
0.011091 0.276594 0.000560
0.163125 0.275039 0.000000
0.304159 0.273596 0.000000
0.440626 0.272201 0.000000
0.574153 0.270835 0.000000
0.705517 0.269491 0.000000
0.835174 0.268165 0.000000
0.963424 0.266854 0.000000
1.000000 0.266400 0.000000
0.006721 0.400542 0.000000
0.158755 0.398987 0.000000
0.299789 0.397544 0.000000
0.436256 0.396149 0.000000
0.569783 0.394783 0.000000
0.701147 0.393439 0.000000
0.830804 0.392113 0.000000
0.959054 0.390802 0.000000
1.000000 0.390348 0.000000
0.002433 0.522164 0.000000
0.154467 0.520610 0.000000
0.295501 0.519167 0.000000
0.431968 0.517771 0.000000
0.565495 0.516406 0.000000
0.696859 0.515062 0.000000
0.826516 0.513736 0.000000
0.954765 0.512425 0.000000
0.999126 0.511971 0.000000
0.000000 0.642077 0.000000
0.150239 0.640522 0.000000
0.291273 0.639079 0.000000
0.427740 0.637684 0.000000
0.561267 0.636318 0.000000
0.692631 0.634974 0.000000
0.822288 0.633648 0.000000
0.950538 0.632337 0.000000
0.994898 0.631883 0.000000
0.000000 0.760638 0.000000
0.146059 0.759083 0.000000
0.287093 0.757641 0.000000
0.423560 0.756245 0.000000
0.557087 0.754879 0.000000
0.688451 0.753536 0.000000
0.818108 0.752210 0.000000
0.946357 0.750898 0.000000
0.990718 0.750444 0.000000
0.000000 0.878085 0.000000
0.141918 0.876530 0.000000
0.282952 0.875088 0.000000
0.419419 0.873692 0.000000
0.552946 0.872327 0.000000
0.684310 0.870983 0.000000
0.813967 0.869657 0.000000
0.942216 0.868345 0.000000
0.986577 0.867892 0.000000
0.000000 0.992728 0.000000
0.137876 0.991173 0.000000
0.278910 0.989731 0.000000
0.415377 0.988335 0.000000
0.548904 0.986969 0.000000
0.680268 0.985626 0.000000
0.809925 0.984300 0.000000
0.938174 0.982988 0.000000
0.982535 0.982535 0.000000
0.020052 0.012104 0.111792
0.172086 0.010549 0.110237
0.313120 0.009106 0.108794
0.449587 0.007711 0.107399
0.583115 0.006345 0.106033
0.714479 0.005001 0.104689
0.844136 0.003675 0.103363
0.972385 0.002364 0.102052
1.000000 0.001910 0.101598
0.015237 0.148673 0.106976
0.167271 0.147118 0.105421
0.308305 0.145676 0.103979
0.444772 0.144280 0.102583
0.578299 0.142915 0.101218
0.709664 0.141571 0.099874
0.839321 0.140245 0.098548
0.967570 0.138933 0.097237
1.000000 0.138480 0.096783
0.010739 0.276242 0.102479
0.162773 0.274687 0.100924
0.303808 0.273245 0.099481
0.440274 0.271849 0.098086
0.573802 0.270483 0.096720
0.705166 0.269140 0.095376
0.834823 0.267814 0.094050
0.963072 0.266502 0.092739
1.000000 0.266048 0.092285
0.006369 0.400190 0.098108
0.158403 0.398635 0.096553
0.299437 0.397193 0.095111
0.435904 0.395797 0.093715
0.569432 0.394431 0.092350
0.700796 0.393088 0.091006
0.830453 0.391762 0.089680
0.958702 0.390450 0.088369
1.000000 0.389996 0.087915
0.002081 0.521813 0.093820
0.154115 0.520258 0.092265
0.295149 0.518816 0.090823
0.431616 0.517420 0.089427
0.565143 0.516054 0.088062
0.696507 0.514711 0.086718
0.826164 0.513385 0.085392
0.954414 0.512073 0.084080
0.998774 0.511619 0.083627
0.000000 0.641725 0.089592
0.149887 0.640170 0.088037
0.290921 0.638728 0.086595
0.427388 0.637332 0.085199
0.560915 0.635966 0.083834
0.692280 0.634623 0.082490
0.821937 0.633297 0.081164
0.950186 0.631985 0.079853
0.994546 0.631531 0.079399
0.000000 0.760286 0.085412
0.145707 0.758731 0.083857
0.286741 0.757289 0.082415
0.423208 0.755893 0.081019
0.556735 0.754528 0.079654
0.688099 0.753184 0.078310
0.817756 0.751858 0.076984
0.946006 0.750547 0.075672
0.990366 0.750093 0.075219
0.000000 0.877734 0.081271
0.141566 0.876179 0.079716
0.282600 0.874736 0.078274
0.419067 0.873341 0.076878
0.552594 0.871975 0.075513
0.683958 0.870631 0.074169
0.813615 0.869305 0.072843
0.941865 0.867994 0.071531
0.986225 0.867540 0.071078
0.000000 0.992376 0.077229
0.137524 0.990822 0.075674
0.278558 0.989379 0.074232
0.415025 0.987983 0.072836
0.548552 0.986618 0.071470
0.679916 0.985274 0.070127
0.809573 0.983948 0.068801
0.937823 0.982637 0.067489
0.982183 0.982183 0.067036
0.019665 0.011716 0.224076
0.171699 0.010161 0.222521
0.312733 0.008719 0.221079
0.449200 0.007323 0.219683
0.582727 0.005958 0.218317
0.714091 0.004614 0.216974
0.843748 0.003288 0.215648
0.971998 0.001976 0.214336
1.000000 0.001523 0.213882
0.014850 0.148286 0.219261
0.166884 0.146731 0.217706
0.307918 0.145289 0.216264
0.444385 0.143893 0.214868
0.577912 0.142527 0.213502
0.709276 0.141184 0.212159
0.838933 0.139858 0.210833
0.967183 0.138546 0.209521
1.000000 0.138092 0.209067
0.010352 0.275855 0.214763
0.162386 0.274300 0.213208
0.303420 0.272857 0.211766
0.439887 0.271462 0.210370
0.573414 0.270096 0.209004
0.704778 0.268752 0.207661
0.834435 0.267426 0.206335
0.962685 0.266115 0.205023
1.000000 0.265661 0.204570
0.005982 0.399803 0.210393
0.158016 0.398248 0.208838
0.299050 0.396805 0.207396
0.435517 0.395410 0.206000
0.569044 0.394044 0.204634
0.700408 0.392700 0.203291
0.830065 0.391374 0.201965
0.958315 0.390063 0.200653
1.000000 0.389609 0.200199
0.001694 0.521425 0.206105
0.153728 0.519871 0.204550
0.294762 0.518428 0.203107
0.431229 0.517032 0.201712
0.564756 0.515667 0.200346
0.696120 0.514323 0.199003
0.825777 0.512997 0.197677
0.954026 0.511686 0.196365
0.998387 0.511232 0.195911
0.000000 0.641338 0.201877
0.149500 0.639783 0.200322
0.290534 0.638340 0.198880
0.427001 0.636945 0.197484
0.560528 0.635579 0.196118
0.691892 0.634235 0.194775
0.821549 0.632909 0.193449
0.949799 0.631598 0.192137
0.994159 0.631144 0.191683
0.000000 0.759899 0.197697
0.145320 0.758344 0.196142
0.286354 0.756902 0.194699
0.422821 0.755506 0.193304
0.556348 0.754140 0.191938
0.687712 0.752797 0.190594
0.817369 0.751471 0.189268
0.945618 0.750159 0.187957
0.989979 0.749705 0.187503
0.000000 0.877346 0.193556
0.141179 0.875791 0.192001
0.282213 0.874349 0.190558
0.418680 0.872953 0.189163
0.552207 0.871588 0.187797
0.683571 0.870244 0.186454
0.813228 0.868918 0.185128
0.941477 0.867606 0.183816
0.985838 0.867153 0.183362
0.000000 0.991989 0.189514
0.137137 0.990434 0.187959
0.278171 0.988992 0.186516
0.414638 0.987596 0.185121
0.548165 0.986230 0.183755
0.679529 0.984887 0.182411
0.809186 0.983561 0.181085
0.937435 0.982249 0.179774
0.981796 0.981796 0.179320
0.019279 0.011330 0.336007
0.171313 0.009775 0.334452
0.312347 0.008333 0.333010
0.448814 0.006937 0.331614
0.582341 0.005571 0.330248
0.713705 0.004228 0.328905
0.843362 0.002902 0.327579
0.971612 0.001590 0.326267
1.000000 0.001137 0.325814
0.014464 0.147900 0.331192
0.166498 0.146345 0.329637
0.307532 0.144902 0.328195
0.443999 0.143507 0.326799
0.577526 0.142141 0.325433
0.708890 0.140798 0.324090
0.838547 0.139471 0.322764
0.966796 0.138160 0.321452
1.000000 0.137706 0.320998
0.009966 0.275468 0.326694
0.162000 0.273913 0.325139
0.303034 0.272471 0.323697
0.439501 0.271075 0.322301
0.573028 0.269710 0.320935
0.704392 0.268366 0.319592
0.834049 0.267040 0.318266
0.962299 0.265729 0.316954
1.000000 0.265275 0.316501
0.005596 0.399416 0.322324
0.157630 0.397862 0.320769
0.298664 0.396419 0.319327
0.435131 0.395023 0.317931
0.568658 0.393658 0.316565
0.700022 0.392314 0.315222
0.829679 0.390988 0.313896
0.957928 0.389677 0.312584
1.000000 0.389223 0.312130
0.001307 0.521039 0.318036
0.153342 0.519484 0.316481
0.294376 0.518042 0.315038
0.430843 0.516646 0.313643
0.564370 0.515281 0.312277
0.695734 0.513937 0.310934
0.825391 0.512611 0.309608
0.953640 0.511299 0.308296
0.998000 0.510846 0.307842
0.000000 0.640951 0.313808
0.149114 0.639397 0.312253
0.290148 0.637954 0.310811
0.426615 0.636558 0.309415
0.560142 0.635193 0.308049
0.691506 0.633849 0.306706
0.821163 0.632523 0.305380
0.949412 0.631212 0.304068
0.993773 0.630758 0.303614
0.000000 0.759513 0.309628
0.144933 0.757958 0.308073
0.285968 0.756516 0.306630
0.422434 0.755120 0.305235
0.555962 0.753754 0.303869
0.687326 0.752411 0.302526
0.816983 0.751085 0.301199
0.945232 0.749773 0.299888
0.989592 0.749319 0.299434
0.000000 0.876960 0.305487
0.140792 0.875405 0.303932
0.281827 0.873963 0.302489
0.418294 0.872567 0.301094
0.551821 0.871201 0.299728
0.683185 0.869858 0.298385
0.812842 0.868532 0.297059
0.941091 0.867220 0.295747
0.985451 0.866767 0.295293
0.000000 0.991603 0.301445
0.136750 0.990048 0.299890
0.277785 0.988606 0.298447
0.414251 0.987210 0.297052
0.547779 0.985844 0.295686
0.679143 0.984501 0.294343
0.808800 0.983175 0.293016
0.937049 0.981863 0.291705
0.981409 0.981409 0.291251
0.018893 0.010945 0.447680
0.170928 0.009390 0.446125
0.311962 0.007947 0.444683
0.448429 0.006552 0.443287
0.581956 0.005186 0.441922
0.713320 0.003843 0.440578
0.842977 0.002517 0.439252
0.971226 0.001205 0.437940
1.000000 0.000751 0.437487
0.014078 0.147514 0.442865
0.166112 0.145959 0.441310
0.307147 0.144517 0.439868
0.443613 0.143121 0.438472
0.577141 0.141756 0.437106
0.708505 0.140412 0.435763
0.838162 0.139086 0.434437
0.966411 0.137775 0.433125
1.000000 0.137321 0.432671
0.009581 0.275083 0.438367
0.161615 0.273528 0.436812
0.302649 0.272086 0.435370
0.439116 0.270690 0.433974
0.572643 0.269324 0.432609
0.704007 0.267981 0.431265
0.833664 0.266655 0.429939
0.961913 0.265343 0.428627
1.000000 0.264890 0.428174
0.005210 0.399031 0.433997
0.157244 0.397476 0.432442
0.298279 0.396034 0.431000
0.434745 0.394638 0.429604
0.568273 0.393273 0.428238
0.699637 0.391929 0.426895
0.829294 0.390603 0.425569
0.957543 0.389291 0.424257
1.000000 0.388838 0.423804
0.000922 0.520654 0.429709
0.152956 0.519099 0.428154
0.293990 0.517657 0.426712
0.430457 0.516261 0.425316
0.563985 0.514895 0.423950
0.695349 0.513552 0.422607
0.825006 0.512226 0.421281
0.953255 0.510914 0.419969
0.997615 0.510461 0.419515
0.000000 0.640566 0.425481
0.148728 0.639011 0.423926
0.289763 0.637569 0.422484
0.426229 0.636173 0.421088
0.559757 0.634808 0.419722
0.691121 0.633464 0.418379
0.820778 0.632138 0.417053
0.949027 0.630826 0.415741
0.993387 0.630373 0.415287
0.000000 0.759128 0.421301
0.144548 0.757573 0.419746
0.285582 0.756130 0.418303
0.422049 0.754735 0.416908
0.555576 0.753369 0.415542
0.686941 0.752025 0.414199
0.816598 0.750699 0.412873
0.944847 0.749388 0.411561
0.989207 0.748934 0.411107
0.000000 0.876575 0.417160
0.140407 0.875020 0.415605
0.281441 0.873577 0.414163
0.417908 0.872182 0.412767
0.551436 0.870816 0.411401
0.682800 0.869473 0.410058
0.812457 0.868147 0.408732
0.940706 0.866835 0.407420
0.985066 0.866381 0.406966
0.000000 0.991218 0.413118
0.136365 0.989663 0.411563
0.277399 0.988220 0.410120
0.413866 0.986825 0.408725
0.547393 0.985459 0.407359
0.678758 0.984116 0.406016
0.808414 0.982789 0.404690
0.936664 0.981478 0.403378
0.981024 0.981024 0.402924
0.018509 0.010560 0.559153
0.170543 0.009005 0.557598
0.311577 0.007563 0.556155
0.448044 0.006167 0.554760
0.581571 0.004802 0.553394
0.712935 0.003458 0.552051
0.842592 0.002132 0.550725
0.970842 0.000820 0.549413
1.000000 0.000367 0.548959
0.013694 0.147130 0.554338
0.165728 0.145575 0.552783
0.306762 0.144133 0.551340
0.443229 0.142737 0.549945
0.576756 0.141371 0.548579
0.708120 0.140028 0.547235
0.837777 0.138702 0.545909
0.966027 0.137390 0.544598
1.000000 0.136936 0.544144
0.009196 0.274699 0.549840
0.161230 0.273144 0.548285
0.302264 0.271701 0.546842
0.438731 0.270306 0.545447
0.572258 0.268940 0.544081
0.703622 0.267596 0.542738
0.833279 0.266270 0.541412
0.961529 0.264959 0.540100
1.000000 0.264505 0.539646
0.004826 0.398647 0.545470
0.156860 0.397092 0.543915
0.297894 0.395649 0.542472
0.434361 0.394254 0.541077
0.567888 0.392888 0.539711
0.699252 0.391544 0.538367
0.828909 0.390218 0.537041
0.957159 0.388907 0.535730
1.000000 0.388453 0.535276
0.000538 0.520269 0.541181
0.152572 0.518715 0.539627
0.293606 0.517272 0.538184
0.430073 0.515876 0.536788
0.563600 0.514511 0.535423
0.694964 0.513167 0.534079
0.824621 0.511841 0.532753
0.952870 0.510530 0.531442
0.997231 0.510076 0.530988
0.000000 0.640182 0.536954
0.148344 0.638627 0.535399
0.289378 0.637184 0.533956
0.425845 0.635789 0.532561
0.559372 0.634423 0.531195
0.690736 0.633079 0.529851
0.820393 0.631753 0.528525
0.948643 0.630442 0.527214
0.993003 0.629988 0.526760
0.000000 0.758743 0.532773
0.144164 0.757188 0.531218
0.285198 0.755746 0.529776
0.421665 0.754350 0.528380
0.555192 0.752984 0.527015
0.686556 0.751641 0.525671
0.816213 0.750315 0.524345
0.944462 0.749003 0.523034
0.988823 0.748549 0.522580
0.000000 0.876190 0.528632
0.140023 0.874635 0.527078
0.281057 0.873193 0.525635
0.417524 0.871797 0.524239
0.551051 0.870432 0.522874
0.682415 0.869088 0.521530
0.812072 0.867762 0.520204
0.940321 0.866450 0.518893
0.984682 0.865997 0.518439
0.000000 0.990833 0.524590
0.135981 0.989278 0.523035
0.277015 0.987836 0.521593
0.413482 0.986440 0.520197
0.547009 0.985074 0.518832
0.678373 0.983731 0.517488
0.808030 0.982405 0.516162
0.936279 0.981093 0.514851
0.980640 0.980640 0.514397
0.018125 0.010176 0.670462
0.170159 0.008621 0.668907
0.311193 0.007179 0.667464
0.447660 0.005783 0.666069
0.581187 0.004418 0.664703
0.712551 0.003074 0.663360
0.842208 0.001748 0.662034
0.970458 0.000436 0.660722
1.000000 0.000000 0.660268
0.013310 0.146746 0.665647
0.165344 0.145191 0.664092
0.306378 0.143749 0.662649
0.442845 0.142353 0.661254
0.576372 0.140987 0.659888
0.707736 0.139644 0.658544
0.837393 0.138318 0.657218
0.965643 0.137006 0.655907
1.000000 0.136552 0.655453
0.008812 0.274315 0.661149
0.160846 0.272760 0.659594
0.301880 0.271317 0.658151
0.438347 0.269922 0.656756
0.571874 0.268556 0.655390
0.703238 0.267212 0.654047
0.832895 0.265886 0.652721
0.961145 0.264575 0.651409
1.000000 0.264121 0.650955
0.004442 0.398263 0.656779
0.156476 0.396708 0.655224
0.297510 0.395265 0.653781
0.433977 0.393870 0.652386
0.567504 0.392504 0.651020
0.698868 0.391160 0.649676
0.828525 0.389834 0.648350
0.956775 0.388523 0.647039
1.000000 0.388069 0.646585
0.000154 0.519885 0.652490
0.152188 0.518331 0.650936
0.293222 0.516888 0.649493
0.429689 0.515492 0.648097
0.563216 0.514127 0.646732
0.694580 0.512783 0.645388
0.824237 0.511457 0.644062
0.952486 0.510146 0.642751
0.996847 0.509692 0.642297
0.000000 0.639798 0.648263
0.147960 0.638243 0.646708
0.288994 0.636800 0.645265
0.425461 0.635405 0.643870
0.558988 0.634039 0.642504
0.690352 0.632695 0.641160
0.820009 0.631369 0.639834
0.948259 0.630058 0.638523
0.992619 0.629604 0.638069
0.000000 0.758359 0.644082
0.143780 0.756804 0.642527
0.284814 0.755362 0.641085
0.421281 0.753966 0.639689
0.554808 0.752600 0.638324
0.686172 0.751257 0.636980
0.815829 0.749931 0.635654
0.944078 0.748619 0.634342
0.988439 0.748165 0.633889
0.000000 0.875806 0.639941
0.139639 0.874251 0.638386
0.280673 0.872809 0.636944
0.417140 0.871413 0.635548
0.550667 0.870048 0.634183
0.682031 0.868704 0.632839
0.811688 0.867378 0.631513
0.939937 0.866066 0.630202
0.984298 0.865613 0.629748
0.000000 0.990449 0.635899
0.135597 0.988894 0.634344
0.276631 0.987452 0.632902
0.413098 0.986056 0.631506
0.546625 0.984690 0.630141
0.677989 0.983347 0.628797
0.807646 0.982021 0.627471
0.935895 0.980709 0.626159
0.980256 0.980256 0.625706
0.017741 0.009793 0.781633
0.169775 0.008238 0.780078
0.310810 0.006795 0.778635
0.447276 0.005400 0.777240
0.580804 0.004034 0.775874
0.712168 0.002691 0.774530
0.841825 0.001364 0.773204
0.970074 0.000053 0.771893
1.000000 0.000000 0.771439
0.012926 0.146362 0.776817
0.164960 0.144807 0.775263
0.305994 0.143365 0.773820
0.442461 0.141969 0.772424
0.575989 0.140604 0.771059
0.707353 0.139260 0.769715
0.837010 0.137934 0.768389
0.965259 0.136622 0.767078
1.000000 0.136169 0.766624
0.008428 0.273931 0.772320
0.160462 0.272376 0.770765
0.301497 0.270934 0.769322
0.437963 0.269538 0.767927
0.571491 0.268172 0.766561
0.702855 0.266829 0.765218
0.832512 0.265503 0.763891
0.960761 0.264191 0.762580
1.000000 0.263737 0.762126
0.004058 0.397879 0.767949
0.156092 0.396324 0.766395
0.297126 0.394882 0.764952
0.433593 0.393486 0.763556
0.567121 0.392120 0.762191
0.698485 0.390777 0.760847
0.828142 0.389451 0.759521
0.956391 0.388139 0.758210
1.000000 0.387686 0.757756
0.000000 0.519502 0.763661
0.151804 0.517947 0.762106
0.292838 0.516505 0.760664
0.429305 0.515109 0.759268
0.562832 0.513743 0.757903
0.694197 0.512400 0.756559
0.823853 0.511074 0.755233
0.952103 0.509762 0.753921
0.996463 0.509308 0.753468
0.000000 0.639414 0.759433
0.147576 0.637859 0.757879
0.288610 0.636417 0.756436
0.425077 0.635021 0.755040
0.558605 0.633655 0.753675
0.689969 0.632312 0.752331
0.819626 0.630986 0.751005
0.947875 0.629674 0.749694
0.992235 0.629221 0.749240
0.000000 0.757975 0.755253
0.143396 0.756421 0.753698
0.284430 0.754978 0.752256
0.420897 0.753582 0.750860
0.554424 0.752217 0.749495
0.685788 0.750873 0.748151
0.815445 0.749547 0.746825
0.943695 0.748236 0.745513
0.988055 0.747782 0.745060
0.000000 0.875423 0.751112
0.139255 0.873868 0.749557
0.280289 0.872425 0.748115
0.416756 0.871030 0.746719
0.550283 0.869664 0.745354
0.681648 0.868321 0.744010
0.811304 0.866994 0.742684
0.939554 0.865683 0.741372
0.983914 0.865229 0.740919
0.000000 0.990066 0.747070
0.135213 0.988511 0.745515
0.276247 0.987068 0.744073
0.412714 0.985673 0.742677
0.546241 0.984307 0.741312
0.677605 0.982963 0.739968
0.807262 0.981637 0.738642
0.935512 0.980326 0.737330
0.979872 0.979872 0.736877
0.017358 0.009410 0.892684
0.169392 0.007855 0.891129
0.310426 0.006412 0.889687
0.446893 0.005017 0.888291
0.580421 0.003651 0.886926
0.711785 0.002307 0.885582
0.841442 0.000981 0.884256
0.969691 0.000000 0.882944
1.000000 0.000000 0.882491
0.012543 0.145979 0.887869
0.164577 0.144424 0.886314
0.305611 0.142982 0.884872
0.442078 0.141586 0.883476
0.575605 0.140221 0.882110
0.706970 0.138877 0.880767
0.836626 0.137551 0.879441
0.964876 0.136239 0.878129
1.000000 0.135786 0.877676
0.008045 0.273548 0.883371
0.160079 0.271993 0.881816
0.301113 0.270551 0.880374
0.437580 0.269155 0.878978
0.571108 0.267789 0.877613
0.702472 0.266446 0.876269
0.832129 0.265120 0.874943
0.960378 0.263808 0.873631
1.000000 0.263354 0.873178
0.003675 0.397496 0.879001
0.155709 0.395941 0.877446
0.296743 0.394499 0.876004
0.433210 0.393103 0.874608
0.566737 0.391737 0.873242
0.698102 0.390394 0.871899
0.827759 0.389068 0.870573
0.956008 0.387756 0.869261
1.000000 0.387302 0.868808
0.000000 0.519119 0.874713
0.151421 0.517564 0.873158
0.292455 0.516121 0.871716
0.428922 0.514726 0.870320
0.562449 0.513360 0.868954
0.693813 0.512017 0.867611
0.823470 0.510691 0.866285
0.951720 0.509379 0.864973
0.996080 0.508925 0.864519
0.000000 0.639031 0.870485
0.147193 0.637476 0.868930
0.288227 0.636034 0.867488
0.424694 0.634638 0.866092
0.558221 0.633272 0.864726
0.689586 0.631929 0.863383
0.819242 0.630603 0.862057
0.947492 0.629291 0.860745
0.991852 0.628837 0.860292
0.000000 0.757592 0.866305
0.143013 0.756037 0.864750
0.284047 0.754595 0.863308
0.420514 0.753199 0.861912
0.554041 0.751834 0.860546
0.685405 0.750490 0.859203
0.815062 0.749164 0.857877
0.943312 0.747852 0.856565
0.987672 0.747399 0.856111
0.000000 0.875040 0.862164
0.138872 0.873485 0.860609
0.279906 0.872042 0.859167
0.416373 0.870647 0.857771
0.549900 0.869281 0.856405
0.681264 0.867937 0.855062
0.810921 0.866611 0.853736
0.939171 0.865300 0.852424
0.983531 0.864846 0.851970
0.000000 0.989682 0.858122
0.134830 0.988127 0.856567
0.275864 0.986685 0.855125
0.412331 0.985289 0.853729
0.545858 0.983924 0.852363
0.677222 0.982580 0.851020
0.806879 0.981254 0.849694
0.935129 0.979943 0.848382
0.979489 0.979489 0.847928
