public/luts/iphone/lk-iphone-night.cube
TITLE "LK iPhone Night"
LUT_3D_SIZE 5
DOMAIN_MIN 0.0 0.0 0.0
DOMAIN_MAX 1.0 1.0 1.0
0.000000 0.000000 0.000000
0.308769 0.000000 0.000000
0.586117 0.000000 0.000000
0.847752 0.000000 0.000000
1.000000 0.000000 0.000000
0.000000 0.274424 0.000000
0.285995 0.267226 0.000000
0.563343 0.260762 0.000000
0.824979 0.254663 0.000000
1.000000 0.249748 0.000000
0.000000 0.528017 0.000000
0.264950 0.520820 0.000000
0.542298 0.514355 0.000000
0.803933 0.508257 0.000000
1.000000 0.503342 0.000000
0.000000 0.768241 0.000000
0.245014 0.761044 0.000000
0.522362 0.754579 0.000000
0.783998 0.748480 0.000000
0.994854 0.743565 0.000000
0.000000 1.000000 0.000000
0.225758 0.993077 0.000000
0.503106 0.986612 0.000000
0.764742 0.980513 0.000000
0.975598 0.975598 0.000000
0.000000 0.000000 0.318606
0.306285 0.000000 0.311408
0.583633 0.000000 0.304943
0.845269 0.000000 0.298845
1.000000 0.000000 0.293930
0.000000 0.271940 0.295832
0.283511 0.264743 0.288634
0.560859 0.258278 0.282170
0.822495 0.252179 0.276071
1.000000 0.247264 0.271156
0.000000 0.525533 0.274787
0.262466 0.518336 0.267589
0.539814 0.511871 0.261124
0.801450 0.505773 0.255026
1.000000 0.500858 0.250111
0.000000 0.765757 0.254851
0.242530 0.758560 0.247654
0.519878 0.752095 0.241189
0.781514 0.745997 0.235090
0.992370 0.741082 0.230175
0.000000 0.997790 0.235595
0.223274 0.990593 0.228398
0.500622 0.984128 0.221933
0.762258 0.978030 0.215834
0.973115 0.973115 0.210919
0.000000 0.000000 0.602459
0.304072 0.000000 0.595262
0.581420 0.000000 0.588797
0.843056 0.000000 0.582698
1.000000 0.000000 0.577783
0.000000 0.269727 0.579685
0.281298 0.262530 0.572488
0.558646 0.256065 0.566023
0.820282 0.249966 0.559924
1.000000 0.245051 0.555009
0.000000 0.523321 0.558640
0.260253 0.516123 0.551443
0.537601 0.509658 0.544978
0.799237 0.503560 0.538879
1.000000 0.498645 0.533964
0.000000 0.763544 0.538704
0.240317 0.756347 0.531507
0.517665 0.749882 0.525042
0.779301 0.743784 0.518944
0.990158 0.738869 0.514029
0.000000 0.995577 0.519448
0.221061 0.988380 0.512251
0.498409 0.981915 0.505786
0.760045 0.975817 0.499688
0.970902 0.970902 0.494773
0.000000 0.000000 0.870302
0.301984 0.000000 0.863104
0.579332 0.000000 0.856639
0.840968 0.000000 0.850541
1.000000 0.000000 0.845626
0.000000 0.267639 0.847528
0.279210 0.260442 0.840331
0.556558 0.253977 0.833866
0.818194 0.247878 0.827767
1.000000 0.242963 0.822852
0.000000 0.521232 0.826483
0.258165 0.514035 0.819285
0.535513 0.507570 0.812820
0.797149 0.501472 0.806722
1.000000 0.496557 0.801807
0.000000 0.761456 0.806547
0.238229 0.754259 0.799350
0.515577 0.747794 0.792885
0.777213 0.741696 0.786786
0.988069 0.736781 0.781871
0.000000 0.993489 0.787291
0.218973 0.986292 0.780094
0.496321 0.979827 0.773629
0.757957 0.973729 0.767530
0.968814 0.968814 0.762615
0.000000 0.000000 1.000000
0.300389 0.000000 1.000000
0.577737 0.000000 1.000000
0.839372 0.000000 1.000000
1.000000 0.000000 1.000000
0.000000 0.266044 1.000000
0.277615 0.258846 1.000000
0.554963 0.252382 1.000000
0.816599 0.246283 1.000000
1.000000 0.241368 1.000000
0.000000 0.519637 1.000000
0.256570 0.512440 1.000000
0.533918 0.505975 1.000000
0.795553 0.499877 1.000000
1.000000 0.494962 1.000000
0.000000 0.759861 1.000000
0.236634 0.752664 1.000000
0.513982 0.746199 0.997488
0.775618 0.740100 0.991389
0.986474 0.735185 0.986474
0.000000 0.991894 0.991894
0.217378 0.984697 0.984697
0.494726 0.978232 0.978232
0.756362 0.972133 0.972133
0.967218 0.967218 0.967218
