public/luts/iphone/lk-iphone-natural.cube
TITLE "LK iPhone Natural"
LUT_3D_SIZE 17
DOMAIN_MIN 0.0 0.0 0.0
DOMAIN_MAX 1.0 1.0 1.0
0.003178 0.000000 0.000000
0.068563 0.000000 0.000000
0.133158 0.000000 0.000000
0.197427 0.000000 0.000000
0.261484 0.000000 0.000000
0.325383 0.000000 0.000000
0.389155 0.000000 0.000000
0.452823 0.000000 0.000000
0.516401 0.000000 0.000000
0.579901 0.000000 0.000000
0.643331 0.000000 0.000000
0.706699 0.000000 0.000000
0.770010 0.000000 0.000000
0.833268 0.000000 0.000000
0.896479 0.000000 0.000000
0.959645 0.000000 0.000000
1.000000 0.000000 0.000000
0.003178 0.062500 0.000000
0.068563 0.062500 0.000000
0.133158 0.062500 0.000000
0.197427 0.062500 0.000000
0.261484 0.062500 0.000000
0.325383 0.062500 0.000000
0.389155 0.062500 0.000000
0.452823 0.062500 0.000000
0.516401 0.062500 0.000000
0.579901 0.062500 0.000000
0.643331 0.062500 0.000000
0.706699 0.062500 0.000000
0.770010 0.062500 0.000000
0.833268 0.062500 0.000000
0.896479 0.062500 0.000000
0.959645 0.062500 0.000000
1.000000 0.062500 0.000000
0.003178 0.125000 0.000000
0.068563 0.125000 0.000000
0.133158 0.125000 0.000000
0.197427 0.125000 0.000000
0.261484 0.125000 0.000000
0.325383 0.125000 0.000000
0.389155 0.125000 0.000000
0.452823 0.125000 0.000000
0.516401 0.125000 0.000000
0.579901 0.125000 0.000000
0.643331 0.125000 0.000000
0.706699 0.125000 0.000000
0.770010 0.125000 0.000000
0.833268 0.125000 0.000000
0.896479 0.125000 0.000000
0.959645 0.125000 0.000000
1.000000 0.125000 0.000000
0.003178 0.187500 0.000000
0.068563 0.187500 0.000000
0.133158 0.187500 0.000000
0.197427 0.187500 0.000000
0.261484 0.187500 0.000000
0.325383 0.187500 0.000000
0.389155 0.187500 0.000000
0.452823 0.187500 0.000000
0.516401 0.187500 0.000000
0.579901 0.187500 0.000000
0.643331 0.187500 0.000000
0.706699 0.187500 0.000000
0.770010 0.187500 0.000000
0.833268 0.187500 0.000000
0.896479 0.187500 0.000000
0.959645 0.187500 0.000000
1.000000 0.187500 0.000000
0.003178 0.250000 0.000000
0.068563 0.250000 0.000000
0.133158 0.250000 0.000000
0.197427 0.250000 0.000000
0.261484 0.250000 0.000000
0.325383 0.250000 0.000000
0.389155 0.250000 0.000000
0.452823 0.250000 0.000000
0.516401 0.250000 0.000000
0.579901 0.250000 0.000000
0.643331 0.250000 0.000000
0.706699 0.250000 0.000000
0.770010 0.250000 0.000000
0.833268 0.250000 0.000000
0.896479 0.250000 0.000000
0.959645 0.250000 0.000000
1.000000 0.250000 0.000000
0.003178 0.312500 0.000000
0.068563 0.312500 0.000000
0.133158 0.312500 0.000000
0.197427 0.312500 0.000000
0.261484 0.312500 0.000000
0.325383 0.312500 0.000000
0.389155 0.312500 0.000000
0.452823 0.312500 0.000000
0.516401 0.312500 0.000000
0.579901 0.312500 0.000000
0.643331 0.312500 0.000000
0.706699 0.312500 0.000000
0.770010 0.312500 0.000000
0.833268 0.312500 0.000000
0.896479 0.312500 0.000000
0.959645 0.312500 0.000000
1.000000 0.312500 0.000000
0.003178 0.375000 0.000000
0.068563 0.375000 0.000000
0.133158 0.375000 0.000000
0.197427 0.375000 0.000000
0.261484 0.375000 0.000000
0.325383 0.375000 0.000000
0.389155 0.375000 0.000000
0.452823 0.375000 0.000000
0.516401 0.375000 0.000000
0.579901 0.375000 0.000000
0.643331 0.375000 0.000000
0.706699 0.375000 0.000000
0.770010 0.375000 0.000000
0.833268 0.375000 0.000000
0.896479 0.375000 0.000000
0.959645 0.375000 0.000000
1.000000 0.375000 0.000000
0.003178 0.437500 0.000000
0.068563 0.437500 0.000000
0.133158 0.437500 0.000000
0.197427 0.437500 0.000000
0.261484 0.437500 0.000000
0.325383 0.437500 0.000000
0.389155 0.437500 0.000000
0.452823 0.437500 0.000000
0.516401 0.437500 0.000000
0.579901 0.437500 0.000000
0.643331 0.437500 0.000000
0.706699 0.437500 0.000000
0.770010 0.437500 0.000000
0.833268 0.437500 0.000000
0.896479 0.437500 0.000000
0.959645 0.437500 0.000000
1.000000 0.437500 0.000000
0.003178 0.500000 0.000000
0.068563 0.500000 0.000000
0.133158 0.500000 0.000000
0.197427 0.500000 0.000000
0.261484 0.500000 0.000000
0.325383 0.500000 0.000000
0.389155 0.500000 0.000000
0.452823 0.500000 0.000000
0.516401 0.500000 0.000000
0.579901 0.500000 0.000000
0.643331 0.500000 0.000000
0.706699 0.500000 0.000000
0.770010 0.500000 0.000000
0.833268 0.500000 0.000000
0.896479 0.500000 0.000000
0.959645 0.500000 0.000000
1.000000 0.500000 0.000000
0.003178 0.562500 0.000000
0.068563 0.562500 0.000000
0.133158 0.562500 0.000000
0.197427 0.562500 0.000000
0.261484 0.562500 0.000000
0.325383 0.562500 0.000000
0.389155 0.562500 0.000000
0.452823 0.562500 0.000000
0.516401 0.562500 0.000000
0.579901 0.562500 0.000000
0.643331 0.562500 0.000000
0.706699 0.562500 0.000000
0.770010 0.562500 0.000000
0.833268 0.562500 0.000000
0.896479 0.562500 0.000000
0.959645 0.562500 0.000000
1.000000 0.562500 0.000000
0.003178 0.625000 0.000000
0.068563 0.625000 0.000000
0.133158 0.625000 0.000000
0.197427 0.625000 0.000000
0.261484 0.625000 0.000000
0.325383 0.625000 0.000000
0.389155 0.625000 0.000000
0.452823 0.625000 0.000000
0.516401 0.625000 0.000000
0.579901 0.625000 0.000000
0.643331 0.625000 0.000000
0.706699 0.625000 0.000000
0.770010 0.625000 0.000000
0.833268 0.625000 0.000000
0.896479 0.625000 0.000000
0.959645 0.625000 0.000000
1.000000 0.625000 0.000000
0.003178 0.687500 0.000000
0.068563 0.687500 0.000000
0.133158 0.687500 0.000000
0.197427 0.687500 0.000000
0.261484 0.687500 0.000000
0.325383 0.687500 0.000000
0.389155 0.687500 0.000000
0.452823 0.687500 0.000000
0.516401 0.687500 0.000000
0.579901 0.687500 0.000000
0.643331 0.687500 0.000000
0.706699 0.687500 0.000000
0.770010 0.687500 0.000000
0.833268 0.687500 0.000000
0.896479 0.687500 0.000000
0.959645 0.687500 0.000000
1.000000 0.687500 0.000000
0.003178 0.750000 0.000000
0.068563 0.750000 0.000000
0.133158 0.750000 0.000000
0.197427 0.750000 0.000000
0.261484 0.750000 0.000000
0.325383 0.750000 0.000000
0.389155 0.750000 0.000000
0.452823 0.750000 0.000000
0.516401 0.750000 0.000000
0.579901 0.750000 0.000000
0.643331 0.750000 0.000000
0.706699 0.750000 0.000000
0.770010 0.750000 0.000000
0.833268 0.750000 0.000000
0.896479 0.750000 0.000000
0.959645 0.750000 0.000000
1.000000 0.750000 0.000000
0.003178 0.812500 0.000000
0.068563 0.812500 0.000000
0.133158 0.812500 0.000000
0.197427 0.812500 0.000000
0.261484 0.812500 0.000000
0.325383 0.812500 0.000000
0.389155 0.812500 0.000000
0.452823 0.812500 0.000000
0.516401 0.812500 0.000000
0.579901 0.812500 0.000000
0.643331 0.812500 0.000000
0.706699 0.812500 0.000000
0.770010 0.812500 0.000000
0.833268 0.812500 0.000000
0.896479 0.812500 0.000000
0.959645 0.812500 0.000000
1.000000 0.812500 0.000000
0.003178 0.875000 0.000000
0.068563 0.875000 0.000000
0.133158 0.875000 0.000000
0.197427 0.875000 0.000000
0.261484 0.875000 0.000000
0.325383 0.875000 0.000000
0.389155 0.875000 0.000000
0.452823 0.875000 0.000000
0.516401 0.875000 0.000000
0.579901 0.875000 0.000000
0.643331 0.875000 0.000000
0.706699 0.875000 0.000000
0.770010 0.875000 0.000000
0.833268 0.875000 0.000000
0.896479 0.875000 0.000000
0.959645 0.875000 0.000000
1.000000 0.875000 0.000000
0.003178 0.937500 0.000000
0.068563 0.937500 0.000000
0.133158 0.937500 0.000000
0.197427 0.937500 0.000000
0.261484 0.937500 0.000000
0.325383 0.937500 0.000000
0.389155 0.937500 0.000000
0.452823 0.937500 0.000000
0.516401 0.937500 0.000000
0.579901 0.937500 0.000000
0.643331 0.937500 0.000000
0.706699 0.937500 0.000000
0.770010 0.937500 0.000000
0.833268 0.937500 0.000000
0.896479 0.937500 0.000000
0.959645 0.937500 0.000000
1.000000 0.937500 0.000000
0.003178 1.000000 0.000000
0.068563 1.000000 0.000000
0.133158 1.000000 0.000000
0.197427 1.000000 0.000000
0.261484 1.000000 0.000000
0.325383 1.000000 0.000000
0.389155 1.000000 0.000000
0.452823 1.000000 0.000000
0.516401 1.000000 0.000000
0.579901 1.000000 0.000000
0.643331 1.000000 0.000000
0.706699 1.000000 0.000000
0.770010 1.000000 0.000000
0.833268 1.000000 0.000000
0.896479 1.000000 0.000000
0.959645 1.000000 0.000000
1.000000 1.000000 0.000000
0.003178 0.000000 0.053412
0.068563 0.000000 0.053412
0.133158 0.000000 0.053412
0.197427 0.000000 0.053412
0.261484 0.000000 0.053412
0.325383 0.000000 0.053412
0.389155 0.000000 0.053412
0.452823 0.000000 0.053412
0.516401 0.000000 0.053412
0.579901 0.000000 0.053412
0.643331 0.000000 0.053412
0.706699 0.000000 0.053412
0.770010 0.000000 0.053412
0.833268 0.000000 0.053412
0.896479 0.000000 0.053412
0.959645 0.000000 0.053412
1.000000 0.000000 0.053412
0.003178 0.062500 0.053412
0.068563 0.062500 0.053412
0.133158 0.062500 0.053412
0.197427 0.062500 0.053412
0.261484 0.062500 0.053412
0.325383 0.062500 0.053412
0.389155 0.062500 0.053412
0.452823 0.062500 0.053412
0.516401 0.062500 0.053412
0.579901 0.062500 0.053412
0.643331 0.062500 0.053412
0.706699 0.062500 0.053412
0.770010 0.062500 0.053412
0.833268 0.062500 0.053412
0.896479 0.062500 0.053412
0.959645 0.062500 0.053412
1.000000 0.062500 0.053412
0.003178 0.125000 0.053412
0.068563 0.125000 0.053412
0.133158 0.125000 0.053412
0.197427 0.125000 0.053412
0.261484 0.125000 0.053412
0.325383 0.125000 0.053412
0.389155 0.125000 0.053412
0.452823 0.125000 0.053412
0.516401 0.125000 0.053412
0.579901 0.125000 0.053412
0.643331 0.125000 0.053412
0.706699 0.125000 0.053412
0.770010 0.125000 0.053412
0.833268 0.125000 0.053412
0.896479 0.125000 0.053412
0.959645 0.125000 0.053412
1.000000 0.125000 0.053412
0.003178 0.187500 0.053412
0.068563 0.187500 0.053412
0.133158 0.187500 0.053412
0.197427 0.187500 0.053412
0.261484 0.187500 0.053412
0.325383 0.187500 0.053412
0.389155 0.187500 0.053412
0.452823 0.187500 0.053412
0.516401 0.187500 0.053412
0.579901 0.187500 0.053412
0.643331 0.187500 0.053412
0.706699 0.187500 0.053412
0.770010 0.187500 0.053412
0.833268 0.187500 0.053412
0.896479 0.187500 0.053412
0.959645 0.187500 0.053412
1.000000 0.187500 0.053412
0.003178 0.250000 0.053412
0.068563 0.250000 0.053412
0.133158 0.250000 0.053412
0.197427 0.250000 0.053412
0.261484 0.250000 0.053412
0.325383 0.250000 0.053412
0.389155 0.250000 0.053412
0.452823 0.250000 0.053412
0.516401 0.250000 0.053412
0.579901 0.250000 0.053412
0.643331 0.250000 0.053412
0.706699 0.250000 0.053412
0.770010 0.250000 0.053412
0.833268 0.250000 0.053412
0.896479 0.250000 0.053412
0.959645 0.250000 0.053412
1.000000 0.250000 0.053412
0.003178 0.312500 0.053412
0.068563 0.312500 0.053412
0.133158 0.312500 0.053412
0.197427 0.312500 0.053412
0.261484 0.312500 0.053412
0.325383 0.312500 0.053412
0.389155 0.312500 0.053412
0.452823 0.312500 0.053412
0.516401 0.312500 0.053412
0.579901 0.312500 0.053412
0.643331 0.312500 0.053412
0.706699 0.312500 0.053412
0.770010 0.312500 0.053412
0.833268 0.312500 0.053412
0.896479 0.312500 0.053412
0.959645 0.312500 0.053412
1.000000 0.312500 0.053412
0.003178 0.375000 0.053412
0.068563 0.375000 0.053412
0.133158 0.375000 0.053412
0.197427 0.375000 0.053412
0.261484 0.375000 0.053412
0.325383 0.375000 0.053412
0.389155 0.375000 0.053412
0.452823 0.375000 0.053412
0.516401 0.375000 0.053412
0.579901 0.375000 0.053412
0.643331 0.375000 0.053412
0.706699 0.375000 0.053412
0.770010 0.375000 0.053412
0.833268 0.375000 0.053412
0.896479 0.375000 0.053412
0.959645 0.375000 0.053412
1.000000 0.375000 0.053412
0.003178 0.437500 0.053412
0.068563 0.437500 0.053412
0.133158 0.437500 0.053412
0.197427 0.437500 0.053412
0.261484 0.437500 0.053412
0.325383 0.437500 0.053412
0.389155 0.437500 0.053412
0.452823 0.437500 0.053412
0.516401 0.437500 0.053412
0.579901 0.437500 0.053412
0.643331 0.437500 0.053412
0.706699 0.437500 0.053412
0.770010 0.437500 0.053412
0.833268 0.437500 0.053412
0.896479 0.437500 0.053412
0.959645 0.437500 0.053412
1.000000 0.437500 0.053412
0.003178 0.500000 0.053412
0.068563 0.500000 0.053412
0.133158 0.500000 0.053412
0.197427 0.500000 0.053412
0.261484 0.500000 0.053412
0.325383 0.500000 0.053412
0.389155 0.500000 0.053412
0.452823 0.500000 0.053412
0.516401 0.500000 0.053412
0.579901 0.500000 0.053412
0.643331 0.500000 0.053412
0.706699 0.500000 0.053412
0.770010 0.500000 0.053412
0.833268 0.500000 0.053412
0.896479 0.500000 0.053412
0.959645 0.500000 0.053412
1.000000 0.500000 0.053412
0.003178 0.562500 0.053412
0.068563 0.562500 0.053412
0.133158 0.562500 0.053412
0.197427 0.562500 0.053412
0.261484 0.562500 0.053412
0.325383 0.562500 0.053412
0.389155 0.562500 0.053412
0.452823 0.562500 0.053412
0.516401 0.562500 0.053412
0.579901 0.562500 0.053412
0.643331 0.562500 0.053412
0.706699 0.562500 0.053412
0.770010 0.562500 0.053412
0.833268 0.562500 0.053412
0.896479 0.562500 0.053412
0.959645 0.562500 0.053412
1.000000 0.562500 0.053412
0.003178 0.625000 0.053412
0.068563 0.625000 0.053412
0.133158 0.625000 0.053412
0.197427 0.625000 0.053412
0.261484 0.625000 0.053412
0.325383 0.625000 0.053412
0.389155 0.625000 0.053412
0.452823 0.625000 0.053412
0.516401 0.625000 0.053412
0.579901 0.625000 0.053412
0.643331 0.625000 0.053412
0.706699 0.625000 0.053412
0.770010 0.625000 0.053412
0.833268 0.625000 0.053412
0.896479 0.625000 0.053412
0.959645 0.625000 0.053412
1.000000 0.625000 0.053412
0.003178 0.687500 0.053412
0.068563 0.687500 0.053412
0.133158 0.687500 0.053412
0.197427 0.687500 0.053412
0.261484 0.687500 0.053412
0.325383 0.687500 0.053412
0.389155 0.687500 0.053412
0.452823 0.687500 0.053412
0.516401 0.687500 0.053412
0.579901 0.687500 0.053412
0.643331 0.687500 0.053412
0.706699 0.687500 0.053412
0.770010 0.687500 0.053412
0.833268 0.687500 0.053412
0.896479 0.687500 0.053412
0.959645 0.687500 0.053412
1.000000 0.687500 0.053412
0.003178 0.750000 0.053412
0.068563 0.750000 0.053412
0.133158 0.750000 0.053412
0.197427 0.750000 0.053412
0.261484 0.750000 0.053412
0.325383 0.750000 0.053412
0.389155 0.750000 0.053412
0.452823 0.750000 0.053412
0.516401 0.750000 0.053412
0.579901 0.750000 0.053412
0.643331 0.750000 0.053412
0.706699 0.750000 0.053412
0.770010 0.750000 0.053412
0.833268 0.750000 0.053412
0.896479 0.750000 0.053412
0.959645 0.750000 0.053412
1.000000 0.750000 0.053412
0.003178 0.812500 0.053412
0.068563 0.812500 0.053412
0.133158 0.812500 0.053412
0.197427 0.812500 0.053412
0.261484 0.812500 0.053412
0.325383 0.812500 0.053412
0.389155 0.812500 0.053412
0.452823 0.812500 0.053412
0.516401 0.812500 0.053412
0.579901 0.812500 0.053412
0.643331 0.812500 0.053412
0.706699 0.812500 0.053412
0.770010 0.812500 0.053412
0.833268 0.812500 0.053412
0.896479 0.812500 0.053412
0.959645 0.812500 0.053412
1.000000 0.812500 0.053412
0.003178 0.875000 0.053412
0.068563 0.875000 0.053412
0.133158 0.875000 0.053412
0.197427 0.875000 0.053412
0.261484 0.875000 0.053412
0.325383 0.875000 0.053412
0.389155 0.875000 0.053412
0.452823 0.875000 0.053412
0.516401 0.875000 0.053412
0.579901 0.875000 0.053412
0.643331 0.875000 0.053412
0.706699 0.875000 0.053412
0.770010 0.875000 0.053412
0.833268 0.875000 0.053412
0.896479 0.875000 0.053412
0.959645 0.875000 0.053412
1.000000 0.875000 0.053412
0.003178 0.937500 0.053412
0.068563 0.937500 0.053412
0.133158 0.937500 0.053412
0.197427 0.937500 0.053412
0.261484 0.937500 0.053412
0.325383 0.937500 0.053412
0.389155 0.937500 0.053412
0.452823 0.937500 0.053412
0.516401 0.937500 0.053412
0.579901 0.937500 0.053412
0.643331 0.937500 0.053412
0.706699 0.937500 0.053412
0.770010 0.937500 0.053412
0.833268 0.937500 0.053412
0.896479 0.937500 0.053412
0.959645 0.937500 0.053412
1.000000 0.937500 0.053412
0.003178 1.000000 0.053412
0.068563 1.000000 0.053412
0.133158 1.000000 0.053412
0.197427 1.000000 0.053412
0.261484 1.000000 0.053412
0.325383 1.000000 0.053412
0.389155 1.000000 0.053412
0.452823 1.000000 0.053412
0.516401 1.000000 0.053412
0.579901 1.000000 0.053412
0.643331 1.000000 0.053412
0.706699 1.000000 0.053412
0.770010 1.000000 0.053412
0.833268 1.000000 0.053412
0.896479 1.000000 0.053412
0.959645 1.000000 0.053412
1.000000 1.000000 0.053412
0.003178 0.000000 0.112515
0.068563 0.000000 0.112515
0.133158 0.000000 0.112515
0.197427 0.000000 0.112515
0.261484 0.000000 0.112515
0.325383 0.000000 0.112515
0.389155 0.000000 0.112515
0.452823 0.000000 0.112515
0.516401 0.000000 0.112515
0.579901 0.000000 0.112515
0.643331 0.000000 0.112515
0.706699 0.000000 0.112515
0.770010 0.000000 0.112515
0.833268 0.000000 0.112515
0.896479 0.000000 0.112515
0.959645 0.000000 0.112515
1.000000 0.000000 0.112515
0.003178 0.062500 0.112515
0.068563 0.062500 0.112515
0.133158 0.062500 0.112515
0.197427 0.062500 0.112515
0.261484 0.062500 0.112515
0.325383 0.062500 0.112515
0.389155 0.062500 0.112515
0.452823 0.062500 0.112515
0.516401 0.062500 0.112515
0.579901 0.062500 0.112515
0.643331 0.062500 0.112515
0.706699 0.062500 0.112515
0.770010 0.062500 0.112515
0.833268 0.062500 0.112515
0.896479 0.062500 0.112515
0.959645 0.062500 0.112515
1.000000 0.062500 0.112515
0.003178 0.125000 0.112515
0.068563 0.125000 0.112515
0.133158 0.125000 0.112515
0.197427 0.125000 0.112515
0.261484 0.125000 0.112515
0.325383 0.125000 0.112515
0.389155 0.125000 0.112515
0.452823 0.125000 0.112515
0.516401 0.125000 0.112515
0.579901 0.125000 0.112515
0.643331 0.125000 0.112515
0.706699 0.125000 0.112515
0.770010 0.125000 0.112515
0.833268 0.125000 0.112515
0.896479 0.125000 0.112515
0.959645 0.125000 0.112515
1.000000 0.125000 0.112515
0.003178 0.187500 0.112515
0.068563 0.187500 0.112515
0.133158 0.187500 0.112515
0.197427 0.187500 0.112515
0.261484 0.187500 0.112515
0.325383 0.187500 0.112515
0.389155 0.187500 0.112515
0.452823 0.187500 0.112515
0.516401 0.187500 0.112515
0.579901 0.187500 0.112515
0.643331 0.187500 0.112515
0.706699 0.187500 0.112515
0.770010 0.187500 0.112515
0.833268 0.187500 0.112515
0.896479 0.187500 0.112515
0.959645 0.187500 0.112515
1.000000 0.187500 0.112515
0.003178 0.250000 0.112515
0.068563 0.250000 0.112515
0.133158 0.250000 0.112515
0.197427 0.250000 0.112515
0.261484 0.250000 0.112515
0.325383 0.250000 0.112515
0.389155 0.250000 0.112515
0.452823 0.250000 0.112515
0.516401 0.250000 0.112515
0.579901 0.250000 0.112515
0.643331 0.250000 0.112515
0.706699 0.250000 0.112515
0.770010 0.250000 0.112515
0.833268 0.250000 0.112515
0.896479 0.250000 0.112515
0.959645 0.250000 0.112515
1.000000 0.250000 0.112515
0.003178 0.312500 0.112515
0.068563 0.312500 0.112515
0.133158 0.312500 0.112515
0.197427 0.312500 0.112515
0.261484 0.312500 0.112515
0.325383 0.312500 0.112515
0.389155 0.312500 0.112515
0.452823 0.312500 0.112515
0.516401 0.312500 0.112515
0.579901 0.312500 0.112515
0.643331 0.312500 0.112515
0.706699 0.312500 0.112515
0.770010 0.312500 0.112515
0.833268 0.312500 0.112515
0.896479 0.312500 0.112515
0.959645 0.312500 0.112515
1.000000 0.312500 0.112515
0.003178 0.375000 0.112515
0.068563 0.375000 0.112515
0.133158 0.375000 0.112515
0.197427 0.375000 0.112515
0.261484 0.375000 0.112515
0.325383 0.375000 0.112515
0.389155 0.375000 0.112515
0.452823 0.375000 0.112515
0.516401 0.375000 0.112515
0.579901 0.375000 0.112515
0.643331 0.375000 0.112515
0.706699 0.375000 0.112515
0.770010 0.375000 0.112515
0.833268 0.375000 0.112515
0.896479 0.375000 0.112515
0.959645 0.375000 0.112515
1.000000 0.375000 0.112515
0.003178 0.437500 0.112515
0.068563 0.437500 0.112515
0.133158 0.437500 0.112515
0.197427 0.437500 0.112515
0.261484 0.437500 0.112515
0.325383 0.437500 0.112515
0.389155 0.437500 0.112515
0.452823 0.437500 0.112515
0.516401 0.437500 0.112515
0.579901 0.437500 0.112515
0.643331 0.437500 0.112515
0.706699 0.437500 0.112515
0.770010 0.437500 0.112515
0.833268 0.437500 0.112515
0.896479 0.437500 0.112515
0.959645 0.437500 0.112515
1.000000 0.437500 0.112515
0.003178 0.500000 0.112515
0.068563 0.500000 0.112515
0.133158 0.500000 0.112515
0.197427 0.500000 0.112515
0.261484 0.500000 0.112515
0.325383 0.500000 0.112515
0.389155 0.500000 0.112515
0.452823 0.500000 0.112515
0.516401 0.500000 0.112515
0.579901 0.500000 0.112515
0.643331 0.500000 0.112515
0.706699 0.500000 0.112515
0.770010 0.500000 0.112515
0.833268 0.500000 0.112515
0.896479 0.500000 0.112515
0.959645 0.500000 0.112515
1.000000 0.500000 0.112515
0.003178 0.562500 0.112515
0.068563 0.562500 0.112515
0.133158 0.562500 0.112515
0.197427 0.562500 0.112515
0.261484 0.562500 0.112515
0.325383 0.562500 0.112515
0.389155 0.562500 0.112515
0.452823 0.562500 0.112515
0.516401 0.562500 0.112515
0.579901 0.562500 0.112515
0.643331 0.562500 0.112515
0.706699 0.562500 0.112515
0.770010 0.562500 0.112515
0.833268 0.562500 0.112515
0.896479 0.562500 0.112515
0.959645 0.562500 0.112515
1.000000 0.562500 0.112515
0.003178 0.625000 0.112515
0.068563 0.625000 0.112515
0.133158 0.625000 0.112515
0.197427 0.625000 0.112515
0.261484 0.625000 0.112515
0.325383 0.625000 0.112515
0.389155 0.625000 0.112515
0.452823 0.625000 0.112515
0.516401 0.625000 0.112515
0.579901 0.625000 0.112515
0.643331 0.625000 0.112515
0.706699 0.625000 0.112515
0.770010 0.625000 0.112515
0.833268 0.625000 0.112515
0.896479 0.625000 0.112515
0.959645 0.625000 0.112515
1.000000 0.625000 0.112515
0.003178 0.687500 0.112515
0.068563 0.687500 0.112515
0.133158 0.687500 0.112515
0.197427 0.687500 0.112515
0.261484 0.687500 0.112515
0.325383 0.687500 0.112515
0.389155 0.687500 0.112515
0.452823 0.687500 0.112515
0.516401 0.687500 0.112515
0.579901 0.687500 0.112515
0.643331 0.687500 0.112515
0.706699 0.687500 0.112515
0.770010 0.687500 0.112515
0.833268 0.687500 0.112515
0.896479 0.687500 0.112515
0.959645 0.687500 0.112515
1.000000 0.687500 0.112515
0.003178 0.750000 0.112515
0.068563 0.750000 0.112515
0.133158 0.750000 0.112515
0.197427 0.750000 0.112515
0.261484 0.750000 0.112515
0.325383 0.750000 0.112515
0.389155 0.750000 0.112515
0.452823 0.750000 0.112515
0.516401 0.750000 0.112515
0.579901 0.750000 0.112515
0.643331 0.750000 0.112515
0.706699 0.750000 0.112515
0.770010 0.750000 0.112515
0.833268 0.750000 0.112515
0.896479 0.750000 0.112515
0.959645 0.750000 0.112515
1.000000 0.750000 0.112515
0.003178 0.812500 0.112515
0.068563 0.812500 0.112515
0.133158 0.812500 0.112515
0.197427 0.812500 0.112515
0.261484 0.812500 0.112515
0.325383 0.812500 0.112515
0.389155 0.812500 0.112515
0.452823 0.812500 0.112515
0.516401 0.812500 0.112515
0.579901 0.812500 0.112515
0.643331 0.812500 0.112515
0.706699 0.812500 0.112515
0.770010 0.812500 0.112515
0.833268 0.812500 0.112515
0.896479 0.812500 0.112515
0.959645 0.812500 0.112515
1.000000 0.812500 0.112515
0.003178 0.875000 0.112515
0.068563 0.875000 0.112515
0.133158 0.875000 0.112515
0.197427 0.875000 0.112515
0.261484 0.875000 0.112515
0.325383 0.875000 0.112515
0.389155 0.875000 0.112515
0.452823 0.875000 0.112515
0.516401 0.875000 0.112515
0.579901 0.875000 0.112515
0.643331 0.875000 0.112515
0.706699 0.875000 0.112515
0.770010 0.875000 0.112515
0.833268 0.875000 0.112515
0.896479 0.875000 0.112515
0.959645 0.875000 0.112515
1.000000 0.875000 0.112515
0.003178 0.937500 0.112515
0.068563 0.937500 0.112515
0.133158 0.937500 0.112515
0.197427 0.937500 0.112515
0.261484 0.937500 0.112515
0.325383 0.937500 0.112515
0.389155 0.937500 0.112515
0.452823 0.937500 0.112515
0.516401 0.937500 0.112515
0.579901 0.937500 0.112515
0.643331 0.937500 0.112515
0.706699 0.937500 0.112515
0.770010 0.937500 0.112515
0.833268 0.937500 0.112515
0.896479 0.937500 0.112515
0.959645 0.937500 0.112515
1.000000 0.937500 0.112515
0.003178 1.000000 0.112515
0.068563 1.000000 0.112515
0.133158 1.000000 0.112515
0.197427 1.000000 0.112515
0.261484 1.000000 0.112515
0.325383 1.000000 0.112515
0.389155 1.000000 0.112515
0.452823 1.000000 0.112515
0.516401 1.000000 0.112515
0.579901 1.000000 0.112515
0.643331 1.000000 0.112515
0.706699 1.000000 0.112515
0.770010 1.000000 0.112515
0.833268 1.000000 0.112515
0.896479 1.000000 0.112515
0.959645 1.000000 0.112515
1.000000 1.000000 0.112515
0.003178 0.000000 0.171946
0.068563 0.000000 0.171946
0.133158 0.000000 0.171946
0.197427 0.000000 0.171946
0.261484 0.000000 0.171946
0.325383 0.000000 0.171946
0.389155 0.000000 0.171946
0.452823 0.000000 0.171946
0.516401 0.000000 0.171946
0.579901 0.000000 0.171946
0.643331 0.000000 0.171946
0.706699 0.000000 0.171946
0.770010 0.000000 0.171946
0.833268 0.000000 0.171946
0.896479 0.000000 0.171946
0.959645 0.000000 0.171946
1.000000 0.000000 0.171946
0.003178 0.062500 0.171946
