public/luts/iphone/lk-iphone-natural.cube
TITLE "LK iPhone Natural"
LUT_3D_SIZE 5
DOMAIN_MIN 0.0 0.0 0.0
DOMAIN_MAX 1.0 1.0 1.0
0.003178 0.000000 0.000000
0.261484 0.000000 0.000000
0.516401 0.000000 0.000000
0.770010 0.000000 0.000000
1.000000 0.000000 0.000000
0.003178 0.250000 0.000000
0.261484 0.250000 0.000000
0.516401 0.250000 0.000000
0.770010 0.250000 0.000000
1.000000 0.250000 0.000000
0.003178 0.500000 0.000000
0.261484 0.500000 0.000000
0.516401 0.500000 0.000000
0.770010 0.500000 0.000000
1.000000 0.500000 0.000000
0.003178 0.750000 0.000000
0.261484 0.750000 0.000000
0.516401 0.750000 0.000000
0.770010 0.750000 0.000000
1.000000 0.750000 0.000000
0.003178 1.000000 0.000000
0.261484 1.000000 0.000000
0.516401 1.000000 0.000000
0.770010 1.000000 0.000000
1.000000 1.000000 0.000000
0.003178 0.000000 0.231587
0.261484 0.000000 0.231587
0.516401 0.000000 0.231587
0.770010 0.000000 0.231587
1.000000 0.000000 0.231587
0.003178 0.250000 0.231587
0.261484 0.250000 0.231587
0.516401 0.250000 0.231587
0.770010 0.250000 0.231587
1.000000 0.250000 0.231587
0.003178 0.500000 0.231587
0.261484 0.500000 0.231587
0.516401 0.500000 0.231587
0.770010 0.500000 0.231587
1.000000 0.500000 0.231587
0.003178 0.750000 0.231587
0.261484 0.750000 0.231587
0.516401 0.750000 0.231587
0.770010 0.750000 0.231587
1.000000 0.750000 0.231587
0.003178 1.000000 0.231587
0.261484 1.000000 0.231587
0.516401 1.000000 0.231587
0.770010 1.000000 0.231587
1.000000 1.000000 0.231587
0.003178 0.000000 0.471442
0.261484 0.000000 0.471442
0.516401 0.000000 0.471442
0.770010 0.000000 0.471442
1.000000 0.000000 0.471442
0.003178 0.250000 0.471442
0.261484 0.250000 0.471442
0.516401 0.250000 0.471442
0.770010 0.250000 0.471442
1.000000 0.250000 0.471442
0.003178 0.500000 0.471442
0.261484 0.500000 0.471442
0.516401 0.500000 0.471442
0.770010 0.500000 0.471442
1.000000 0.500000 0.471442
0.003178 0.750000 0.471442
0.261484 0.750000 0.471442
0.516401 0.750000 0.471442
0.770010 0.750000 0.471442
1.000000 0.750000 0.471442
0.003178 1.000000 0.471442
0.261484 1.000000 0.471442
0.516401 1.000000 0.471442
0.770010 1.000000 0.471442
1.000000 1.000000 0.471442
0.003178 0.000000 0.712581
0.261484 0.000000 0.712581
0.516401 0.000000 0.712581
0.770010 0.000000 0.712581
1.000000 0.000000 0.712581
0.003178 0.250000 0.712581
0.261484 0.250000 0.712581
0.516401 0.250000 0.712581
0.770010 0.250000 0.712581
1.000000 0.250000 0.712581
0.003178 0.500000 0.712581
0.261484 0.500000 0.712581
0.516401 0.500000 0.712581
0.770010 0.500000 0.712581
1.000000 0.500000 0.712581
0.003178 0.750000 0.712581
0.261484 0.750000 0.712581
0.516401 0.750000 0.712581
0.770010 0.750000 0.712581
1.000000 0.750000 0.712581
0.003178 1.000000 0.712581
0.261484 1.000000 0.712581
0.516401 1.000000 0.712581
0.770010 1.000000 0.712581
1.000000 1.000000 0.712581
0.003178 0.000000 0.954556
0.261484 0.000000 0.954556
0.516401 0.000000 0.954556
0.770010 0.000000 0.954556
1.000000 0.000000 0.954556
0.003178 0.250000 0.954556
0.261484 0.250000 0.954556
0.516401 0.250000 0.954556
0.770010 0.250000 0.954556
1.000000 0.250000 0.954556
0.003178 0.500000 0.954556
0.261484 0.500000 0.954556
0.516401 0.500000 0.954556
0.770010 0.500000 0.954556
1.000000 0.500000 0.954556
0.003178 0.750000 0.954556
0.261484 0.750000 0.954556
0.516401 0.750000 0.954556
0.770010 0.750000 0.954556
1.000000 0.750000 0.954556
0.003178 1.000000 0.954556
0.261484 1.000000 0.954556
0.516401 1.000000 0.954556
0.770010 1.000000 0.954556
1.000000 1.000000 0.954556
