public/luts/iphone/lk-iphone-cool.cube
TITLE "LK iPhone Cool"
LUT_3D_SIZE 17
DOMAIN_MIN 0.0 0.0 0.0
DOMAIN_MAX 1.0 1.0 1.0
0.000143 0.000143 0.008088
0.039096 0.002109 0.010054
0.086382 0.004496 0.012441
0.134478 0.006923 0.014868
0.183095 0.009377 0.017322
0.232100 0.011850 0.019795
0.281415 0.014339 0.022284
0.330988 0.016840 0.024785
0.380783 0.019353 0.027298
0.430773 0.021876 0.029821
0.480935 0.024408 0.032353
0.531253 0.026947 0.034892
0.581714 0.029494 0.037439
0.632305 0.032047 0.039992
0.683016 0.034606 0.042551
0.733840 0.037171 0.045116
0.784768 0.039742 0.047687
0.006838 0.044282 0.014783
0.045790 0.046247 0.016749
0.093077 0.048634 0.019136
0.141173 0.051061 0.021563
0.189790 0.053515 0.024016
0.238795 0.055988 0.026490
0.288110 0.058477 0.028978
0.337683 0.060979 0.031480
0.387478 0.063492 0.033993
0.437467 0.066015 0.036516
0.487630 0.068546 0.039048
0.537948 0.071086 0.041587
0.588409 0.073632 0.044134
0.638999 0.076185 0.046687
0.689711 0.078745 0.049246
0.740535 0.081310 0.051811
0.791463 0.083880 0.054382
0.014952 0.097774 0.022897
0.053904 0.099740 0.024863
0.101191 0.102126 0.027249
0.149286 0.104553 0.029677
0.197903 0.107007 0.032130
0.246909 0.109480 0.034603
0.296224 0.111969 0.037092
0.345797 0.114471 0.039594
0.395592 0.116984 0.042107
0.445581 0.119507 0.044630
0.495743 0.122038 0.047161
0.546062 0.124578 0.049701
0.596522 0.127124 0.052248
0.647113 0.129678 0.054801
0.697825 0.132237 0.057360
0.748648 0.134802 0.059925
0.799577 0.137372 0.062495
0.023204 0.152180 0.031149
0.062156 0.154146 0.033115
0.109443 0.156533 0.035502
0.157539 0.158960 0.037929
0.206156 0.161414 0.040383
0.255161 0.163887 0.042856
0.304476 0.166376 0.045345
0.354049 0.168877 0.047846
0.403844 0.171390 0.050359
0.453833 0.173913 0.052882
0.503996 0.176445 0.055414
0.554314 0.178984 0.057953
0.604775 0.181531 0.060500
0.655365 0.184084 0.063053
0.706077 0.186643 0.065612
0.756901 0.189208 0.068177
0.807829 0.191779 0.070748
0.031546 0.207177 0.039491
0.070498 0.209143 0.041457
0.117785 0.211529 0.043843
0.165881 0.213956 0.046271
0.214498 0.216410 0.048724
0.263503 0.218883 0.051198
0.312818 0.221372 0.053686
0.362391 0.223874 0.056188
0.412186 0.226387 0.058701
0.462175 0.228910 0.061224
0.512338 0.231441 0.063756
0.562656 0.233981 0.066295
0.613116 0.236527 0.068842
0.663707 0.239080 0.071395
0.714419 0.241640 0.073954
0.765243 0.244205 0.076519
0.816171 0.246775 0.079089
0.039955 0.262612 0.047900
0.078907 0.264578 0.049865
0.126194 0.266964 0.052252
0.174289 0.269391 0.054679
0.222906 0.271845 0.057133
0.271911 0.274318 0.059606
0.321226 0.276807 0.062095
0.370799 0.279309 0.064597
0.420594 0.281822 0.067110
0.470584 0.284345 0.069632
0.520746 0.286876 0.072164
0.571064 0.289416 0.074703
0.621525 0.291962 0.077250
0.672116 0.294516 0.079803
0.722827 0.297075 0.082363
0.773651 0.299640 0.084928
0.824580 0.302210 0.087498
0.048416 0.318397 0.056361
0.087368 0.320363 0.058327
0.134655 0.322750 0.060713
0.182751 0.325177 0.063141
0.231368 0.327631 0.065594
0.280373 0.330104 0.068067
0.329688 0.332593 0.070556
0.379261 0.335094 0.073058
0.429056 0.337607 0.075571
0.479045 0.340130 0.078094
0.529208 0.342662 0.080626
0.579526 0.345201 0.083165
0.629986 0.347748 0.085712
0.680577 0.350301 0.088265
0.731289 0.352860 0.090824
0.782113 0.355425 0.093389
0.833041 0.357996 0.095959
0.056922 0.374475 0.064867
0.095874 0.376441 0.066833
0.143161 0.378828 0.069219
0.191256 0.381255 0.071647
0.239873 0.383708 0.074100
0.288879 0.386182 0.076573
0.338194 0.388670 0.079062
0.387767 0.391172 0.081564
0.437562 0.393685 0.084077
0.487551 0.396208 0.086600
0.537713 0.398740 0.089131
0.588032 0.401279 0.091671
0.638492 0.403826 0.094217
0.689083 0.406379 0.096771
0.739795 0.408938 0.099330
0.790618 0.411503 0.101895
0.841547 0.414073 0.104465
0.065466 0.430804 0.073411
0.104418 0.432770 0.075377
0.151705 0.435156 0.077763
0.199800 0.437583 0.080190
0.248417 0.440037 0.082644
0.297422 0.442510 0.085117
0.346737 0.444999 0.087606
0.396311 0.447501 0.090108
0.446106 0.450014 0.092621
0.496095 0.452537 0.095144
0.546257 0.455068 0.097675
0.596576 0.457608 0.100215
0.647036 0.460154 0.102761
0.697627 0.462707 0.105315
0.748339 0.465267 0.107874
0.799162 0.467832 0.110439
0.850091 0.470402 0.113009
0.074043 0.487352 0.081988
0.112995 0.489318 0.083954
0.160282 0.491704 0.086340
0.208377 0.494132 0.088768
0.256995 0.496585 0.091221
0.306000 0.499058 0.093694
0.355315 0.501547 0.096183
0.404888 0.504049 0.098685
0.454683 0.506562 0.101198
0.504672 0.509085 0.103721
0.554835 0.511616 0.106253
0.605153 0.514156 0.108792
0.655613 0.516703 0.111339
0.706204 0.519256 0.113892
0.756916 0.521815 0.116451
0.807739 0.524380 0.119016
0.858668 0.526950 0.121586
0.082650 0.544096 0.090595
0.121602 0.546062 0.092561
0.168889 0.548448 0.094947
0.216984 0.550876 0.097375
0.265601 0.553329 0.099828
0.314607 0.555802 0.102301
0.363922 0.558291 0.104790
0.413495 0.560793 0.107292
0.463290 0.563306 0.109805
0.513279 0.565829 0.112328
0.563441 0.568360 0.114859
0.613760 0.570900 0.117399
0.664220 0.573447 0.119946
0.714811 0.576000 0.122499
0.765523 0.578559 0.125058
0.816346 0.581124 0.127623
0.867275 0.583694 0.130193
0.091284 0.601017 0.099229
0.130236 0.602982 0.101195
0.177523 0.605369 0.103581
0.225618 0.607796 0.106008
0.274235 0.610250 0.108462
0.323240 0.612723 0.110935
0.372555 0.615212 0.113424
0.422129 0.617714 0.115926
0.471923 0.620227 0.118439
0.521913 0.622749 0.120962
0.572075 0.625281 0.123493
0.622393 0.627820 0.126033
0.672854 0.630367 0.128579
0.723445 0.632920 0.131132
0.774156 0.635480 0.133692
0.824980 0.638044 0.136257
0.875909 0.640615 0.138827
0.099942 0.658098 0.107887
0.138894 0.660064 0.109853
0.186181 0.662450 0.112239
0.234276 0.664877 0.114666
0.282893 0.667331 0.117120
0.331898 0.669804 0.119593
0.381213 0.672293 0.122082
0.430787 0.674795 0.124584
0.480582 0.677308 0.127097
0.530571 0.679831 0.129620
0.580733 0.682362 0.132151
0.631052 0.684902 0.134691
0.681512 0.687448 0.137237
0.732103 0.690001 0.139790
0.782814 0.692561 0.142350
0.833638 0.695126 0.144915
0.884567 0.697696 0.147485
0.108622 0.715327 0.116567
0.147574 0.717292 0.118533
0.194861 0.719679 0.120919
0.242957 0.722106 0.123347
0.291574 0.724560 0.125800
0.340579 0.727033 0.128274
0.389894 0.729522 0.130762
0.439467 0.732023 0.133264
0.489262 0.734537 0.135777
0.539251 0.737059 0.138300
0.589414 0.739591 0.140832
0.639732 0.742130 0.143371
0.690192 0.744677 0.145918
0.740783 0.747230 0.148471
0.791495 0.749790 0.151030
0.842319 0.752354 0.153595
0.893247 0.754925 0.156165
0.117323 0.772692 0.125268
0.156275 0.774658 0.127234
0.203562 0.777044 0.129621
0.251658 0.779471 0.132048
0.300275 0.781925 0.134501
0.349280 0.784398 0.136975
0.398595 0.786887 0.139463
0.448168 0.789389 0.141965
0.497963 0.791902 0.144478
0.547952 0.794425 0.147001
0.598115 0.796956 0.149533
0.648433 0.799496 0.152072
0.698894 0.802042 0.154619
0.749484 0.804595 0.157172
0.800196 0.807155 0.159731
0.851020 0.809720 0.162296
0.901948 0.812290 0.164867
0.126044 0.830184 0.133989
0.164996 0.832150 0.135955
0.212283 0.834536 0.138341
0.260378 0.836963 0.140768
0.308995 0.839417 0.143222
0.358000 0.841890 0.145695
0.407315 0.844379 0.148184
0.456889 0.846881 0.150686
0.506684 0.849394 0.153199
0.556673 0.851917 0.155722
0.606835 0.854448 0.158253
0.657153 0.856988 0.160793
0.707614 0.859534 0.163339
0.758205 0.862088 0.165892
0.808916 0.864647 0.168452
0.859740 0.867212 0.171017
0.910669 0.869782 0.173587
0.134782 0.887795 0.142727
0.173734 0.889761 0.144693
0.221021 0.892147 0.147079
0.269117 0.894574 0.149507
0.317734 0.897028 0.151960
0.366739 0.899501 0.154433
0.416054 0.901990 0.156922
0.465627 0.904492 0.159424
0.515422 0.907005 0.161937
0.565411 0.909528 0.164460
0.615574 0.912059 0.166992
0.665892 0.914599 0.169531
0.716352 0.917145 0.172078
0.766943 0.919698 0.174631
0.817655 0.922258 0.177190
0.868479 0.924823 0.179755
0.919407 0.927393 0.182325
0.001066 0.001066 0.060134
0.040018 0.003032 0.062099
0.087305 0.005418 0.064486
0.135401 0.007846 0.066913
0.184018 0.010299 0.069367
0.233023 0.012772 0.071840
0.282338 0.015261 0.074329
0.331911 0.017763 0.076831
0.381706 0.020276 0.079344
0.431695 0.022799 0.081866
0.481858 0.025331 0.084398
0.532176 0.027870 0.086937
0.582636 0.030417 0.089484
0.633227 0.032970 0.092037
0.683939 0.035529 0.094597
0.734763 0.038094 0.097162
0.785691 0.040664 0.099732
0.007761 0.045204 0.066829
0.046713 0.047170 0.068794
0.094000 0.049557 0.071181
0.142095 0.051984 0.073608
0.190713 0.054438 0.076062
0.239718 0.056911 0.078535
0.289033 0.059400 0.081024
0.338606 0.061901 0.083525
0.388401 0.064414 0.086039
0.438390 0.066937 0.088561
0.488553 0.069469 0.091093
0.538871 0.072008 0.093632
0.589331 0.074555 0.096179
0.639922 0.077108 0.098732
0.690634 0.079667 0.101291
0.741457 0.082232 0.103856
0.792386 0.084803 0.106427
0.015875 0.098697 0.074942
0.054827 0.100663 0.076908
0.102114 0.103049 0.079294
0.150209 0.105476 0.081722
0.198826 0.107930 0.084175
0.247831 0.110403 0.086649
0.297146 0.112892 0.089137
0.346720 0.115394 0.091639
0.396515 0.117907 0.094152
0.446504 0.120430 0.096675
0.496666 0.122961 0.099207
0.546985 0.125501 0.101746
0.597445 0.128047 0.104293
0.648036 0.130600 0.106846
0.698747 0.133160 0.109405
0.749571 0.135725 0.111970
0.800500 0.138295 0.114540
0.024127 0.153103 0.083195
0.063079 0.155069 0.085160
0.110366 0.157455 0.087547
0.158462 0.159883 0.089974
0.207079 0.162336 0.092428
0.256084 0.164809 0.094901
0.305399 0.167298 0.097390
0.354972 0.169800 0.099892
0.404767 0.172313 0.102405
0.454756 0.174836 0.104927
0.504919 0.177368 0.107459
0.555237 0.179907 0.109998
0.605697 0.182454 0.112545
0.656288 0.185007 0.115098
0.707000 0.187566 0.117658
0.757824 0.190131 0.120222
0.808752 0.192701 0.122793
0.032469 0.208099 0.091536
0.071421 0.210065 0.093502
0.118708 0.212452 0.095889
0.166803 0.214879 0.098316
0.215420 0.217333 0.100770
0.264426 0.219806 0.103243
0.313740 0.222295 0.105731
0.363314 0.224796 0.108233
0.413109 0.227309 0.110746
0.463098 0.229832 0.113269
0.513260 0.232364 0.115801
0.563579 0.234903 0.118340
0.614039 0.237450 0.120887
0.664630 0.240003 0.123440
0.715342 0.242562 0.125999
0.766165 0.245127 0.128564
0.817094 0.247698 0.131135
0.040877 0.263535 0.099945
0.079829 0.265500 0.101911
0.127116 0.267887 0.104297
0.175212 0.270314 0.106724
0.223829 0.272768 0.109178
0.272834 0.275241 0.111651
0.322149 0.277730 0.114140
0.371722 0.280232 0.116642
0.421517 0.282745 0.119155
0.471506 0.285267 0.121678
0.521669 0.287799 0.124209
0.571987 0.290338 0.126749
0.622448 0.292885 0.129295
0.673038 0.295438 0.131848
0.723750 0.297998 0.134408
0.774574 0.300563 0.136973
0.825502 0.303133 0.139543
0.049339 0.319320 0.108406
0.088291 0.321286 0.110372
0.135578 0.323672 0.112759
0.183673 0.326100 0.115186
0.232290 0.328553 0.117639
0.281295 0.331027 0.120113
0.330610 0.333515 0.122601
0.380184 0.336017 0.125103
0.429979 0.338530 0.127616
0.479968 0.341053 0.130139
0.530130 0.343585 0.132671
0.580449 0.346124 0.135210
0.630909 0.348671 0.137757
0.681500 0.351224 0.140310
0.732212 0.353783 0.142869
0.783035 0.356348 0.145434
0.833964 0.358918 0.148004
0.057845 0.375398 0.116912
0.096797 0.377364 0.118878
0.144084 0.379750 0.121264
0.192179 0.382178 0.123692
0.240796 0.384631 0.126145
0.289801 0.387104 0.128618
0.339116 0.389593 0.131107
0.388690 0.392095 0.133609
0.438485 0.394608 0.136122
0.488474 0.397131 0.138645
0.538636 0.399662 0.141177
0.588954 0.402202 0.143716
0.639415 0.404748 0.146263
0.690006 0.407302 0.148816
0.740717 0.409861 0.151375
0.791541 0.412426 0.153940
0.842470 0.414996 0.156510
0.066389 0.431727 0.125456
0.105341 0.433692 0.127422
0.152628 0.436079 0.129808
0.200723 0.438506 0.132236
0.249340 0.440960 0.134689
0.298345 0.443433 0.137162
0.347660 0.445922 0.139651
0.397233 0.448423 0.142153
0.447028 0.450937 0.144666
0.497018 0.453459 0.147189
0.547180 0.455991 0.149720
0.597498 0.458530 0.152260
0.647959 0.461077 0.154807
0.698550 0.463630 0.157360
0.749261 0.466189 0.159919
0.800085 0.468754 0.162484
0.851014 0.471325 0.165054
0.074966 0.488275 0.134033
0.113918 0.490241 0.135999
0.161205 0.492627 0.138386
0.209300 0.495054 0.140813
0.257917 0.497508 0.143266
0.306922 0.499981 0.145740
0.356237 0.502470 0.148228
0.405811 0.504972 0.150730
0.455606 0.507485 0.153243
0.505595 0.510008 0.155766
0.555757 0.512539 0.158298
0.606076 0.515079 0.160837
0.656536 0.517625 0.163384
0.707127 0.520179 0.165937
0.757838 0.522738 0.168496
0.808662 0.525303 0.171061
0.859591 0.527873 0.173631
0.083573 0.545019 0.142640
0.122525 0.546985 0.144606
0.169812 0.549371 0.146992
0.217907 0.551798 0.149420
0.266524 0.554252 0.151873
0.315529 0.556725 0.154346
0.364844 0.559214 0.156835
0.414418 0.561716 0.159337
0.464213 0.564229 0.161850
0.514202 0.566752 0.164373
0.564364 0.569283 0.166905
0.614683 0.571823 0.169444
0.665143 0.574369 0.171991
0.715734 0.576923 0.174544
0.766445 0.579482 0.177103
0.817269 0.582047 0.179668
0.868198 0.584617 0.182238
0.092206 0.601939 0.151274
0.131159 0.603905 0.153240
0.178445 0.606292 0.155626
0.226541 0.608719 0.158053
0.275158 0.611172 0.160507
0.324163 0.613646 0.162980
0.373478 0.616134 0.165469
0.423051 0.618636 0.167971
0.472846 0.621149 0.170484
0.522836 0.623672 0.173007
0.572998 0.626204 0.175538
0.623316 0.628743 0.178078
0.673777 0.631290 0.180624
0.724368 0.633843 0.183178
0.775079 0.636402 0.185737
0.825903 0.638967 0.188302
0.876831 0.641537 0.190872
0.100864 0.659021 0.159932
0.139817 0.660986 0.161898
0.187103 0.663373 0.164284
0.235199 0.665800 0.166711
0.283816 0.668254 0.169165
0.332821 0.670727 0.171638
0.382136 0.673216 0.174127
0.431709 0.675717 0.176629
0.481504 0.678231 0.179142
0.531494 0.680753 0.181665
0.581656 0.683285 0.184196
0.631974 0.685824 0.186736
0.682435 0.688371 0.189282
0.733026 0.690924 0.191836
0.783737 0.693483 0.194395
0.834561 0.696048 0.196960
0.885490 0.698619 0.199530
0.109545 0.716249 0.168612
0.148497 0.718215 0.170578
0.195784 0.720602 0.172965
0.243879 0.723029 0.175392
0.292496 0.725482 0.177846
0.341502 0.727956 0.180319
0.390816 0.730444 0.182807
0.440390 0.732946 0.185309
0.490185 0.735459 0.187822
0.540174 0.737982 0.190345
0.590336 0.740514 0.192877
0.640655 0.743053 0.195416
0.691115 0.745600 0.197963
0.741706 0.748153 0.200516
0.792418 0.750712 0.203075
0.843241 0.753277 0.205640
0.894170 0.755847 0.208211
0.118246 0.773615 0.177314
0.157198 0.775580 0.179279
0.204485 0.777967 0.181666
0.252580 0.780394 0.184093
0.301198 0.782848 0.186547
0.350203 0.785321 0.189020
0.399518 0.787810 0.191509
0.449091 0.790311 0.194010
0.498886 0.792825 0.196524
0.548875 0.795347 0.199046
0.599038 0.797879 0.201578
0.649356 0.800418 0.204117
0.699816 0.802965 0.206664
0.750407 0.805518 0.209217
0.801119 0.808078 0.211776
0.851942 0.810642 0.214341
0.902871 0.813213 0.216912
0.126966 0.831107 0.186034
0.165919 0.833073 0.188000
0.213205 0.835459 0.190386
0.261301 0.837886 0.192813
0.309918 0.840340 0.195267
0.358923 0.842813 0.197740
0.408238 0.845302 0.200229
0.457811 0.847804 0.202731
0.507606 0.850317 0.205244
0.557596 0.852840 0.207767
0.607758 0.855371 0.210298
0.658076 0.857911 0.212838
0.708537 0.860457 0.215384
0.759128 0.863010 0.217938
0.809839 0.865570 0.220497
0.860663 0.868135 0.223062
0.911592 0.870705 0.225632
0.135705 0.888718 0.194772
0.174657 0.890683 0.196738
0.221944 0.893070 0.199125
0.270039 0.895497 0.201552
0.318656 0.897951 0.204005
0.367661 0.900424 0.206479
0.416976 0.902913 0.208967
0.466550 0.905414 0.211469
0.516345 0.907928 0.213982
0.566334 0.910450 0.216505
0.616496 0.912982 0.219037
0.666815 0.915521 0.221576
0.717275 0.918068 0.224123
0.767866 0.920621 0.226676
0.818578 0.923180 0.229235
0.869401 0.925745 0.231800
0.920330 0.928316 0.234370
0.001992 0.001992 0.112338
0.040944 0.003958 0.114304
0.088231 0.006344 0.116691
0.136326 0.008771 0.119118
0.184943 0.011225 0.121571
0.233948 0.013698 0.124045
0.283263 0.016187 0.126533
0.332837 0.018689 0.129035
0.382632 0.021202 0.131548
0.432621 0.023725 0.134071
0.482783 0.026256 0.136603
0.533102 0.028796 0.139142
0.583562 0.031342 0.141689
0.634153 0.033895 0.144242
0.684864 0.036455 0.146801
0.735688 0.039020 0.149366
0.786617 0.041590 0.151937
0.008687 0.046130 0.119033
0.047639 0.048096 0.120999
0.094926 0.050482 0.123385
0.143021 0.052910 0.125813
0.191638 0.055363 0.128266
0.240643 0.057836 0.130740
0.289958 0.060325 0.133228
0.339531 0.062827 0.135730
0.389326 0.065340 0.138243
0.439316 0.067863 0.140766
0.489478 0.070394 0.143298
0.539796 0.072934 0.145837
0.590257 0.075480 0.148384
0.640848 0.078034 0.150937
0.691559 0.080593 0.153496
0.742383 0.083158 0.156061
0.793312 0.085728 0.158631
0.016800 0.099622 0.127147
0.055752 0.101588 0.129113
0.103039 0.103975 0.131499
0.151135 0.106402 0.133926
0.199752 0.108855 0.136380
0.248757 0.111329 0.138853
0.298072 0.113817 0.141342
0.347645 0.116319 0.143844
0.397440 0.118832 0.146357
0.447429 0.121355 0.148880
0.497592 0.123887 0.151411
0.547910 0.126426 0.153951
0.598371 0.128973 0.156497
0.648961 0.131526 0.159051
0.699673 0.134085 0.161610
0.750497 0.136650 0.164175
0.801425 0.139220 0.166745
0.025053 0.154029 0.135399
0.064005 0.155995 0.137365
0.111292 0.158381 0.139752
0.159387 0.160808 0.142179
0.208004 0.163262 0.144632
0.257009 0.165735 0.147106
0.306324 0.168224 0.149594
0.355898 0.170726 0.152096
0.405693 0.173239 0.154609
0.455682 0.175762 0.157132
0.505844 0.178293 0.159664
0.556162 0.180833 0.162203
0.606623 0.183379 0.164750
0.657214 0.185932 0.167303
0.707925 0.188492 0.169862
0.758749 0.191057 0.172427
0.809678 0.193627 0.174997
0.033394 0.209025 0.143741
0.072347 0.210991 0.145707
0.119634 0.213377 0.148093
0.167729 0.215805 0.150521
0.216346 0.218258 0.152974
0.265351 0.220731 0.155447
0.314666 0.223220 0.157936
0.364239 0.225722 0.160438
0.414034 0.228235 0.162951
0.464024 0.230758 0.165474
0.514186 0.233289 0.168005
0.564504 0.235829 0.170545
0.614965 0.238376 0.173092
0.665556 0.240929 0.175645
0.716267 0.243488 0.178204
0.767091 0.246053 0.180769
0.818020 0.248623 0.183339
0.041803 0.264460 0.152149
0.080755 0.266426 0.154115
0.128042 0.268812 0.156502
0.176137 0.271240 0.158929
0.224754 0.273693 0.161383
0.273759 0.276167 0.163856
0.323074 0.278655 0.166345
0.372648 0.281157 0.168846
0.422443 0.283670 0.171359
0.472432 0.286193 0.173882
0.522594 0.288725 0.176414
0.572913 0.291264 0.178953
0.623373 0.293811 0.181500
0.673964 0.296364 0.184053
0.724676 0.298923 0.186612
0.775499 0.301488 0.189177
0.826428 0.304058 0.191748
0.050264 0.320246 0.160611
0.089217 0.322212 0.162577
0.136503 0.324598 0.164963
0.184599 0.327025 0.167391
0.233216 0.329479 0.169844
0.282221 0.331952 0.172317
0.331536 0.334441 0.174806
0.381109 0.336943 0.177308
0.430904 0.339456 0.179821
0.480894 0.341979 0.182344
0.531056 0.344510 0.184875
0.581374 0.347050 0.187415
0.631835 0.349596 0.189961
0.682426 0.352149 0.192515
0.733137 0.354709 0.195074
0.783961 0.357274 0.197639
0.834890 0.359844 0.200209
0.058770 0.376324 0.169117
0.097722 0.378289 0.171083
0.145009 0.380676 0.173469
0.193105 0.383103 0.175896
0.241722 0.385557 0.178350
0.290727 0.388030 0.180823
0.340042 0.390519 0.183312
0.389615 0.393021 0.185814
0.439410 0.395534 0.188327
0.489399 0.398056 0.190850
0.539562 0.400588 0.193381
0.589880 0.403127 0.195921
0.640341 0.405674 0.198467
0.690931 0.408227 0.201021
0.741643 0.410787 0.203580
0.792467 0.413352 0.206145
0.843395 0.415922 0.208715
0.067314 0.432652 0.177661
0.106266 0.434618 0.179627
0.153553 0.437004 0.182013
0.201649 0.439432 0.184440
0.250266 0.441885 0.186894
0.299271 0.444358 0.189367
0.348586 0.446847 0.191856
0.398159 0.449349 0.194358
0.447954 0.451862 0.196871
0.497943 0.454385 0.199394
0.548106 0.456917 0.201925
0.598424 0.459456 0.204465
0.648884 0.462003 0.207011
0.699475 0.464556 0.209564
0.750187 0.467115 0.212124
0.801011 0.469680 0.214689
0.851939 0.472250 0.217259
0.075891 0.489200 0.186238
0.114844 0.491166 0.188204
0.162130 0.493553 0.190590
0.210226 0.495980 0.193018
0.258843 0.498434 0.195471
0.307848 0.500907 0.197944
0.357163 0.503396 0.200433
0.406736 0.505897 0.202935
0.456531 0.508410 0.205448
0.506521 0.510933 0.207971
0.556683 0.513465 0.210502
0.607001 0.516004 0.213042
0.657462 0.518551 0.215588
0.708053 0.521104 0.218142
0.758764 0.523663 0.220701
0.809588 0.526228 0.223266
0.860516 0.528799 0.225836
0.084498 0.545944 0.194845
0.123450 0.547910 0.196811
0.170737 0.550297 0.199197
0.218833 0.552724 0.201624
0.267450 0.555178 0.204078
0.316455 0.557651 0.206551
0.365770 0.560140 0.209040
0.415343 0.562641 0.211542
0.465138 0.565154 0.214055
0.515127 0.567677 0.216578
0.565290 0.570209 0.219109
0.615608 0.572748 0.221649
0.666069 0.575295 0.224195
0.716659 0.577848 0.226749
0.767371 0.580407 0.229308
0.818195 0.582972 0.231873
0.869123 0.585543 0.234443
0.093132 0.602865 0.203479
0.132084 0.604831 0.205444
0.179371 0.607217 0.207831
0.227466 0.609644 0.210258
0.276083 0.612098 0.212712
0.325089 0.614571 0.215185
0.374404 0.617060 0.217674
0.423977 0.619562 0.220176
0.473772 0.622075 0.222689
0.523761 0.624598 0.225211
0.573923 0.627129 0.227743
0.624242 0.629669 0.230282
0.674702 0.632215 0.232829
0.725293 0.634769 0.235382
0.776005 0.637328 0.237942
0.826828 0.639893 0.240507
0.877757 0.642463 0.243077
0.101790 0.659946 0.212137
0.140742 0.661912 0.214102
0.188029 0.664298 0.216489
0.236124 0.666726 0.218916
0.284742 0.669179 0.221370
0.333747 0.671652 0.223843
0.383062 0.674141 0.226332
0.432635 0.676643 0.228834
0.482430 0.679156 0.231347
0.532419 0.681679 0.233869
0.582582 0.684211 0.236401
0.632900 0.686750 0.238940
0.683360 0.689297 0.241487
0.733951 0.691850 0.244040
0.784663 0.694409 0.246600
0.835486 0.696974 0.249165
0.886415 0.699544 0.251735
0.110470 0.717175 0.220817
0.149423 0.719141 0.222783
0.196710 0.721527 0.225169
0.244805 0.723954 0.227597
0.293422 0.726408 0.230050
0.342427 0.728881 0.232523
0.391742 0.731370 0.235012
0.441315 0.733872 0.237514
0.491110 0.736385 0.240027
0.541100 0.738908 0.242550
0.591262 0.741439 0.245081
0.641580 0.743979 0.247621
0.692041 0.746525 0.250168
0.742632 0.749079 0.252721
0.793343 0.751638 0.255280
0.844167 0.754203 0.257845
0.895096 0.756773 0.260415
0.119172 0.774540 0.229518
0.158124 0.776506 0.231484
0.205411 0.778892 0.233870
0.253506 0.781320 0.236298
0.302123 0.783773 0.238751
0.351128 0.786246 0.241225
0.400443 0.788735 0.243713
0.450016 0.791237 0.246215
0.499811 0.793750 0.248728
0.549801 0.796273 0.251251
0.599963 0.798805 0.253783
0.650281 0.801344 0.256322
0.700742 0.803891 0.258869
0.751333 0.806444 0.261422
0.802044 0.809003 0.263981
0.852868 0.811568 0.266546
0.903797 0.814138 0.269116
0.127892 0.832032 0.238239
0.166844 0.833998 0.240204
0.214131 0.836385 0.242591
0.262226 0.838812 0.245018
0.310844 0.841265 0.247472
0.359849 0.843739 0.249945
0.409164 0.846227 0.252434
0.458737 0.848729 0.254936
0.508532 0.851242 0.257449
0.558521 0.853765 0.259971
0.608683 0.856297 0.262503
0.659002 0.858836 0.265042
0.709462 0.861383 0.267589
0.760053 0.863936 0.270142
0.810765 0.866495 0.272702
0.861588 0.869060 0.275267
0.912517 0.871630 0.277837
0.136630 0.889643 0.246977
0.175583 0.891609 0.248943
0.222869 0.893995 0.251329
0.270965 0.896423 0.253757
0.319582 0.898876 0.256210
0.368587 0.901349 0.258683
0.417902 0.903838 0.261172
0.467475 0.906340 0.263674
0.517270 0.908853 0.266187
0.567260 0.911376 0.268710
0.617422 0.913908 0.271241
0.667740 0.916447 0.273781
0.718201 0.918994 0.276327
0.768792 0.921547 0.278881
0.819503 0.924106 0.281440
0.870327 0.926671 0.284005
0.921256 0.929241 0.286575
0.002918 0.002918 0.164581
0.041870 0.004884 0.166547
0.089157 0.007270 0.168933
0.137252 0.009698 0.171361
0.185870 0.012151 0.173814
0.234875 0.014624 0.176287
0.284190 0.017113 0.178776
0.333763 0.019615 0.181278
0.383558 0.022128 0.183791
0.433547 0.024651 0.186314
0.483709 0.027182 0.188846
0.534028 0.029722 0.191385
0.584488 0.032268 0.193932
0.635079 0.034822 0.196485
0.685791 0.037381 0.199044
0.736614 0.039946 0.201609
0.787543 0.042516 0.204179
0.009613 0.047056 0.171276
