public/luts/iphone/lk-iphone-warm-film.cube
TITLE "LK iPhone Warm Film"
LUT_3D_SIZE 9
DOMAIN_MIN 0.0 0.0 0.0
DOMAIN_MAX 1.0 1.0 1.0
0.024626 0.023117 0.019198
0.152528 0.026069 0.022150
0.272528 0.028838 0.024919
0.389191 0.031531 0.027611
0.503691 0.034173 0.030253
0.616593 0.036778 0.032859
0.728231 0.039355 0.035435
0.838822 0.041907 0.037987
0.910644 0.043564 0.039645
0.033766 0.147276 0.028338
0.161668 0.150228 0.031290
0.281668 0.152997 0.034059
0.398331 0.155689 0.036751
0.512832 0.158332 0.039394
0.625734 0.160937 0.041999
0.737371 0.163513 0.044575
0.847963 0.166066 0.047127
0.919784 0.167723 0.048785
0.042553 0.266645 0.037126
0.170455 0.269597 0.040077
0.290456 0.272366 0.042847
0.407119 0.275059 0.045539
0.521619 0.277701 0.048181
0.634521 0.280306 0.050787
0.746158 0.282883 0.053363
0.856750 0.285435 0.055915
0.928571 0.287092 0.057572
0.051180 0.383830 0.045752
0.179082 0.386782 0.048704
0.299083 0.389551 0.051473
0.415746 0.392244 0.054166
0.530246 0.394886 0.056808
0.643148 0.397491 0.059413
0.754785 0.400068 0.061990
0.865377 0.402620 0.064542
0.937198 0.404277 0.066199
0.059701 0.499576 0.054273
0.187603 0.502527 0.057225
0.307603 0.505296 0.059994
0.424266 0.507989 0.062686
0.538767 0.510631 0.065329
0.651669 0.513236 0.067934
0.763306 0.515813 0.070510
0.873898 0.518365 0.073062
0.945719 0.520022 0.074720
0.068142 0.614246 0.062715
0.196044 0.617198 0.065666
0.316045 0.619967 0.068436
0.432708 0.622659 0.071128
0.547208 0.625302 0.073770
0.660110 0.627907 0.076376
0.771747 0.630483 0.078952
0.882339 0.633035 0.081504
0.954160 0.634693 0.083162
0.076521 0.728061 0.071093
0.204423 0.731012 0.074045
0.324424 0.733782 0.076814
0.441087 0.736474 0.079507
0.555587 0.739116 0.082149
0.668489 0.741722 0.084754
0.780126 0.744298 0.087331
0.890718 0.746850 0.089883
0.962539 0.748507 0.091540
0.084847 0.841164 0.079420
0.212749 0.844116 0.082371
0.332750 0.846885 0.085141
0.449413 0.849577 0.087833
0.563913 0.852220 0.090475
0.676815 0.854825 0.093081
0.788452 0.857401 0.095657
0.899044 0.859954 0.098209
0.970865 0.861611 0.099866
0.093129 0.953660 0.087701
0.221031 0.956612 0.090653
0.341032 0.959381 0.093422
0.457695 0.962074 0.096114
0.572195 0.964716 0.098757
0.685097 0.967321 0.101362
0.796734 0.969898 0.103938
0.907326 0.972450 0.106491
0.979147 0.974107 0.108148
0.025373 0.023865 0.113087
0.153275 0.026816 0.116038
0.273275 0.029586 0.118807
0.389938 0.032278 0.121500
0.504439 0.034920 0.124142
0.617341 0.037526 0.126747
0.728978 0.040102 0.129324
0.839570 0.042654 0.131876
0.911391 0.044311 0.133533
0.034513 0.148023 0.122227
0.162415 0.150975 0.125178
0.282416 0.153744 0.127948
0.399079 0.156437 0.130640
0.513579 0.159079 0.133282
0.626481 0.161684 0.135888
0.738118 0.164261 0.138464
0.848710 0.166813 0.141016
0.920531 0.168470 0.142673
0.043300 0.267393 0.131014
0.171202 0.270344 0.133966
0.291203 0.273113 0.136735
0.407866 0.275806 0.139427
0.522366 0.278448 0.142070
0.635268 0.281054 0.144675
0.746905 0.283630 0.147251
0.857497 0.286182 0.149804
0.929318 0.287839 0.151461
0.051927 0.384578 0.139641
0.179829 0.387529 0.142593
0.299830 0.390299 0.145362
0.416493 0.392991 0.148054
0.530993 0.395633 0.150696
0.643895 0.398239 0.153302
0.755532 0.400815 0.155878
0.866124 0.403367 0.158430
0.937945 0.405024 0.160088
0.060448 0.500323 0.148162
0.188350 0.503274 0.151113
0.308351 0.506044 0.153883
0.425014 0.508736 0.156575
0.539514 0.511378 0.159217
0.652416 0.513984 0.161823
0.764053 0.516560 0.164399
0.874645 0.519112 0.166951
0.946466 0.520769 0.168608
0.068890 0.614993 0.156603
0.196792 0.617945 0.159555
0.316792 0.620714 0.162324
0.433455 0.623406 0.165017
0.547956 0.626049 0.167659
0.660858 0.628654 0.170264
0.772495 0.631231 0.172841
0.883086 0.633783 0.175393
0.954908 0.635440 0.177050
0.077268 0.728808 0.164982
0.205170 0.731760 0.167934
0.325171 0.734529 0.170703
0.441834 0.737221 0.173395
0.556334 0.739863 0.176038
0.669236 0.742469 0.178643
0.780873 0.745045 0.181219
0.891465 0.747597 0.183771
0.963286 0.749255 0.185429
0.085595 0.841912 0.173308
0.213497 0.844863 0.176260
0.333497 0.847632 0.179029
0.450160 0.850325 0.181721
0.564660 0.852967 0.184364
0.677563 0.855572 0.186969
0.789200 0.858149 0.189546
0.899791 0.860701 0.192098
0.971613 0.862358 0.193755
0.093876 0.954408 0.181590
0.221778 0.957359 0.184542
0.341779 0.960128 0.187311
0.458442 0.962821 0.190003
0.572942 0.965463 0.192645
0.685844 0.968069 0.195251
0.797481 0.970645 0.197827
0.908073 0.973197 0.200379
0.979894 0.974854 0.202037
0.026164 0.024656 0.212519
0.154066 0.027608 0.215470
0.274067 0.030377 0.218240
0.390730 0.033069 0.220932
0.505230 0.035711 0.223574
0.618132 0.038317 0.226180
0.729769 0.040893 0.228756
0.840361 0.043445 0.231308
0.912182 0.045103 0.232966
0.035304 0.148815 0.221659
0.163206 0.151766 0.224611
0.283207 0.154536 0.227380
0.399870 0.157228 0.230072
0.514370 0.159870 0.232714
0.627272 0.162476 0.235320
0.738909 0.165052 0.237896
0.849501 0.167604 0.240448
0.921322 0.169261 0.242106
0.044092 0.268184 0.230447
0.171994 0.271136 0.233398
0.291994 0.273905 0.236167
0.408657 0.276597 0.238860
0.523158 0.279239 0.241502
0.636060 0.281845 0.244107
0.747697 0.284421 0.246684
0.858289 0.286973 0.249236
0.930110 0.288631 0.250893
0.052718 0.385369 0.239073
0.180621 0.388321 0.242025
0.300621 0.391090 0.244794
0.417284 0.393782 0.247486
0.531784 0.396424 0.250129
0.644686 0.399030 0.252734
0.756324 0.401606 0.255310
0.866915 0.404158 0.257863
0.938737 0.405816 0.259520
0.061239 0.501114 0.247594
0.189141 0.504066 0.250546
0.309142 0.506835 0.253315
0.425805 0.509527 0.256007
0.540305 0.512169 0.258649
0.653207 0.514775 0.261255
0.764844 0.517351 0.263831
0.875436 0.519903 0.266383
0.947257 0.521561 0.268041
0.069681 0.615785 0.256036
0.197583 0.618736 0.258987
0.317584 0.621506 0.261757
0.434247 0.624198 0.264449
0.548747 0.626840 0.267091
0.661649 0.629446 0.269697
0.773286 0.632022 0.272273
0.883878 0.634574 0.274825
0.955699 0.636231 0.276482
0.078060 0.729599 0.264414
0.205962 0.732551 0.267366
0.325962 0.735320 0.270135
0.442625 0.738012 0.272827
0.557125 0.740655 0.275470
0.670028 0.743260 0.278075
0.781665 0.745836 0.280651
0.892256 0.748389 0.283204
0.964078 0.750046 0.284861
0.086386 0.842703 0.272741
0.214288 0.845654 0.275692
0.334289 0.848424 0.278462
0.450952 0.851116 0.281154
0.565452 0.853758 0.283796
0.678354 0.856364 0.286402
0.789991 0.858940 0.288978
0.900583 0.861492 0.291530
0.972404 0.863150 0.293187
0.094667 0.955199 0.281022
0.222569 0.958151 0.283974
0.342570 0.960920 0.286743
0.459233 0.963612 0.289435
0.573733 0.966254 0.292078
0.686635 0.968860 0.294683
0.798272 0.971436 0.297259
0.908864 0.973988 0.299812
0.980685 0.975646 0.301469
0.026953 0.025445 0.311655
0.154855 0.028397 0.314606
0.274856 0.031166 0.317375
0.391519 0.033858 0.320068
0.506019 0.036500 0.322710
0.618921 0.039106 0.325315
0.730558 0.041682 0.327892
0.841150 0.044234 0.330444
0.912971 0.045892 0.332101
0.036093 0.149604 0.320795
0.163995 0.152555 0.323746
0.283996 0.155325 0.326516
0.400659 0.158017 0.329208
0.515159 0.160659 0.331850
0.628061 0.163265 0.334456
0.739698 0.165841 0.337032
0.850290 0.168393 0.339584
0.922111 0.170050 0.341241
0.044881 0.268973 0.329582
0.172783 0.271925 0.332534
0.292783 0.274694 0.335303
0.409446 0.277386 0.337995
0.523947 0.280028 0.340638
0.636849 0.282634 0.343243
0.748486 0.285210 0.345819
0.859078 0.287762 0.348372
0.930899 0.289420 0.350029
0.053507 0.386158 0.338209
0.181410 0.389110 0.341161
0.301410 0.391879 0.343930
0.418073 0.394571 0.346622
0.532573 0.397213 0.349264
0.645475 0.399819 0.351870
0.757113 0.402395 0.354446
0.867704 0.404947 0.356998
0.939526 0.406605 0.358656
0.062028 0.501903 0.346730
0.189930 0.504855 0.349681
0.309931 0.507624 0.352451
0.426594 0.510316 0.355143
0.541094 0.512958 0.357785
0.653996 0.515564 0.360391
0.765633 0.518140 0.362967
0.876225 0.520692 0.365519
0.948046 0.522350 0.367176
0.070470 0.616574 0.355171
0.198372 0.619525 0.358123
0.318373 0.622295 0.360892
0.435036 0.624987 0.363585
0.549536 0.627629 0.366227
0.662438 0.630235 0.368832
0.774075 0.632811 0.371409
0.884667 0.635363 0.373961
0.956488 0.637020 0.375618
0.078849 0.730388 0.363550
0.206751 0.733340 0.366502
0.326751 0.736109 0.369271
0.443414 0.738801 0.371963
0.557914 0.741444 0.374605
0.670816 0.744049 0.377211
0.782454 0.746625 0.379787
0.893045 0.749177 0.382339
0.964867 0.750835 0.383997
0.087175 0.843492 0.371876
0.215077 0.846443 0.374828
0.335077 0.849213 0.377597
0.451741 0.851905 0.380289
0.566241 0.854547 0.382932
0.679143 0.857153 0.385537
0.790780 0.859729 0.388113
0.901372 0.862281 0.390666
0.973193 0.863938 0.392323
0.095456 0.955988 0.380158
0.223358 0.958939 0.383110
0.343359 0.961709 0.385879
0.460022 0.964401 0.388571
0.574522 0.967043 0.391213
0.687424 0.969649 0.393819
0.799061 0.972225 0.396395
0.909653 0.974777 0.398947
0.981474 0.976435 0.400605
0.027740 0.026232 0.410560
0.155642 0.029184 0.413512
0.275643 0.031953 0.416281
0.392306 0.034645 0.418973
0.506806 0.037288 0.421616
0.619708 0.039893 0.424221
0.731345 0.042469 0.426798
0.841937 0.045021 0.429350
0.913758 0.046679 0.431007
0.036880 0.150391 0.419701
0.164782 0.153342 0.422652
0.284783 0.156112 0.425421
0.401446 0.158804 0.428114
0.515946 0.161446 0.430756
0.628848 0.164052 0.433361
0.740485 0.166628 0.435938
0.851077 0.169180 0.438490
0.922898 0.170838 0.440147
0.045668 0.269760 0.428488
0.173570 0.272712 0.431440
0.293570 0.275481 0.434209
0.410234 0.278173 0.436901
0.524734 0.280815 0.439544
0.637636 0.283421 0.442149
0.749273 0.285997 0.444725
0.859865 0.288549 0.447277
0.931686 0.290207 0.448935
0.054295 0.386945 0.437115
0.182197 0.389897 0.440066
0.302197 0.392666 0.442836
0.418860 0.395358 0.445528
0.533360 0.398001 0.448170
0.646263 0.400606 0.450776
0.757900 0.403182 0.453352
0.868491 0.405734 0.455904
0.940313 0.407392 0.457562
0.062815 0.502690 0.445636
0.190717 0.505642 0.448587
0.310718 0.508411 0.451356
0.427381 0.511103 0.454049
0.541881 0.513746 0.456691
0.654783 0.516351 0.459296
0.766420 0.518927 0.461873
0.877012 0.521479 0.464425
0.948833 0.523137 0.466082
0.071257 0.617361 0.454077
0.199159 0.620312 0.457029
0.319160 0.623082 0.459798
0.435823 0.625774 0.462490
0.550323 0.628416 0.465133
0.663225 0.631022 0.467738
0.774862 0.633598 0.470314
0.885454 0.636150 0.472867
0.957275 0.637807 0.474524
0.079636 0.731175 0.462456
0.207538 0.734127 0.465407
0.327538 0.736896 0.468177
0.444201 0.739588 0.470869
0.558702 0.742231 0.473511
0.671604 0.744836 0.476117
0.783241 0.747412 0.478693
0.893833 0.749965 0.481245
0.965654 0.751622 0.482903
0.087962 0.844279 0.470782
0.215864 0.847231 0.473734
0.335865 0.850000 0.476503
0.452528 0.852692 0.479195
0.567028 0.855334 0.481838
0.679930 0.857940 0.484443
0.791567 0.860516 0.487019
0.902159 0.863068 0.489571
0.973980 0.864726 0.491229
0.096244 0.956775 0.479064
0.224146 0.959727 0.482015
0.344146 0.962496 0.484785
0.460809 0.965188 0.487477
0.575309 0.967830 0.490119
0.688212 0.970436 0.492725
0.799849 0.973012 0.495301
0.910440 0.975564 0.497853
0.982262 0.977222 0.499510
0.028526 0.027018 0.509283
0.156428 0.029969 0.512235
0.276428 0.032739 0.515004
0.393092 0.035431 0.517696
0.507592 0.038073 0.520338
0.620494 0.040679 0.522944
0.732131 0.043255 0.525520
0.842723 0.045807 0.528072
0.914544 0.047464 0.529730
0.037666 0.151177 0.518423
0.165568 0.154128 0.521375
0.285569 0.156897 0.524144
0.402232 0.159590 0.526836
0.516732 0.162232 0.529479
0.629634 0.164837 0.532084
0.741271 0.167414 0.534660
0.851863 0.169966 0.537212
0.923684 0.171623 0.538870
0.046453 0.270546 0.527211
0.174356 0.273497 0.530162
0.294356 0.276267 0.532932
0.411019 0.278959 0.535624
0.525519 0.281601 0.538266
0.638421 0.284207 0.540872
0.750059 0.286783 0.543448
0.860650 0.289335 0.546000
0.932472 0.290992 0.547657
0.055080 0.387731 0.535837
0.182982 0.390682 0.538789
0.302983 0.393452 0.541558
0.419646 0.396144 0.544251
0.534146 0.398786 0.546893
0.647048 0.401392 0.549498
0.758685 0.403968 0.552075
0.869277 0.406520 0.554627
0.941098 0.408177 0.556284
0.063601 0.503476 0.544358
0.191503 0.506427 0.547310
0.311504 0.509197 0.550079
0.428167 0.511889 0.552771
0.542667 0.514531 0.555414
0.655569 0.517137 0.558019
0.767206 0.519713 0.560595
0.877798 0.522265 0.563148
0.949619 0.523923 0.564805
0.072043 0.618146 0.552800
0.199945 0.621098 0.555752
0.319945 0.623867 0.558521
0.436608 0.626560 0.561213
0.551109 0.629202 0.563855
0.664011 0.631807 0.566461
0.775648 0.634384 0.569037
0.886240 0.636936 0.571589
0.958061 0.638593 0.573247
0.080421 0.731961 0.561179
0.208323 0.734913 0.564130
0.328324 0.737682 0.566899
0.444987 0.740374 0.569592
0.559487 0.743016 0.572234
0.672389 0.745622 0.574839
0.784026 0.748198 0.577416
0.894618 0.750750 0.579968
0.966439 0.752408 0.581625
0.088748 0.845065 0.569505
0.216650 0.848016 0.572456
0.336650 0.850785 0.575226
0.453313 0.853478 0.577918
0.567814 0.856120 0.580560
0.680716 0.858725 0.583166
0.792353 0.861302 0.585742
0.902944 0.863854 0.588294
0.974766 0.865511 0.589952
0.097029 0.957561 0.577786
0.224931 0.960512 0.580738
0.344932 0.963282 0.583507
0.461595 0.965974 0.586200
0.576095 0.968616 0.588842
0.688997 0.971222 0.591447
0.800634 0.973798 0.594024
0.911226 0.976350 0.596576
0.983047 0.978007 0.598233
0.029310 0.027802 0.607854
0.157212 0.030754 0.610806
0.277213 0.033523 0.613575
0.393876 0.036215 0.616267
0.508376 0.038858 0.618910
0.621278 0.041463 0.621515
0.732915 0.044039 0.624091
0.843507 0.046592 0.626643
0.915328 0.048249 0.628301
0.038450 0.151961 0.616994
0.166352 0.154913 0.619946
0.286353 0.157682 0.622715
0.403016 0.160374 0.625407
0.517516 0.163016 0.628050
0.630418 0.165622 0.630655
0.742055 0.168198 0.633231
0.852647 0.170750 0.635784
0.924468 0.172408 0.637441
0.047238 0.271330 0.625782
0.175140 0.274282 0.628733
0.295141 0.277051 0.631503
0.411804 0.279743 0.634195
0.526304 0.282386 0.636837
0.639206 0.284991 0.639443
0.750843 0.287567 0.642019
0.861435 0.290119 0.644571
0.933256 0.291777 0.646229
0.055865 0.388515 0.634409
0.183767 0.391467 0.637360
0.303767 0.394236 0.640130
0.420430 0.396928 0.642822
0.534931 0.399571 0.645464
0.647833 0.402176 0.648070
0.759470 0.404752 0.650646
0.870062 0.407305 0.653198
0.941883 0.408962 0.654855
0.064385 0.504260 0.642929
0.192288 0.507212 0.645881
0.312288 0.509981 0.648650
0.428951 0.512673 0.651343
0.543451 0.515316 0.653985
0.656353 0.517921 0.656590
0.767991 0.520497 0.659167
0.878582 0.523050 0.661719
0.950404 0.524707 0.663376
0.072827 0.618931 0.651371
0.200729 0.621883 0.654323
0.320730 0.624652 0.657092
0.437393 0.627344 0.659784
0.551893 0.629986 0.662427
0.664795 0.632592 0.665032
0.776432 0.635168 0.667608
0.887024 0.637720 0.670160
0.958845 0.639378 0.671818
0.081206 0.732745 0.659750
0.209108 0.735697 0.662701
0.329108 0.738466 0.665471
0.445772 0.741159 0.668163
0.560272 0.743801 0.670805
0.673174 0.746406 0.673411
0.784811 0.748983 0.675987
0.895403 0.751535 0.678539
0.967224 0.753192 0.680196
0.089532 0.845849 0.668076
0.217434 0.848801 0.671028
0.337435 0.851570 0.673797
0.454098 0.854262 0.676489
0.568598 0.856904 0.679131
0.681500 0.859510 0.681737
0.793137 0.862086 0.684313
0.903729 0.864638 0.686865
0.975550 0.866296 0.688523
0.097814 0.958345 0.676358
0.225716 0.961297 0.679309
0.345716 0.964066 0.682078
0.462379 0.966758 0.684771
0.576880 0.969401 0.687413
0.689782 0.972006 0.690018
0.801419 0.974582 0.692595
0.912011 0.977134 0.695147
0.983832 0.978792 0.696804
0.030094 0.028586 0.706296
0.157996 0.031537 0.709248
0.277996 0.034307 0.712017
0.394659 0.036999 0.714709
0.509160 0.039641 0.717352
0.622062 0.042247 0.719957
0.733699 0.044823 0.722534
0.844291 0.047375 0.725086
0.916112 0.049032 0.726743
0.039234 0.152744 0.715437
0.167136 0.155696 0.718388
0.287137 0.158465 0.721157
0.403800 0.161158 0.723850
0.518300 0.163800 0.726492
0.631202 0.166405 0.729097
0.742839 0.168982 0.731674
0.853431 0.171534 0.734226
0.925252 0.173191 0.735883
0.048021 0.272114 0.724224
0.175923 0.275065 0.727176
0.295924 0.277834 0.729945
0.412587 0.280527 0.732637
0.527087 0.283169 0.735280
0.639989 0.285775 0.737885
0.751626 0.288351 0.740461
0.862218 0.290903 0.743013
0.934039 0.292560 0.744671
0.056648 0.389299 0.732851
0.184550 0.392250 0.735802
0.304551 0.395020 0.738572
0.421214 0.397712 0.741264
0.535714 0.400354 0.743906
0.648616 0.402960 0.746512
0.760253 0.405536 0.749088
0.870845 0.408088 0.751640
0.942666 0.409745 0.753298
0.065169 0.505044 0.741372
0.193071 0.507995 0.744323
0.313072 0.510765 0.747092
0.429735 0.513457 0.749785
0.544235 0.516099 0.752427
0.657137 0.518705 0.755032
0.768774 0.521281 0.757609
0.879366 0.523833 0.760161
0.951187 0.525490 0.761818
0.073611 0.619714 0.749813
0.201513 0.622666 0.752765
0.321513 0.625435 0.755534
0.438176 0.628127 0.758226
0.552676 0.630770 0.760869
0.665579 0.633375 0.763474
0.777216 0.635952 0.766050
0.887807 0.638504 0.768603
0.959629 0.640161 0.770260
0.081989 0.733529 0.758192
0.209891 0.736481 0.761144
0.329892 0.739250 0.763913
0.446555 0.741942 0.766605
0.561055 0.744584 0.769247
0.673957 0.747190 0.771853
0.785594 0.749766 0.774429
0.896186 0.752318 0.776981
0.968007 0.753976 0.778639
0.090316 0.846632 0.766518
0.218218 0.849584 0.769470
0.338218 0.852353 0.772239
0.454881 0.855046 0.774931
0.569381 0.857688 0.777574
0.682284 0.860293 0.780179
0.793921 0.862870 0.782755
0.904512 0.865422 0.785307
0.976334 0.867079 0.786965
0.098597 0.959129 0.774800
0.226499 0.962080 0.777751
0.346500 0.964849 0.780521
0.463163 0.967542 0.783213
0.577663 0.970184 0.785855
0.690565 0.972789 0.788461
0.802202 0.975366 0.791037
0.912794 0.977918 0.793589
0.984615 0.979575 0.795246
0.030876 0.029368 0.804626
0.158778 0.032320 0.807578
0.278779 0.035089 0.810347
0.395442 0.037781 0.813040
0.509942 0.040424 0.815682
0.622844 0.043029 0.818287
0.734481 0.045605 0.820864
0.845073 0.048158 0.823416
0.916894 0.049815 0.825073
0.040016 0.153527 0.813767
0.167918 0.156479 0.816718
0.287919 0.159248 0.819487
0.404582 0.161940 0.822180
0.519082 0.164582 0.824822
0.631984 0.167188 0.827427
0.743621 0.169764 0.830004
0.854213 0.172316 0.832556
0.926034 0.173974 0.834213
0.048804 0.272896 0.822554
0.176706 0.275848 0.825506
0.296707 0.278617 0.828275
0.413370 0.281309 0.830967
0.527870 0.283952 0.833610
0.640772 0.286557 0.836215
0.752409 0.289133 0.838791
0.863001 0.291685 0.841343
0.934822 0.293343 0.843001
0.057431 0.390081 0.831181
0.185333 0.393033 0.834132
0.305333 0.395802 0.836902
0.421996 0.398494 0.839594
0.536497 0.401137 0.842236
0.649399 0.403742 0.844842
0.761036 0.406318 0.847418
0.871628 0.408871 0.849970
0.943449 0.410528 0.851628
0.065951 0.505826 0.839702
0.193854 0.508778 0.842653
0.313854 0.511547 0.845422
0.430517 0.514239 0.848115
0.545017 0.516882 0.850757
0.657919 0.519487 0.853363
0.769557 0.522063 0.855939
0.880148 0.524616 0.858491
0.951970 0.526273 0.860148
0.074393 0.620497 0.848143
0.202295 0.623449 0.851095
0.322296 0.626218 0.853864
0.438959 0.628910 0.856556
0.553459 0.631552 0.859199
0.666361 0.634158 0.861804
0.777998 0.636734 0.864380
0.888590 0.639286 0.866933
0.960411 0.640944 0.868590
0.082772 0.734311 0.856522
0.210674 0.737263 0.859474
0.330674 0.740032 0.862243
0.447337 0.742725 0.864935
0.561838 0.745367 0.867577
0.674740 0.747972 0.870183
0.786377 0.750549 0.872759
0.896969 0.753101 0.875311
0.968790 0.754758 0.876969
0.091098 0.847415 0.864848
0.219000 0.850367 0.867800
0.339001 0.853136 0.870569
0.455664 0.855828 0.873261
0.570164 0.858470 0.875904
0.683066 0.861076 0.878509
0.794703 0.863652 0.881085
0.905295 0.866204 0.883638
0.977116 0.867862 0.885295
0.099380 0.959911 0.873130
0.227282 0.962863 0.876081
0.347282 0.965632 0.878851
0.463945 0.968324 0.881543
0.578446 0.970967 0.884185
0.691348 0.973572 0.886791
0.802985 0.976148 0.889367
0.913577 0.978700 0.891919
0.985398 0.980358 0.893577
