public/luts/iphone/lk-iphone-portrait.cube
TITLE "LK iPhone Portrait"
LUT_3D_SIZE 5
DOMAIN_MIN 0.0 0.0 0.0
DOMAIN_MAX 1.0 1.0 1.0
0.018219 0.015360 0.011949
0.282925 0.018289 0.014878
0.523821 0.020955 0.017543
0.755640 0.023520 0.020109
0.951249 0.025685 0.022273
0.027593 0.273770 0.021323
0.292299 0.276699 0.024252
0.533196 0.279365 0.026918
0.765015 0.281930 0.029483
0.960623 0.284094 0.031647
0.036334 0.514716 0.030064
0.301040 0.517645 0.032993
0.541936 0.520311 0.035658
0.773755 0.522876 0.038224
0.969364 0.525041 0.040388
0.044826 0.748802 0.038555
0.309532 0.751731 0.041485
0.550428 0.754397 0.044150
0.782247 0.756962 0.046715
0.977856 0.759127 0.048880
0.053059 0.975765 0.046789
0.317765 0.978694 0.049718
0.558662 0.981360 0.052384
0.790481 0.983925 0.054949
0.986089 0.986089 0.057113
0.019108 0.016249 0.246823
0.283814 0.019178 0.249752
0.524711 0.021844 0.252418
0.756530 0.024409 0.254983
0.952138 0.026574 0.257148
0.028482 0.274659 0.256197
0.293188 0.277588 0.259127
0.534085 0.280254 0.261792
0.765904 0.282819 0.264357
0.961512 0.284984 0.266522
0.037223 0.515605 0.264938
0.301929 0.518534 0.267867
0.542825 0.521200 0.270533
0.774644 0.523765 0.273098
0.970253 0.525930 0.275263
0.045715 0.749691 0.273430
0.310421 0.752621 0.276359
0.551317 0.755286 0.279025
0.783136 0.757852 0.281590
0.978745 0.760016 0.283755
0.053948 0.976654 0.281663
0.318654 0.979583 0.284592
0.559551 0.982249 0.287258
0.791370 0.984814 0.289823
0.986978 0.986978 0.291988
0.019958 0.017099 0.471306
0.284664 0.020028 0.474235
0.525560 0.022694 0.476900
0.757379 0.025259 0.479466
0.952988 0.027424 0.481630
0.029332 0.275509 0.480680
0.294038 0.278438 0.483609
0.534935 0.281104 0.486275
0.766754 0.283669 0.488840
0.962362 0.285833 0.491004
0.038073 0.516455 0.489420
0.302779 0.519384 0.492350
0.543675 0.522050 0.495015
0.775494 0.524615 0.497581
0.971103 0.526780 0.499745
0.046565 0.750541 0.497912
0.311271 0.753470 0.500841
0.552167 0.756136 0.503507
0.783986 0.758701 0.506072
0.979595 0.760866 0.508237
0.054798 0.977504 0.506146
0.319504 0.980433 0.509075
0.560401 0.983098 0.511741
0.792220 0.985664 0.514306
0.987828 0.987828 0.516470
0.020787 0.017928 0.690421
0.285493 0.020858 0.693350
0.526390 0.023523 0.696016
0.758209 0.026088 0.698581
0.953818 0.028253 0.700746
0.030161 0.276338 0.699795
0.294867 0.279267 0.702724
0.535764 0.281933 0.705390
0.767583 0.284498 0.707955
0.963192 0.286663 0.710120
0.038902 0.517284 0.708536
0.303608 0.520214 0.711465
0.544505 0.522879 0.714131
0.776324 0.525444 0.716696
0.971932 0.527609 0.718860
0.047394 0.751371 0.717028
0.312100 0.754300 0.719957
0.552997 0.756966 0.722623
0.784816 0.759531 0.725188
0.980424 0.761695 0.727352
0.055627 0.978333 0.725261
0.320333 0.981262 0.728190
0.561230 0.983928 0.730856
0.793049 0.986493 0.733421
0.988658 0.988658 0.735586
0.021604 0.018745 0.906098
0.286310 0.021674 0.909027
0.527206 0.024340 0.911693
0.759025 0.026905 0.914258
0.954634 0.029070 0.916423
0.030978 0.277155 0.915472
0.295684 0.280084 0.918402
0.536581 0.282750 0.921067
0.768400 0.285315 0.923633
0.964008 0.287479 0.925797
0.039719 0.518101 0.924213
0.304425 0.521030 0.927142
0.545321 0.523696 0.929808
0.777140 0.526261 0.932373
0.972749 0.528425 0.934538
0.048210 0.752187 0.932705
0.312916 0.755116 0.935634
0.553813 0.757782 0.938300
0.785632 0.760347 0.940865
0.981241 0.762512 0.943030
0.056444 0.979150 0.940938
0.321150 0.982079 0.943868
0.562047 0.984744 0.946533
0.793866 0.987310 0.949099
0.989474 0.989474 0.951263
