public/luts/iphone/lk-iphone-moody.cube
TITLE "LK iPhone Moody"
LUT_3D_SIZE 17
DOMAIN_MIN 0.0 0.0 0.0
DOMAIN_MAX 1.0 1.0 1.0
0.000000 0.000000 0.000000
0.021917 0.000675 0.000675
0.067490 0.002078 0.002078
0.115058 0.003543 0.003543
0.163828 0.005044 0.005044
0.213473 0.006573 0.006573
0.263810 0.008123 0.008123
0.314721 0.009690 0.009690
0.366124 0.011273 0.011273
0.417957 0.012869 0.012869
0.470173 0.014476 0.014476
0.522734 0.016095 0.016095
0.575610 0.017723 0.017723
0.628776 0.019360 0.019360
0.682209 0.021005 0.021005
0.735891 0.022658 0.022658
0.789806 0.024318 0.024318
0.002270 0.023512 0.002270
0.024187 0.024187 0.002945
0.069760 0.025590 0.004348
0.117328 0.027055 0.005813
0.166098 0.028557 0.007314
0.215743 0.030085 0.008843
0.266080 0.031635 0.010393
0.316991 0.033203 0.011960
0.368394 0.034785 0.013543
0.420227 0.036381 0.015139
0.472443 0.037989 0.016747
0.525004 0.039607 0.018365
0.577880 0.041235 0.019993
0.631046 0.042872 0.021630
0.684479 0.044517 0.023275
0.738161 0.046170 0.024928
0.792076 0.047830 0.026588
0.006990 0.072402 0.006990
0.028908 0.073077 0.007665
0.074480 0.074480 0.009068
0.122048 0.075945 0.010533
0.170818 0.077446 0.012035
0.220463 0.078975 0.013563
0.270800 0.080525 0.015113
0.321712 0.082092 0.016681
0.373114 0.083675 0.018263
0.424947 0.085271 0.019859
0.477163 0.086879 0.021467
0.529725 0.088497 0.023085
0.582601 0.090125 0.024713
0.635766 0.091762 0.026350
0.689199 0.093407 0.027995
0.742881 0.095060 0.029648
0.796796 0.096720 0.031308
0.011918 0.123433 0.011918
0.033835 0.124107 0.012592
0.079407 0.125511 0.013995
0.126975 0.126975 0.015460
0.175745 0.128477 0.016962
0.225390 0.130005 0.018490
0.275728 0.131555 0.020040
0.326639 0.133123 0.021608
0.378041 0.134705 0.023190
0.429874 0.136301 0.024786
0.482090 0.137909 0.026394
0.534652 0.139527 0.028012
0.587528 0.141156 0.029640
0.640693 0.142792 0.031277
0.694126 0.144438 0.032923
0.747808 0.146090 0.034575
0.801723 0.147751 0.036235
0.016969 0.175753 0.016969
0.038886 0.176428 0.017644
0.084459 0.177831 0.019047
0.132027 0.179295 0.020512
0.180797 0.180797 0.022013
0.230442 0.182325 0.023542
0.280779 0.183875 0.025092
0.331690 0.185443 0.026659
0.383093 0.187026 0.028242
0.434926 0.188621 0.029838
0.487142 0.190229 0.031446
0.539703 0.191848 0.033064
0.592579 0.193476 0.034692
0.645745 0.195112 0.036329
0.699178 0.196758 0.037974
0.752860 0.198411 0.039627
0.806775 0.200071 0.041287
0.022111 0.229011 0.022111
0.044028 0.229686 0.022786
0.089601 0.231089 0.024189
0.137169 0.232554 0.025654
0.185939 0.234056 0.027155
0.235584 0.235584 0.028684
0.285921 0.237134 0.030234
0.336832 0.238702 0.031801
0.388235 0.240284 0.033384
0.440068 0.241880 0.034980
0.492284 0.243488 0.036588
0.544845 0.245106 0.038206
0.597722 0.246734 0.039834
0.650887 0.248371 0.041471
0.704320 0.250016 0.043116
0.758002 0.251669 0.044769
0.811917 0.253329 0.046429
0.027325 0.283012 0.027325
0.049242 0.283687 0.028000
0.094815 0.285090 0.029403
0.142383 0.286555 0.030868
0.191153 0.288057 0.032369
0.240798 0.289585 0.033898
0.291135 0.291135 0.035448
0.342046 0.292703 0.037015
0.393449 0.294285 0.038598
0.445282 0.295881 0.040194
0.497498 0.297489 0.041802
0.550059 0.299107 0.043420
0.602935 0.300735 0.045048
0.656101 0.302372 0.046685
0.709534 0.304017 0.048330
0.763216 0.305670 0.049983
0.817131 0.307330 0.051643
0.032598 0.337629 0.032598
0.054515 0.338304 0.033273
0.100088 0.339707 0.034676
0.147656 0.341172 0.036141
0.196426 0.342674 0.037643
0.246071 0.344202 0.039171
0.296408 0.345752 0.040721
0.347319 0.347319 0.042289
0.398722 0.348902 0.043871
0.450555 0.350498 0.045467
0.502771 0.352106 0.047075
0.555333 0.353724 0.048693
0.608209 0.355352 0.050321
0.661374 0.356989 0.051958
0.714807 0.358634 0.053603
0.768489 0.360287 0.055256
0.822404 0.361947 0.056916
0.037923 0.392774 0.037923
0.059840 0.393448 0.038597
0.105412 0.394852 0.040001
0.152980 0.396316 0.041465
0.201750 0.397818 0.042967
0.251396 0.399346 0.044495
0.301733 0.400896 0.046045
0.352644 0.402464 0.047613
0.404046 0.404046 0.049195
0.455879 0.405642 0.050791
0.508095 0.407250 0.052399
0.560657 0.408868 0.054017
0.613533 0.410496 0.055645
0.666698 0.412133 0.057282
0.720131 0.413779 0.058928
0.773813 0.415431 0.060580
0.827728 0.417091 0.062240
0.043291 0.448379 0.043291
0.065208 0.449054 0.043966
0.110781 0.450457 0.045369
0.158349 0.451922 0.046834
0.207119 0.453424 0.048336
0.256764 0.454952 0.049864
0.307101 0.456502 0.051414
0.358012 0.458069 0.052982
0.409415 0.459652 0.054564
0.461248 0.461248 0.056160
0.513464 0.462856 0.057768
0.566026 0.464474 0.059386
0.618902 0.466102 0.061014
0.672067 0.467739 0.062651
0.725500 0.469384 0.064296
0.779182 0.471037 0.065949
0.833097 0.472697 0.067609
0.048700 0.504396 0.048700
0.070617 0.505071 0.049375
0.116190 0.506474 0.050778
0.163758 0.507939 0.052242
0.212528 0.509440 0.053744
0.262173 0.510969 0.055273
0.312510 0.512519 0.056822
0.363421 0.514086 0.058390
0.414824 0.515669 0.059973
0.466657 0.517265 0.061569
0.518873 0.518873 0.063176
0.571434 0.520491 0.064795
0.624310 0.522119 0.066423
0.677475 0.523756 0.068060
0.730908 0.525401 0.069705
0.784590 0.527054 0.071358
0.838506 0.528714 0.073018
0.054144 0.560783 0.054144
0.076061 0.561458 0.054819
0.121634 0.562861 0.056222
0.169202 0.564326 0.057687
0.217972 0.565828 0.059188
0.267617 0.567356 0.060717
0.317954 0.568906 0.062267
0.368865 0.570474 0.063834
0.420268 0.572056 0.065417
0.472101 0.573652 0.067013
0.524317 0.575260 0.068621
0.576878 0.576878 0.070239
0.629754 0.578506 0.071867
0.682920 0.580143 0.073504
0.736353 0.581788 0.075149
0.790035 0.583441 0.076802
0.843950 0.585101 0.078462
0.059621 0.617508 0.059621
0.081538 0.618183 0.060296
0.127111 0.619586 0.061699
0.174679 0.621051 0.063163
0.223449 0.622553 0.064665
0.273094 0.624081 0.066194
0.323431 0.625631 0.067743
0.374342 0.627199 0.069311
0.425745 0.628781 0.070894
0.477578 0.630377 0.072490
0.529794 0.631985 0.074097
0.582355 0.633603 0.075716
0.635231 0.635231 0.077344
0.688397 0.636868 0.078981
0.741830 0.638513 0.080626
0.795512 0.640166 0.082279
0.849427 0.641826 0.083939
0.065128 0.674544 0.065128
0.087045 0.675218 0.065802
0.132617 0.676622 0.067206
0.180185 0.678086 0.068670
0.228955 0.679588 0.070172
0.278601 0.681116 0.071700
0.328938 0.682666 0.073250
0.379849 0.684234 0.074818
0.431251 0.685816 0.076400
0.483084 0.687412 0.077996
0.535300 0.689020 0.079604
0.587862 0.690638 0.081222
0.640738 0.692266 0.082851
0.693903 0.693903 0.084487
0.747336 0.695549 0.086133
0.801018 0.697201 0.087785
0.854933 0.698861 0.089446
0.070662 0.731866 0.070662
0.092579 0.732541 0.071337
0.138152 0.733944 0.072740
0.185720 0.735408 0.074205
0.234490 0.736910 0.075706
0.284135 0.738439 0.077235
0.334472 0.739988 0.078785
0.385383 0.741556 0.080352
0.436786 0.743139 0.081935
0.488619 0.744735 0.083531
0.540835 0.746342 0.085139
0.593396 0.747961 0.086757
0.646273 0.749589 0.088385
0.699438 0.751226 0.090022
0.752871 0.752871 0.091667
0.806553 0.754524 0.093320
0.860468 0.756184 0.094980
0.076222 0.789455 0.076222
0.098140 0.790130 0.076897
0.143712 0.791533 0.078300
0.191280 0.792998 0.079765
0.240050 0.794500 0.081267
0.289695 0.796028 0.082795
0.340032 0.797578 0.084345
0.390944 0.799145 0.085913
0.442346 0.800728 0.087495
0.494179 0.802324 0.089091
0.546395 0.803932 0.090699
0.598957 0.805550 0.092317
0.651833 0.807178 0.093945
0.704998 0.808815 0.095582
0.758431 0.810460 0.097227
0.812113 0.812113 0.098880
0.866028 0.813773 0.100540
0.081807 0.847295 0.081807
0.103724 0.847970 0.082482
0.149297 0.849373 0.083885
0.196865 0.850837 0.085349
0.245635 0.852339 0.086851
0.295280 0.853868 0.088380
0.345617 0.855417 0.089930
0.396528 0.856985 0.091497
0.447931 0.858568 0.093080
0.499764 0.860164 0.094676
0.551980 0.861771 0.096283
0.604541 0.863390 0.097902
0.657417 0.865018 0.099530
0.710583 0.866655 0.101167
0.764016 0.868300 0.102812
0.817698 0.869953 0.104465
0.871613 0.871613 0.106125
0.000375 0.000375 0.035131
0.022292 0.001050 0.035806
0.067865 0.002453 0.037209
0.115433 0.003918 0.038673
0.164203 0.005419 0.040175
0.213848 0.006948 0.041704
0.264185 0.008498 0.043254
0.315096 0.010065 0.044821
0.366499 0.011648 0.046404
0.418332 0.013244 0.048000
0.470548 0.014851 0.049607
0.523109 0.016470 0.051226
0.575985 0.018098 0.052854
0.629151 0.019735 0.054491
0.682584 0.021380 0.056136
0.736266 0.023033 0.057789
0.790181 0.024693 0.059449
0.002645 0.023887 0.037401
0.024562 0.024562 0.038076
0.070135 0.025965 0.039479
0.117703 0.027430 0.040944
0.166473 0.028932 0.042445
0.216118 0.030460 0.043974
0.266455 0.032010 0.045524
0.317366 0.033578 0.047091
0.368769 0.035160 0.048674
0.420602 0.036756 0.050270
0.472818 0.038364 0.051877
0.525379 0.039982 0.053496
0.578255 0.041610 0.055124
0.631421 0.043247 0.056761
0.684854 0.044892 0.058406
0.738536 0.046545 0.060059
0.792451 0.048205 0.061719
0.007365 0.072777 0.042121
0.029283 0.073452 0.042796
0.074855 0.074855 0.044199
0.122423 0.076320 0.045664
0.171193 0.077821 0.047166
0.220838 0.079350 0.048694
0.271175 0.080900 0.050244
0.322087 0.082467 0.051812
0.373489 0.084050 0.053394
0.425322 0.085646 0.054990
0.477538 0.087254 0.056598
0.530100 0.088872 0.058216
0.582976 0.090500 0.059844
0.636141 0.092137 0.061481
0.689574 0.093782 0.063126
0.743256 0.095435 0.064779
0.797171 0.097095 0.066439
0.012292 0.123808 0.047048
0.034210 0.124482 0.047723
0.079782 0.125886 0.049126
0.127350 0.127350 0.050591
0.176120 0.128852 0.052093
0.225765 0.130380 0.053621
0.276102 0.131930 0.055171
0.327014 0.133498 0.056739
0.378416 0.135080 0.058321
0.430249 0.136676 0.059917
0.482465 0.138284 0.061525
0.535027 0.139902 0.063143
0.587903 0.141530 0.064771
0.641068 0.143167 0.066408
0.694501 0.144813 0.068053
0.748183 0.146465 0.069706
0.802098 0.148125 0.071366
0.017344 0.176128 0.052100
0.039261 0.176802 0.052775
0.084834 0.178206 0.054178
0.132402 0.179670 0.055643
0.181172 0.181172 0.057144
0.230817 0.182700 0.058673
0.281154 0.184250 0.060223
0.332065 0.185818 0.061790
0.383468 0.187400 0.063373
0.435301 0.188996 0.064969
0.487517 0.190604 0.066576
0.540078 0.192222 0.068195
0.592954 0.193851 0.069823
0.646120 0.195487 0.071460
0.699553 0.197133 0.073105
0.753235 0.198785 0.074758
0.807150 0.200446 0.076418
0.022486 0.229386 0.057242
0.044403 0.230061 0.057917
0.089976 0.231464 0.059320
0.137544 0.232929 0.060785
0.186314 0.234431 0.062286
0.235959 0.235959 0.063815
0.286296 0.237509 0.065365
0.337207 0.239077 0.066932
0.388610 0.240659 0.068515
0.440443 0.242255 0.070111
0.492659 0.243863 0.071719
0.545220 0.245481 0.073337
0.598097 0.247109 0.074965
0.651262 0.248746 0.076602
0.704695 0.250391 0.078247
0.758377 0.252044 0.079900
0.812292 0.253704 0.081560
0.027700 0.283387 0.062456
0.049617 0.284062 0.063131
0.095190 0.285465 0.064534
0.142758 0.286930 0.065999
0.191528 0.288432 0.067500
0.241173 0.289960 0.069029
0.291510 0.291510 0.070579
0.342421 0.293078 0.072146
0.393824 0.294660 0.073729
0.445657 0.296256 0.075325
0.497873 0.297864 0.076932
0.550434 0.299482 0.078551
0.603310 0.301110 0.080179
0.656476 0.302747 0.081816
0.709909 0.304392 0.083461
0.763591 0.306045 0.085114
0.817506 0.307705 0.086774
0.032973 0.338004 0.067729
0.054890 0.338679 0.068404
0.100463 0.340082 0.069807
0.148031 0.341547 0.071272
0.196801 0.343048 0.072773
0.246446 0.344577 0.074302
0.296783 0.346127 0.075852
0.347694 0.347694 0.077419
0.399097 0.349277 0.079002
0.450930 0.350873 0.080598
0.503146 0.352481 0.082206
0.555708 0.354099 0.083824
0.608584 0.355727 0.085452
0.661749 0.357364 0.087089
0.715182 0.359009 0.088734
0.768864 0.360662 0.090387
0.822779 0.362322 0.092047
0.038298 0.393148 0.073053
0.060215 0.393823 0.073728
0.105787 0.395226 0.075131
0.153355 0.396691 0.076596
0.202125 0.398193 0.078098
0.251770 0.399721 0.079626
0.302108 0.401271 0.081176
0.353019 0.402839 0.082744
0.404421 0.404421 0.084326
0.456254 0.406017 0.085922
0.508470 0.407625 0.087530
0.561032 0.409243 0.089148
0.613908 0.410871 0.090776
0.667073 0.412508 0.092413
0.720506 0.414153 0.094058
0.774188 0.415806 0.095711
0.828103 0.417466 0.097371
0.043666 0.448754 0.078422
0.065583 0.449429 0.079097
0.111156 0.450832 0.080500
0.158724 0.452297 0.081965
0.207494 0.453799 0.083466
0.257139 0.455327 0.084995
0.307476 0.456877 0.086545
0.358387 0.458444 0.088112
0.409790 0.460027 0.089695
0.461623 0.461623 0.091291
0.513839 0.463231 0.092899
0.566400 0.464849 0.094517
0.619277 0.466477 0.096145
0.672442 0.468114 0.097782
0.725875 0.469759 0.099427
0.779557 0.471412 0.101080
0.833472 0.473072 0.102740
0.049075 0.504771 0.083831
0.070992 0.505446 0.084505
0.116565 0.506849 0.085909
0.164132 0.508314 0.087373
0.212903 0.509815 0.088875
0.262548 0.511344 0.090403
0.312885 0.512894 0.091953
0.363796 0.514461 0.093521
0.415199 0.516044 0.095104
0.467032 0.517640 0.096699
0.519248 0.519248 0.098307
0.571809 0.520866 0.099925
0.624685 0.522494 0.101554
0.677850 0.524131 0.103190
0.731283 0.525776 0.104836
0.784965 0.527429 0.106489
0.838881 0.529089 0.108149
0.054519 0.561158 0.089275
0.076436 0.561833 0.089950
0.122009 0.563236 0.091353
0.169577 0.564701 0.092817
0.218347 0.566203 0.094319
0.267992 0.567731 0.095848
0.318329 0.569281 0.097398
0.369240 0.570849 0.098965
0.420643 0.572431 0.100548
0.472476 0.574027 0.102144
0.524692 0.575635 0.103751
0.577253 0.577253 0.105370
0.630129 0.578881 0.106998
0.683295 0.580518 0.108635
0.736728 0.582163 0.110280
0.790410 0.583816 0.111933
0.844325 0.585476 0.113593
0.059996 0.617883 0.094752
0.081913 0.618558 0.095427
0.127486 0.619961 0.096830
0.175054 0.621426 0.098294
0.223824 0.622928 0.099796
0.273469 0.624456 0.101325
0.323806 0.626006 0.102874
0.374717 0.627573 0.104442
0.426120 0.629156 0.106025
0.477953 0.630752 0.107620
0.530169 0.632360 0.109228
0.582730 0.633978 0.110847
0.635606 0.635606 0.112475
0.688772 0.637243 0.114112
0.742204 0.638888 0.115757
0.795887 0.640541 0.117410
0.849802 0.642201 0.119070
0.065503 0.674919 0.100259
0.087420 0.675593 0.100933
0.132992 0.676996 0.102337
0.180560 0.678461 0.103801
0.229330 0.679963 0.105303
0.278976 0.681491 0.106831
0.329313 0.683041 0.108381
0.380224 0.684609 0.109949
0.431626 0.686191 0.111531
0.483459 0.687787 0.113127
0.535675 0.689395 0.114735
0.588237 0.691013 0.116353
0.641113 0.692641 0.117981
0.694278 0.694278 0.119618
0.747711 0.695923 0.121264
0.801393 0.697576 0.122916
0.855308 0.699236 0.124576
0.071037 0.732241 0.105793
0.092954 0.732916 0.106468
0.138527 0.734319 0.107871
0.186095 0.735783 0.109336
0.234865 0.737285 0.110837
0.284510 0.738814 0.112366
0.334847 0.740363 0.113916
0.385758 0.741931 0.115483
0.437161 0.743514 0.117066
0.488994 0.745110 0.118662
0.541210 0.746717 0.120270
0.593771 0.748336 0.121888
0.646647 0.749964 0.123516
0.699813 0.751601 0.125153
0.753246 0.753246 0.126798
0.806928 0.754899 0.128451
0.860843 0.756559 0.130111
0.076597 0.789830 0.111353
0.098514 0.790505 0.112028
0.144087 0.791908 0.113431
0.191655 0.793373 0.114896
0.240425 0.794874 0.116398
0.290070 0.796403 0.117926
0.340407 0.797953 0.119476
0.391319 0.799520 0.121044
0.442721 0.801103 0.122626
0.494554 0.802699 0.124222
0.546770 0.804307 0.125830
0.599332 0.805925 0.127448
0.652208 0.807553 0.129076
0.705373 0.809190 0.130713
0.758806 0.810835 0.132358
0.812488 0.812488 0.134011
0.866403 0.814148 0.135671
0.082182 0.847670 0.116938
0.104099 0.848345 0.117613
0.149672 0.849748 0.119016
0.197240 0.851212 0.120480
0.246010 0.852714 0.121982
0.295655 0.854243 0.123511
0.345992 0.855792 0.125060
0.396903 0.857360 0.126628
0.448306 0.858943 0.128211
0.500139 0.860539 0.129807
0.552355 0.862146 0.131414
0.604916 0.863765 0.133033
0.657792 0.865393 0.134661
0.710958 0.867030 0.136298
0.764391 0.868675 0.137943
0.818073 0.870328 0.139596
0.871988 0.871988 0.141256
0.000914 0.000914 0.085606
0.022831 0.001589 0.086281
0.068403 0.002992 0.087684
0.115971 0.004456 0.089149
0.164742 0.005958 0.090651
0.214387 0.007486 0.092179
0.264724 0.009036 0.093729
0.315635 0.010604 0.095297
0.367038 0.012187 0.096879
0.418870 0.013782 0.098475
0.471086 0.015390 0.100083
0.523648 0.017009 0.101701
0.576524 0.018637 0.103329
0.629689 0.020274 0.104966
0.683122 0.021919 0.106611
0.736804 0.023572 0.108264
0.790720 0.025232 0.109924
0.003184 0.024426 0.087877
0.025101 0.025101 0.088551
0.070674 0.026504 0.089955
0.118242 0.027969 0.091419
0.167012 0.029470 0.092921
0.216657 0.030999 0.094449
0.266994 0.032549 0.095999
0.317905 0.034116 0.097567
0.369308 0.035699 0.099149
0.421141 0.037295 0.100745
0.473357 0.038903 0.102353
0.525918 0.040521 0.103971
0.578794 0.042149 0.105599
0.631960 0.043786 0.107236
0.685392 0.045431 0.108882
0.739075 0.047084 0.110534
0.792990 0.048744 0.112194
0.007904 0.073316 0.092597
0.029821 0.073991 0.093272
0.075394 0.075394 0.094675
0.122962 0.076859 0.096139
0.171732 0.078360 0.097641
0.221377 0.079889 0.099170
0.271714 0.081439 0.100720
0.322625 0.083006 0.102287
0.374028 0.084589 0.103870
0.425861 0.086185 0.105466
0.478077 0.087792 0.107073
0.530638 0.089411 0.108692
0.583515 0.091039 0.110320
0.636680 0.092676 0.111957
0.690113 0.094321 0.113602
0.743795 0.095974 0.115255
0.797710 0.097634 0.116915
0.012831 0.124346 0.097524
0.034748 0.125021 0.098199
0.080321 0.126424 0.099602
0.127889 0.127889 0.101067
0.176659 0.129391 0.102568
0.226304 0.130919 0.104097
0.276641 0.132469 0.105647
0.327552 0.134037 0.107214
0.378955 0.135619 0.108797
0.430788 0.137215 0.110393
0.483004 0.138823 0.112000
0.535565 0.140441 0.113619
0.588442 0.142069 0.115247
0.641607 0.143706 0.116884
0.695040 0.145351 0.118529
0.748722 0.147004 0.120182
0.802637 0.148664 0.121842
0.017883 0.176666 0.102575
0.039800 0.177341 0.103250
0.085373 0.178744 0.104653
0.132940 0.180209 0.106118
0.181711 0.181711 0.107620
0.231356 0.183239 0.109148
0.281693 0.184789 0.110698
0.332604 0.186357 0.112266
0.384007 0.187939 0.113848
0.435840 0.189535 0.115444
0.488056 0.191143 0.117052
0.540617 0.192761 0.118670
0.593493 0.194389 0.120298
0.646658 0.196026 0.121935
0.700091 0.197671 0.123580
0.753773 0.199324 0.125233
0.807689 0.200984 0.126893
0.023025 0.229925 0.107718
0.044942 0.230600 0.108392
0.090515 0.232003 0.109796
0.138083 0.233468 0.111260
0.186853 0.234969 0.112762
0.236498 0.236498 0.114290
0.286835 0.238048 0.115840
0.337746 0.239615 0.117408
0.389149 0.241198 0.118990
0.440982 0.242794 0.120586
0.493198 0.244402 0.122194
0.545759 0.246020 0.123812
0.598635 0.247648 0.125440
0.651801 0.249285 0.127077
0.705234 0.250930 0.128723
0.758916 0.252583 0.130375
0.812831 0.254243 0.132035
0.028239 0.283926 0.112931
0.050156 0.284601 0.113606
0.095729 0.286004 0.115009
0.143296 0.287469 0.116474
0.192067 0.288970 0.117976
0.241712 0.290499 0.119504
0.292049 0.292049 0.121054
0.342960 0.293616 0.122622
0.394363 0.295199 0.124204
0.446196 0.296795 0.125800
0.498412 0.298403 0.127408
0.550973 0.300021 0.129026
0.603849 0.301649 0.130654
0.657014 0.303286 0.132291
0.710447 0.304931 0.133936
0.764129 0.306584 0.135589
0.818045 0.308244 0.137249
0.033512 0.338543 0.118205
0.055429 0.339218 0.118880
0.101002 0.340621 0.120283
0.148570 0.342086 0.121747
0.197340 0.343587 0.123249
0.246985 0.345116 0.124778
0.297322 0.346666 0.126327
0.348233 0.348233 0.127895
0.399636 0.349816 0.129478
0.451469 0.351412 0.131074
0.503685 0.353020 0.132681
0.556246 0.354638 0.134300
0.609122 0.356266 0.135928
0.662288 0.357903 0.137565
0.715721 0.359548 0.139210
0.769403 0.361201 0.140863
0.823318 0.362861 0.142523
0.038836 0.393687 0.123529
0.060753 0.394362 0.124204
0.106326 0.395765 0.125607
0.153894 0.397230 0.127072
0.202664 0.398731 0.128573
0.252309 0.400260 0.130102
0.302646 0.401810 0.131652
0.353557 0.403377 0.133219
0.404960 0.404960 0.134802
0.456793 0.406556 0.136398
0.509009 0.408164 0.138005
0.561570 0.409782 0.139624
0.614447 0.411410 0.141252
0.667612 0.413047 0.142889
0.721045 0.414692 0.144534
0.774727 0.416345 0.146187
0.828642 0.418005 0.147847
0.044205 0.449293 0.128898
0.066122 0.449968 0.129573
0.111695 0.451371 0.130976
0.159263 0.452836 0.132440
0.208033 0.454337 0.133942
0.257678 0.455866 0.135471
0.308015 0.457416 0.137020
0.358926 0.458983 0.138588
0.410329 0.460566 0.140171
0.462162 0.462162 0.141767
0.514378 0.463770 0.143374
0.566939 0.465388 0.144993
0.619815 0.467016 0.146621
0.672981 0.468653 0.148258
0.726414 0.470298 0.149903
0.780096 0.471951 0.151556
0.834011 0.473611 0.153216
0.049613 0.505310 0.134306
0.071531 0.505985 0.134981
0.117103 0.507388 0.136384
0.164671 0.508852 0.137849
0.213441 0.510354 0.139350
0.263086 0.511883 0.140879
0.313424 0.513432 0.142429
0.364335 0.515000 0.143996
0.415737 0.516583 0.145579
0.467570 0.518179 0.147175
0.519786 0.519786 0.148783
0.572348 0.521405 0.150401
0.625224 0.523033 0.152029
0.678389 0.524670 0.153666
0.731822 0.526315 0.155311
0.785504 0.527968 0.156964
0.839419 0.529628 0.158624
0.055058 0.561697 0.139750
0.076975 0.562372 0.140425
0.122548 0.563775 0.141828
0.170115 0.565240 0.143293
0.218886 0.566741 0.144795
0.268531 0.568270 0.146323
0.318868 0.569820 0.147873
0.369779 0.571387 0.149441
0.421182 0.572970 0.151023
0.473014 0.574566 0.152619
0.525230 0.576174 0.154227
0.577792 0.577792 0.155845
0.630668 0.579420 0.157473
0.683833 0.581057 0.159110
0.737266 0.582702 0.160755
0.790948 0.584355 0.162408
0.844864 0.586015 0.164068
0.060535 0.618422 0.145227
0.082452 0.619097 0.145902
0.128024 0.620500 0.147305
0.175592 0.621965 0.148770
0.224362 0.623466 0.150271
0.274008 0.624995 0.151800
0.324345 0.626545 0.153350
0.375256 0.628112 0.154917
0.426658 0.629695 0.156500
0.478491 0.631291 0.158096
0.530707 0.632899 0.159704
0.583269 0.634517 0.161322
0.636145 0.636145 0.162950
0.689310 0.637782 0.164587
0.742743 0.639427 0.166232
0.796425 0.641080 0.167885
0.850340 0.642740 0.169545
0.066041 0.675457 0.150734
0.087958 0.676132 0.151409
0.133531 0.677535 0.152812
0.181099 0.679000 0.154277
0.229869 0.680501 0.155778
0.279514 0.682030 0.157307
0.329851 0.683580 0.158857
0.380762 0.685147 0.160424
0.432165 0.686730 0.162007
0.483998 0.688326 0.163603
0.536214 0.689934 0.165211
0.588776 0.691552 0.166829
0.641652 0.693180 0.168457
0.694817 0.694817 0.170094
0.748250 0.696462 0.171739
0.801932 0.698115 0.173392
0.855847 0.699775 0.175052
0.071576 0.732780 0.156269
0.093493 0.733454 0.156943
0.139066 0.734857 0.158347
0.186634 0.736322 0.159811
0.235404 0.737824 0.161313
0.285049 0.739352 0.162841
0.335386 0.740902 0.164391
0.386297 0.742470 0.165959
0.437700 0.744052 0.167541
0.489533 0.745648 0.169137
0.541749 0.747256 0.170745
0.594310 0.748874 0.172363
0.647186 0.750502 0.173991
0.700352 0.752139 0.175628
0.753785 0.753785 0.177274
0.807467 0.755437 0.178926
0.861382 0.757097 0.180586
0.077136 0.790369 0.161829
0.099053 0.791044 0.162504
0.144626 0.792447 0.163907
0.192194 0.793912 0.165371
0.240964 0.795413 0.166873
0.290609 0.796942 0.168402
0.340946 0.798492 0.169951
0.391857 0.800059 0.171519
0.443260 0.801642 0.173102
0.495093 0.803238 0.174698
0.547309 0.804845 0.176305
0.599870 0.806464 0.177924
0.652747 0.808092 0.179552
0.705912 0.809729 0.181189
0.759345 0.811374 0.182834
0.813027 0.813027 0.184487
0.866942 0.814687 0.186147
0.082721 0.848209 0.167413
0.104638 0.848883 0.168088
0.150210 0.850287 0.169491
0.197778 0.851751 0.170956
0.246548 0.853253 0.172458
0.296194 0.854781 0.173986
0.346531 0.856331 0.175536
0.397442 0.857899 0.177103
0.448844 0.859481 0.178686
0.500677 0.861077 0.180282
0.552893 0.862685 0.181890
0.605455 0.864303 0.183508
0.658331 0.865931 0.185136
0.711496 0.867568 0.186773
0.764929 0.869214 0.188418
0.818611 0.870866 0.190071
0.872526 0.872526 0.191731
0.001467 0.001467 0.137466
0.023384 0.002142 0.138141
0.068957 0.003545 0.139544
0.116525 0.005010 0.141009
0.165295 0.006511 0.142510
0.214940 0.008040 0.144039
0.265277 0.009590 0.145589
0.316188 0.011157 0.147156
0.367591 0.012740 0.148739
0.419424 0.014336 0.150335
0.471640 0.015944 0.151942
0.524201 0.017562 0.153561
0.577078 0.019190 0.155189
0.630243 0.020827 0.156826
0.683676 0.022472 0.158471
0.737358 0.024125 0.160124
0.791273 0.025785 0.161784
0.003737 0.024980 0.139736
